; generated by Slic3r 1.0.0RC1 on 2013-11-25 at 07:43:10

; layer_height = .25
; perimeters = 2
; top_solid_layers = 3
; bottom_solid_layers = 3
; fill_density = 1
; perimeter_speed = 90
; infill_speed = 90
; travel_speed = 300
; nozzle_diameter = 0.5
; filament_diameter = 1.76
; extrusion_multiplier = 1
; perimeters extrusion width = 0.50mm
; infill extrusion width = 0.84mm
; solid infill extrusion width = 0.84mm
; top infill extrusion width = 0.84mm
; support material extrusion width = 0.50mm
; first layer extrusion width = 0.70mm

G21 ; set units to millimeters
M104 S242 T0 ; set temperature
M104 S242 T1 ; set temperature
M104 S242 T2 ; set temperature

M109 S242 T0 ; wait for temperature to be reached
M109 S242 T1 ; wait for temperature to be reached
M109 S242 T2 ; wait for temperature to be reached
G90 ; use absolute coordinates
G92 E0
M82 ; use absolute distances for extrusion
T0
G92 E0
G1 Z0.350 F18000.000
G1 F10500.000 E-12.00000
G1 Z1.350 F18000.000
G92 E0
G1 X1.240 Y-27.773 F18000.000
G1 Z0.350 F18000.000
G1 E12.00000 F10500.000
G1 X2.490 Y-27.723 E12.08999 F2700.000
G1 X4.200 Y-27.573 E12.21346
G1 X5.100 Y-27.463 E12.27868
G1 X6.700 Y-27.213 E12.39517
G1 X8.670 Y-26.753 E12.54069
G1 X10.540 Y-26.003 E12.68562
G1 X13.540 Y-24.513 E12.92657
G1 X14.740 Y-23.863 E13.02473
G1 X15.800 Y-23.223 E13.11380
G1 X16.800 Y-22.493 E13.20286
G1 X19.880 Y-20.003 E13.48776
G1 X21.290 Y-18.683 E13.62669
G1 X22.500 Y-17.173 E13.76588
G1 X23.260 Y-16.073 E13.86205
G1 X24.370 Y-14.293 E14.01295
G1 X25.080 Y-12.973 E14.12076
G1 X25.640 Y-11.583 E14.22856
G1 X26.580 Y-8.813 E14.43897
G1 X27.590 Y-5.503 E14.68790
G1 X28.050 Y-3.333 E14.84746
G1 X28.150 Y-1.123 E15.00660
G1 X28.080 Y0.797 E15.14480
G1 X27.870 Y3.467 E15.33745
G1 X27.480 Y5.767 E15.50525
G1 X26.820 Y8.287 E15.69264
G1 X26.420 Y9.547 E15.78773
G1 X25.900 Y10.767 E15.88312
G1 X24.150 Y14.367 E16.17106
G1 X23.010 Y16.297 E16.33229
G1 X21.560 Y18.017 E16.49412
G1 X18.930 Y20.647 E16.76166
G1 X17.560 Y21.837 E16.89219
G1 X16.050 Y22.837 E17.02247
G1 X11.740 Y25.287 E17.37908
G1 X10.280 Y26.007 E17.49618
G1 X8.730 Y26.537 E17.61401
G1 X6.140 Y27.267 E17.80758
G1 X4.270 Y27.657 E17.94498
G1 X2.360 Y27.777 E18.08265
G1 X-3.160 Y27.727 E18.47973
G1 X-4.630 Y27.637 E18.58567
G1 X-6.090 Y27.377 E18.69234
G1 X-7.600 Y27.027 E18.80384
G1 X-8.790 Y26.697 E18.89267
G1 X-9.950 Y26.247 E18.98217
G1 X-12.540 Y25.117 E19.18543
G1 X-13.610 Y24.597 E19.27100
G1 X-14.640 Y23.977 E19.35748
G1 X-17.980 Y21.747 E19.64636
G1 X-19.560 Y20.507 E19.79084
G1 X-20.950 Y19.047 E19.93584
G1 X-22.620 Y16.997 E20.12604
G1 X-23.820 Y15.247 E20.27867
G1 X-24.500 Y14.077 E20.37602
G1 X-25.370 Y12.297 E20.51853
G1 X-25.900 Y10.967 E20.62152
G1 X-26.320 Y9.747 E20.71433
G1 X-27.160 Y6.867 E20.93012
G1 X-27.480 Y5.537 E21.02852
G1 X-27.770 Y3.967 E21.14337
G1 X-27.960 Y2.367 E21.25927
G1 X-28.070 Y0.627 E21.38468
G1 X-28.040 Y-1.473 E21.53575
G1 X-27.850 Y-3.523 E21.68385
G1 X-27.470 Y-5.703 E21.84302
G1 X-26.810 Y-8.213 E22.02971
G1 X-26.480 Y-9.273 E22.10957
G1 X-25.460 Y-12.163 E22.33002
G1 X-24.660 Y-14.003 E22.47434
G1 X-23.590 Y-15.693 E22.61822
G1 X-22.290 Y-17.213 E22.76210
G1 X-17.900 Y-21.613 E23.20919
G1 X-16.090 Y-23.123 E23.37874
G1 X-14.050 Y-24.303 E23.54827
G1 X-10.540 Y-25.943 E23.82695
G1 X-9.190 Y-26.493 E23.93181
G1 X-7.790 Y-26.883 E24.03635
G1 X-5.390 Y-27.423 E24.21330
G1 X-3.960 Y-27.663 E24.31760
G1 X-2.500 Y-27.753 E24.42282
G1 X1.165 Y-27.772 E24.68646
G1 X1.240 Y-27.273 F18000.000
G1 X2.450 Y-27.223 E24.77357 F2700.000
G1 X4.160 Y-27.073 E24.89704
G1 X5.030 Y-26.963 E24.96012
G1 X6.630 Y-26.713 E25.07661
G1 X8.520 Y-26.273 E25.21620
G1 X10.320 Y-25.553 E25.35565
G1 X11.680 Y-24.893 E25.46439
G1 X13.300 Y-24.073 E25.59500
G1 X14.500 Y-23.423 E25.69316
G1 X15.520 Y-22.813 E25.77865
G1 X16.480 Y-22.103 E25.86454
G1 X19.560 Y-19.613 E26.14944
G1 X20.920 Y-18.343 E26.28329
G1 X22.090 Y-16.893 E26.41731
G1 X22.850 Y-15.793 E26.51349
G1 X23.240 Y-15.193 E26.56496
G1 X23.950 Y-14.033 E26.66279
G1 X24.630 Y-12.763 E26.76642
G1 X25.170 Y-11.423 E26.87034
G1 X26.110 Y-8.653 E27.08075
G1 X27.110 Y-5.353 E27.32878
G1 X27.550 Y-3.273 E27.48171
G1 X27.650 Y-1.143 E27.63510
G1 X27.550 Y1.387 E27.81723
G1 X27.380 Y3.427 E27.96448
G1 X27.000 Y5.637 E28.12578
G1 X26.340 Y8.157 E28.31316
G1 X25.950 Y9.377 E28.40530
G1 X25.450 Y10.547 E28.49682
G1 X23.700 Y14.147 E28.78475
G1 X22.600 Y16.007 E28.94019
G1 X21.200 Y17.657 E29.09585
G1 X18.570 Y20.287 E29.36339
G1 X17.260 Y21.437 E29.48878
G1 X15.800 Y22.397 E29.61447
G1 X11.490 Y24.847 E29.97108
G1 X10.080 Y25.537 E30.08400
G1 X8.600 Y26.057 E30.19684
G1 X6.010 Y26.787 E30.39040
G1 X4.200 Y27.167 E30.52344
G1 X2.360 Y27.277 E30.65603
G1 X-3.160 Y27.227 E31.05311
G1 X-4.580 Y27.137 E31.15546
G1 X-5.980 Y26.887 E31.25776
G1 X-7.490 Y26.537 E31.36926
G1 X-8.630 Y26.217 E31.45443
G1 X-9.750 Y25.797 E31.54047
G1 X-12.340 Y24.667 E31.74373
G1 X-13.370 Y24.157 E31.82641
G1 X-14.360 Y23.557 E31.90968
G1 X-17.700 Y21.327 E32.19856
G1 X-19.230 Y20.137 E32.33799
G1 X-20.560 Y18.727 E32.47741
G1 X-22.230 Y16.677 E32.66761
G1 X-23.390 Y14.997 E32.81446
G1 X-24.070 Y13.827 E32.91181
G1 X-24.910 Y12.107 E33.04950
G1 X-25.440 Y10.777 E33.15248
G1 X-25.840 Y9.607 E33.24143
G1 X-26.680 Y6.727 E33.45722
G1 X-26.980 Y5.447 E33.55179
G1 X-27.270 Y3.877 E33.66663
G1 X-27.460 Y2.337 E33.77825
G1 X-27.570 Y0.597 E33.90366
G1 X-27.540 Y-1.423 E34.04898
G1 X-27.350 Y-3.473 E34.19707
G1 X-26.980 Y-5.583 E34.35117
G1 X-26.320 Y-8.093 E34.53785
G1 X-26.010 Y-9.113 E34.61454
G1 X-24.990 Y-12.003 E34.83499
G1 X-24.210 Y-13.763 E34.97347
G1 X-23.190 Y-15.393 E35.11178
G1 X-21.930 Y-16.853 E35.25050
G1 X-17.540 Y-21.253 E35.69759
G1 X-15.810 Y-22.713 E35.86043
G1 X-13.840 Y-23.853 E36.02415
G1 X-10.330 Y-25.493 E36.30283
G1 X-9.030 Y-26.013 E36.40355
G1 X-7.680 Y-26.393 E36.50443
G1 X-5.280 Y-26.933 E36.68138
G1 X-3.900 Y-27.173 E36.78214
G1 X-2.500 Y-27.253 E36.88301
G1 X1.165 Y-27.272 E37.14664
G1 X1.240 Y-26.773 F18000.000
G1 X2.400 Y-26.723 E37.23016 F2700.000
G1 X4.110 Y-26.573 E37.35364
G1 X4.950 Y-26.473 E37.41449
G1 X6.550 Y-26.223 E37.53098
G1 X8.370 Y-25.793 E37.66550
G1 X10.100 Y-25.103 E37.79947
G1 X12.700 Y-23.823 E38.00793
G1 X14.260 Y-22.983 E38.13538
G1 X15.250 Y-22.393 E38.21828
G1 X16.170 Y-21.713 E38.30057
G1 X19.250 Y-19.223 E38.58547
G1 X20.560 Y-18.003 E38.71423
G1 X21.670 Y-16.613 E38.84219
G1 X22.430 Y-15.513 E38.93836
G1 X22.810 Y-14.933 E38.98824
G1 X23.520 Y-13.773 E39.08607
G1 X24.180 Y-12.543 E39.18648
G1 X24.700 Y-11.263 E39.28586
G1 X25.640 Y-8.493 E39.49627
G1 X26.630 Y-5.213 E39.74272
G1 X27.060 Y-3.203 E39.89058
G1 X27.150 Y-1.153 E40.03818
G1 X27.050 Y1.347 E40.21816
G1 X26.880 Y3.387 E40.36541
G1 X26.510 Y5.517 E40.52092
G1 X25.850 Y8.037 E40.70830
G1 X25.480 Y9.207 E40.79657
G1 X25.000 Y10.327 E40.88422
G1 X23.250 Y13.927 E41.17215
G1 X22.190 Y15.717 E41.32179
G1 X20.850 Y17.307 E41.47136
G1 X18.220 Y19.937 E41.73891
G1 X16.960 Y21.037 E41.85922
G1 X15.560 Y21.967 E41.98012
G1 X11.250 Y24.417 E42.33673
G1 X9.890 Y25.077 E42.44547
G1 X8.460 Y25.577 E42.55444
G1 X5.870 Y26.307 E42.74801
G1 X4.140 Y26.667 E42.87511
G1 X2.370 Y26.777 E43.00268
G1 X-3.150 Y26.727 E43.39976
G1 X-4.520 Y26.637 E43.49852
G1 X-5.860 Y26.407 E43.59632
G1 X-7.370 Y26.057 E43.70782
G1 X-8.480 Y25.747 E43.79072
G1 X-9.550 Y25.337 E43.87314
G1 X-12.140 Y24.207 E44.07640
G1 X-13.130 Y23.717 E44.15586
G1 X-14.080 Y23.147 E44.23556
G1 X-17.420 Y20.917 E44.52444
G1 X-18.890 Y19.767 E44.65869
G1 X-20.170 Y18.407 E44.79303
G1 X-21.840 Y16.357 E44.98323
G1 X-22.960 Y14.747 E45.12431
G1 X-23.640 Y13.577 E45.22165
G1 X-24.440 Y11.927 E45.35355
G1 X-24.970 Y10.597 E45.45654
G1 X-25.360 Y9.467 E45.54253
G1 X-26.200 Y6.587 E45.75832
G1 X-26.490 Y5.357 E45.84922
G1 X-26.780 Y3.787 E45.96407
G1 X-26.970 Y2.307 E46.07140
G1 X-27.080 Y0.567 E46.19681
G1 X-27.050 Y-1.373 E46.33638
G1 X-26.860 Y-3.423 E46.48447
G1 X-26.500 Y-5.453 E46.63277
G1 X-25.840 Y-7.963 E46.81946
G1 X-25.540 Y-8.943 E46.89318
G1 X-24.520 Y-11.833 E47.11363
G1 X-23.770 Y-13.533 E47.24729
G1 X-22.790 Y-15.093 E47.37981
G1 X-21.580 Y-16.503 E47.51346
G1 X-17.190 Y-20.903 E47.96055
G1 X-15.520 Y-22.303 E48.11731
G1 X-13.630 Y-23.393 E48.27425
G1 X-10.120 Y-25.033 E48.55293
G1 X-8.870 Y-25.543 E48.65004
G1 X-7.570 Y-25.913 E48.74726
G1 X-5.170 Y-26.453 E48.92422
G1 X-3.840 Y-26.673 E49.02119
G1 X-2.500 Y-26.753 E49.11775
G1 X1.165 Y-26.772 E49.38138
G1 F10500.000 E37.38138
G1 Z1.350 F18000.000
G92 E0
T1
G92 E0
G1 F10500.000 E-12.00000
G92 E0
G1 X1.265 Y-17.319 F18000.000
G1 Z0.350 F18000.000
G1 E12.00000 F10500.000
G1 X2.098 Y-17.216 E12.06035 F2700.000
G1 X2.309 Y-17.120 E12.07705
G1 X2.431 Y-17.098 E12.08597
G1 X3.412 Y-17.165 E12.15667
G1 X4.325 Y-16.898 E12.22507
G1 X5.508 Y-16.827 E12.31034
G1 X6.606 Y-16.251 E12.39953
G1 X6.755 Y-16.220 E12.41050
G1 X7.979 Y-15.573 E12.51004
G1 X8.178 Y-15.552 E12.52445
G1 X9.352 Y-14.826 E12.62373
G1 X9.731 Y-14.695 E12.65261
G1 X11.773 Y-13.036 E12.84184
G1 X11.833 Y-12.963 E12.84862
G1 X13.800 Y-11.421 E13.02840
G1 X14.148 Y-10.759 E13.08221
G1 X14.235 Y-10.663 E13.09153
G1 X14.333 Y-10.600 E13.09989
G1 X15.710 Y-8.330 E13.29094
G1 X15.905 Y-7.427 E13.35737
G1 X15.917 Y-7.258 E13.36955
G1 X16.769 Y-5.149 E13.53314
G1 X16.807 Y-4.731 E13.56333
G1 X16.881 Y-4.573 E13.57594
G1 X17.307 Y-4.147 E13.61920
G1 X17.307 Y-3.211 E13.68656
G1 X17.346 Y-3.075 E13.69676
G1 X17.695 Y-2.523 E13.74372
G1 X17.584 Y0.724 E13.97742
G1 X17.470 Y1.229 E14.01468
G1 X17.416 Y1.353 E14.02440
G1 X17.415 Y1.558 E14.03910
G1 X17.610 Y2.023 E14.07538
G1 X16.608 Y5.837 E14.35905
G1 X16.470 Y6.174 E14.38523
G1 X16.256 Y6.547 E14.41619
G1 X16.035 Y6.837 E14.44238
G1 X15.193 Y7.678 E14.52800
G1 X15.117 Y7.862 E14.54231
G1 X15.117 Y9.613 E14.66825
G1 X10.818 Y13.912 E15.10564
G1 X9.688 Y14.154 E15.18875
G1 X9.561 Y14.223 E15.19915
G1 X9.451 Y14.333 E15.21029
G1 X8.849 Y14.333 E15.25362
G1 X8.665 Y14.409 E15.26793
G1 X7.429 Y15.644 E15.39362
G1 X7.335 Y15.644 E15.40042
G1 X7.151 Y15.720 E15.41473
G1 X6.975 Y15.897 E15.43267
G1 X6.530 Y16.196 E15.47123
G1 X5.944 Y16.441 E15.51687
G1 X5.419 Y16.548 E15.55542
G1 X5.209 Y16.550 E15.57057
G1 X5.167 Y16.568 E15.57385
G1 X4.553 Y16.568 E15.61801
G1 X4.369 Y16.644 E15.63232
G1 X4.305 Y16.708 E15.63882
G1 X3.677 Y17.070 E15.69101
G1 X2.846 Y17.292 E15.75285
G1 X2.120 Y17.291 E15.80504
G1 X1.478 Y17.117 E15.85288
G1 X0.632 Y17.180 E15.91392
G1 X0.032 Y17.077 E15.95773
G1 X-0.061 Y17.078 E15.96441
G1 X-1.068 Y17.282 E16.03829
G1 X-1.875 Y17.207 E16.09658
G1 X-2.002 Y17.156 E16.10647
G1 X-2.202 Y17.158 E16.12087
G1 X-2.332 Y17.214 E16.13107
G1 X-3.591 Y17.245 E16.22163
G1 X-4.533 Y16.895 E16.29389
G1 X-5.383 Y16.841 E16.35522
G1 X-6.483 Y16.286 E16.44383
G1 X-6.717 Y16.251 E16.46084
G1 X-7.714 Y15.722 E16.54203
G1 X-8.342 Y15.555 E16.58875
G1 X-10.529 Y14.074 E16.77870
G1 X-10.663 Y13.848 E16.79761
G1 X-10.764 Y13.753 E16.80764
G1 X-12.558 Y12.816 E16.95319
G1 X-13.322 Y11.748 E17.04765
G1 X-13.363 Y11.478 E17.06728
G1 X-13.448 Y11.324 E17.07998
G1 X-14.635 Y10.284 E17.19350
G1 X-15.028 Y9.454 E17.25949
G1 X-15.094 Y9.369 E17.26724
G1 X-15.321 Y9.178 E17.28858
G1 X-16.327 Y6.631 E17.48560
G1 X-16.365 Y6.264 E17.51215
G1 X-17.199 Y3.550 E17.71636
G1 X-17.212 Y3.050 E17.75232
G1 X-17.262 Y2.905 E17.76337
G1 X-17.423 Y2.688 E17.78280
G1 X-17.620 Y-0.374 E18.00351
G1 X-17.533 Y-0.954 E18.04569
G1 X-17.409 Y-1.285 E18.07111
G1 X-17.412 Y-1.476 E18.08490
G1 X-17.606 Y-1.938 E18.12088
G1 X-16.607 Y-5.750 E18.40434
G1 X-16.469 Y-6.087 E18.43056
G1 X-16.255 Y-6.461 E18.46156
G1 X-16.033 Y-6.750 E18.48777
G1 X-15.915 Y-6.869 E18.49983
G1 X-15.839 Y-7.053 E18.51414
G1 X-15.839 Y-8.804 E18.64008
G1 X-9.680 Y-14.963 E19.26662
G1 X-7.894 Y-15.226 E19.39649
G1 X-7.750 Y-15.298 E19.40808
G1 X-7.375 Y-15.672 E19.44618
G1 X-7.219 Y-15.672 E19.45740
G1 X-7.035 Y-15.749 E19.47171
G1 X-6.695 Y-16.088 E19.50629
G1 X-6.197 Y-16.409 E19.54890
G1 X-5.540 Y-16.653 E19.59935
G1 X-4.953 Y-16.737 E19.64196
G1 X-4.342 Y-16.692 E19.68601
G1 X-4.138 Y-16.768 E19.70168
G1 X-4.083 Y-16.823 E19.70728
G1 X-3.939 Y-16.858 E19.71794
G1 X-3.630 Y-17.038 E19.74364
G1 X-2.815 Y-17.263 E19.80446
G1 X-2.102 Y-17.271 E19.85578
G1 X-1.354 Y-17.096 E19.91100
G1 X-0.610 Y-17.156 E19.96473
G1 X0.021 Y-17.058 E20.01062
G1 X0.179 Y-17.085 E20.02217
G1 X0.286 Y-17.141 E20.03087
G1 X1.191 Y-17.305 E20.09706
G1 X1.280 Y-16.813 F18000.000
G1 X1.961 Y-16.729 E20.14643 F2700.000
G1 X2.218 Y-16.613 E20.16671
G1 X2.340 Y-16.591 E20.17563
G1 X3.355 Y-16.660 E20.24886
G1 X4.237 Y-16.403 E20.31490
G1 X5.371 Y-16.334 E20.39662
G1 X6.226 Y-15.886 E20.46609
G1 X6.265 Y-15.836 E20.47060
G1 X6.455 Y-15.737 E20.48605
G1 X6.619 Y-15.727 E20.49785
G1 X7.474 Y-15.280 E20.56725
G1 X7.539 Y-15.196 E20.57490
G1 X7.716 Y-15.099 E20.58942
G1 X8.012 Y-15.067 E20.61080
G1 X8.880 Y-14.530 E20.68427
G1 X9.035 Y-14.396 E20.69900
G1 X9.488 Y-14.248 E20.73326
G1 X11.372 Y-12.718 E20.90783
G1 X11.438 Y-12.638 E20.91527
G1 X13.407 Y-11.094 E21.09529
G1 X13.766 Y-10.410 E21.15086
G1 X13.853 Y-10.314 E21.16017
G1 X13.965 Y-10.242 E21.16973
G1 X15.239 Y-8.142 E21.34645
G1 X15.399 Y-7.404 E21.40080
G1 X15.388 Y-7.316 E21.40717
G1 X15.405 Y-7.190 E21.41628
G1 X16.277 Y-5.030 E21.58383
G1 X16.326 Y-4.506 E21.62174
G1 X16.400 Y-4.347 E21.63434
G1 X16.807 Y-3.940 E21.67571
G1 X16.807 Y-3.066 E21.73858
G1 X16.846 Y-2.930 E21.74878
G1 X17.190 Y-2.386 E21.79507
G1 X17.086 Y0.660 E22.01430
G1 X16.993 Y1.074 E22.04480
G1 X16.873 Y1.350 E22.06647
G1 X16.871 Y1.554 E22.08117
G1 X17.083 Y2.060 E22.12060
G1 X16.133 Y5.678 E22.38970
G1 X16.020 Y5.954 E22.41112
G1 X15.839 Y6.270 E22.43733
G1 X15.658 Y6.506 E22.45875
G1 X14.693 Y7.471 E22.55689
G1 X14.617 Y7.655 E22.57120
G1 X14.617 Y9.406 E22.69714
G1 X10.568 Y13.454 E23.10900
G1 X9.439 Y13.696 E23.19211
G1 X9.312 Y13.765 E23.20252
G1 X9.244 Y13.833 E23.20939
G1 X8.642 Y13.833 E23.25272
G1 X8.458 Y13.909 E23.26703
G1 X7.222 Y15.144 E23.39272
G1 X7.128 Y15.144 E23.39952
G1 X6.944 Y15.220 E23.41383
G1 X6.656 Y15.509 E23.44316
G1 X6.291 Y15.753 E23.47471
G1 X5.796 Y15.961 E23.51333
G1 X5.367 Y16.049 E23.54488
G1 X4.346 Y16.068 E23.61833
G1 X4.162 Y16.144 E23.63263
G1 X3.998 Y16.308 E23.64928
G1 X3.484 Y16.604 E23.69198
G1 X2.781 Y16.792 E23.74434
G1 X2.187 Y16.791 E23.78704
G1 X1.467 Y16.596 E23.84070
G1 X1.323 Y16.599 E23.85105
G1 X1.196 Y16.640 E23.86061
G1 X0.658 Y16.677 E23.89946
G1 X-0.065 Y16.553 E23.95219
G1 X-1.095 Y16.778 E24.02803
G1 X-1.755 Y16.716 E24.07572
G1 X-2.007 Y16.614 E24.09530
G1 X-2.207 Y16.616 E24.10970
G1 X-2.441 Y16.716 E24.12797
G1 X-3.507 Y16.742 E24.20468
G1 X-4.431 Y16.399 E24.27557
G1 X-5.253 Y16.347 E24.33483
G1 X-6.104 Y15.917 E24.40340
G1 X-6.143 Y15.870 E24.40785
G1 X-6.329 Y15.774 E24.42282
G1 X-6.578 Y15.759 E24.44081
G1 X-7.533 Y15.252 E24.51856
G1 X-8.134 Y15.092 E24.56330
G1 X-10.156 Y13.723 E24.73893
G1 X-10.306 Y13.471 E24.76002
G1 X-10.407 Y13.375 E24.77005
G1 X-12.221 Y12.428 E24.91724
G1 X-12.846 Y11.554 E24.99453
G1 X-12.897 Y11.222 E25.01868
G1 X-12.982 Y11.068 E25.03139
G1 X-14.228 Y9.976 E25.15055
G1 X-14.623 Y9.142 E25.21692
G1 X-14.688 Y9.057 E25.22467
G1 X-14.902 Y8.877 E25.24476
G1 X-15.835 Y6.515 E25.42743
G1 X-15.871 Y6.104 E25.45715
G1 X-15.926 Y5.990 E25.46621
G1 X-16.701 Y3.468 E25.65598
G1 X-16.717 Y2.879 E25.69836
G1 X-16.767 Y2.734 E25.70942
G1 X-16.934 Y2.509 E25.72957
G1 X-17.118 Y-0.353 E25.93585
G1 X-17.047 Y-0.827 E25.97036
G1 X-16.871 Y-1.294 E26.00626
G1 X-16.874 Y-1.486 E26.02005
G1 X-17.079 Y-1.975 E26.05816
G1 X-16.132 Y-5.591 E26.32707
G1 X-16.019 Y-5.867 E26.34851
G1 X-15.838 Y-6.183 E26.37475
G1 X-15.656 Y-6.420 E26.39620
G1 X-15.415 Y-6.662 E26.42077
G1 X-15.339 Y-6.846 E26.43508
G1 X-15.339 Y-8.596 E26.56102
G1 X-9.443 Y-14.492 E27.16076
G1 X-7.970 Y-14.709 E27.26789
G1 X-7.931 Y-14.688 E27.27103
G1 X-7.604 Y-14.736 E27.29483
G1 X-7.168 Y-15.172 E27.33918
G1 X-7.012 Y-15.172 E27.35040
G1 X-6.828 Y-15.249 E27.36471
G1 X-6.380 Y-15.697 E27.41032
G1 X-5.972 Y-15.959 E27.44518
G1 X-5.416 Y-16.166 E27.48788
G1 X-4.936 Y-16.234 E27.52274
