; generated by Slic3r 1.1.1 on 2014-04-30 at 03:00:29

; perimeters extrusion width = 0.30mm
; infill extrusion width = 0.30mm
; solid infill extrusion width = 0.30mm
; top infill extrusion width = 0.30mm

G21 ; set units to millimeters
M104 S242 ; set temperature

M109 S242 ; wait for temperature to be reached
G90 ; use absolute coordinates
G92 E0
M82 ; use absolute distances for extrusion
G1 Z0.175 F18000.000
G1 F10500.000 E-12.00000
G1 Z1.175 F18000.000
G92 E0
G1 X14.650 Y14.650 F18000.000
G1 Z0.175 F18000.000
G1 E12.00000 F10500.000
G1 X16.346 Y14.650 E12.03834 F1800.000
G1 X16.487 Y14.927 E12.04537
G1 X16.648 Y15.088 E12.05051
G1 X16.850 Y15.191 E12.05565
G1 X17.063 Y15.225 E12.06052
G1 X21.937 Y15.225 E12.17070
G1 X22.150 Y15.191 E12.17558
G1 X22.352 Y15.088 E12.18072
G1 X22.513 Y14.927 E12.18586
G1 X22.654 Y14.650 E12.19289
G1 X24.350 Y14.650 E12.23123
G1 X24.350 Y17.350 E12.29227
G1 X22.654 Y17.350 E12.33060
G1 X22.513 Y17.073 E12.33764
G1 X22.352 Y16.912 E12.34278
G1 X22.150 Y16.809 E12.34792
G1 X21.937 Y16.775 E12.35279
G1 X17.063 Y16.775 E12.46297
G1 X16.850 Y16.809 E12.46784
G1 X16.648 Y16.912 E12.47299
G1 X16.487 Y17.073 E12.47813
G1 X16.346 Y17.350 E12.48516
G1 X14.650 Y17.350 E12.52350
G1 X14.650 Y14.703 E12.58335
G1 X15.259 Y14.855 F18000.000
G1 X16.984 Y16.580 E12.63849 F2700.000
G1 X16.645 Y16.683 E12.64650
G1 X14.856 Y14.894 E12.70369
G1 X14.855 Y15.336 E12.71366
G1 X16.395 Y16.875 E12.76288
G1 X16.221 Y17.143 E12.77011
G1 X14.855 Y15.778 E12.81376
G1 X14.855 Y16.220 E12.82376
G1 X15.780 Y17.145 E12.85332
G1 X15.338 Y17.145 E12.86332
G1 X14.855 Y16.662 E12.87874
G1 X14.855 Y17.105 E12.88873
G1 X14.895 Y17.145 E12.89001
G1 F10500.000 E0.89001
G1 Z1.175 F18000.000
G92 E0
G1 X16.299 Y15.010 F18000.000
G1 Z0.175 F18000.000
G1 E12.00000 F10500.000
G1 X16.144 Y14.855 E12.00495 F2700.000
G1 X15.702 Y14.855 E12.01495
G1 X17.416 Y16.570 E12.06977
G1 X17.858 Y16.570 E12.07977
G1 X16.565 Y15.276 E12.12112
G1 X17.161 Y15.430 E12.13505
G1 X18.301 Y16.570 E12.17148
G1 X18.743 Y16.570 E12.18148
G1 X17.603 Y15.430 E12.21791
G1 X18.046 Y15.430 E12.22791
G1 X19.185 Y16.570 E12.26434
G1 X19.627 Y16.570 E12.27434
G1 X18.488 Y15.430 E12.31077
G1 X18.930 Y15.430 E12.32077
G1 X20.070 Y16.570 E12.35720
G1 X20.512 Y16.570 E12.36720
G1 X19.373 Y15.430 E12.40363
G1 X19.815 Y15.430 E12.41363
G1 X20.954 Y16.570 E12.45006
G1 X21.397 Y16.570 E12.46006
G1 X20.257 Y15.430 E12.49649
G1 X20.699 Y15.430 E12.50649
G1 X21.839 Y16.570 E12.54292
G1 X22.856 Y17.145 F18000.000
G1 X21.142 Y15.430 E12.59774 F2700.000
G1 X21.584 Y15.430 E12.60774
G1 X23.298 Y17.145 E12.66255
G1 X23.741 Y17.145 E12.67255
G1 X22.016 Y15.420 E12.72769
G1 X22.355 Y15.317 E12.73570
G1 X24.144 Y17.106 E12.79289
G1 X24.145 Y16.664 E12.80286
G1 X22.605 Y15.125 E12.85208
G1 X22.779 Y14.857 E12.85931
G1 X24.145 Y16.222 E12.90296
G1 X24.145 Y15.780 E12.91296
G1 X23.220 Y14.855 E12.94252
G1 X23.662 Y14.855 E12.95252
G1 X24.145 Y15.338 E12.96794
G1 X24.145 Y14.895 E12.97794
G1 X24.105 Y14.855 E12.97921
G1 F10500.000 E0.97921
G1 Z1.175 F18000.000
G92 E0
G1 X11.350 Y14.650 F18000.000
G1 Z0.175 F18000.000
G1 E12.00000 F10500.000
G1 X11.350 Y17.350 E12.06104 F1800.000
G1 X9.652 Y17.350 E12.09944
G1 X9.518 Y17.087 E12.10610
G1 X9.363 Y16.932 E12.11106
G1 X9.167 Y16.832 E12.11603
G1 X8.962 Y16.800 E12.12072
G1 X4.038 Y16.800 E12.23203
G1 X3.830 Y16.833 E12.23679
G1 X3.620 Y16.949 E12.24222
G1 X3.482 Y17.087 E12.24664
G1 X3.348 Y17.350 E12.25330
G1 X1.650 Y17.350 E12.29169
G1 X1.650 Y14.650 E12.35274
G1 X3.348 Y14.650 E12.39113
G1 X3.482 Y14.913 E12.39779
G1 X3.637 Y15.068 E12.40276
G1 X3.833 Y15.168 E12.40772
G1 X4.038 Y15.200 E12.41242
G1 X8.962 Y15.200 E12.52373
G1 X9.167 Y15.168 E12.52842
G1 X9.363 Y15.068 E12.53339
G1 X9.518 Y14.913 E12.53835
G1 X9.652 Y14.650 E12.54501
G1 X11.297 Y14.650 E12.58222
G1 X11.105 Y14.855 F18000.000
G1 X11.145 Y14.895 E12.58350 F2700.000
G1 X11.145 Y15.338 E12.59350
G1 X10.662 Y14.855 E12.60892
G1 X10.220 Y14.855 E12.61892
G1 X11.145 Y15.780 E12.64848
G1 X11.145 Y16.222 E12.65848
G1 X9.778 Y14.855 E12.70218
G1 X9.601 Y15.120 E12.70938
G1 X11.145 Y16.664 E12.75875
G1 X11.144 Y17.106 E12.76873
G1 X9.345 Y15.307 E12.82624
G1 X8.998 Y15.402 E12.83438
G1 X10.741 Y17.145 E12.89009
G1 X10.298 Y17.145 E12.90009
G1 X8.559 Y15.405 E12.95571
G1 X8.117 Y15.405 E12.96571
G1 X9.856 Y17.145 E13.02132
G1 X8.864 Y16.595 F18000.000
G1 X7.674 Y15.405 E13.05935 F2700.000
G1 X7.232 Y15.405 E13.06935
G1 X8.422 Y16.595 E13.10738
G1 X7.979 Y16.595 E13.11738
G1 X6.790 Y15.405 E13.15541
G1 X6.348 Y15.405 E13.16541
G1 X7.537 Y16.595 E13.20344
G1 X7.095 Y16.595 E13.21343
G1 X5.905 Y15.405 E13.25147
G1 X5.463 Y15.405 E13.26146
G1 X6.652 Y16.595 E13.29949
G1 X6.210 Y16.595 E13.30949
G1 X5.021 Y15.405 E13.34752
G1 X4.578 Y15.405 E13.35752
G1 X5.768 Y16.595 E13.39555
G1 X5.326 Y16.595 E13.40555
G1 X4.136 Y15.405 E13.44358
G1 X3.534 Y15.246 E13.45766
G1 X4.883 Y16.595 E13.50079
G1 X4.441 Y16.595 E13.51079
G1 X2.702 Y14.855 E13.56641
G1 X3.144 Y14.855 E13.57640
G1 X3.304 Y15.016 E13.58153
G1 X2.259 Y14.855 F18000.000
G1 X4.002 Y16.598 E13.63725 F2700.000
G1 X3.656 Y16.695 E13.64536
G1 X1.856 Y14.894 E13.70292
G1 X1.855 Y15.336 E13.71290
G1 X3.399 Y16.880 E13.76227
G1 X3.222 Y17.145 E13.76948
G1 X1.855 Y15.778 E13.81318
G1 X1.855 Y16.220 E13.82318
G1 X2.780 Y17.145 E13.85274
G1 X2.338 Y17.145 E13.86273
G1 X1.855 Y16.662 E13.87815
G1 X1.855 Y17.105 E13.88815
G1 X1.895 Y17.145 E13.88943
G1 F10500.000 E1.88943
G1 Z1.175 F18000.000
G92 E0
G1 X-1.650 Y17.350 F18000.000
G1 Z0.175 F18000.000
G1 E12.00000 F10500.000
G1 X-3.351 Y17.350 E12.03846 F1800.000
G1 X-3.477 Y17.102 E12.04475
G1 X-3.627 Y16.952 E12.04953
G1 X-3.816 Y16.856 E12.05432
G1 X-4.013 Y16.825 E12.05884
G1 X-8.987 Y16.825 E12.17128
G1 X-9.184 Y16.856 E12.17580
G1 X-9.373 Y16.952 E12.18059
G1 X-9.523 Y17.102 E12.18537
G1 X-9.649 Y17.350 E12.19166
G1 X-11.350 Y17.350 E12.23012
G1 X-11.350 Y14.650 E12.29116
G1 X-9.649 Y14.650 E12.32962
G1 X-9.523 Y14.898 E12.33591
G1 X-9.373 Y15.048 E12.34070
G1 X-9.184 Y15.144 E12.34548
G1 X-8.987 Y15.175 E12.35000
G1 X-4.013 Y15.175 E12.46244
G1 X-3.816 Y15.144 E12.46696
G1 X-3.627 Y15.048 E12.47175
G1 X-3.477 Y14.898 E12.47654
G1 X-3.351 Y14.650 E12.48282
G1 X-1.650 Y14.650 E12.52128
G1 X-1.650 Y17.297 E12.58114
G1 X-3.144 Y17.145 F18000.000
G1 X-4.908 Y15.380 E12.63755 F2700.000
G1 X-4.466 Y15.380 E12.64755
G1 X-2.702 Y17.145 E12.70396
G1 X-2.259 Y17.145 E12.71396
G1 X-4.024 Y15.380 E12.77038
G1 X-3.665 Y15.297 E12.77871
G1 X-1.856 Y17.106 E12.83653
G1 X-1.855 Y16.664 E12.84651
G1 X-3.404 Y15.115 E12.89604
G1 X-3.222 Y14.855 E12.90322
G1 X-1.855 Y16.222 E12.94692
G1 X-1.855 Y15.780 E12.95692
G1 X-2.780 Y14.855 E12.98648
G1 X-2.338 Y14.855 E12.99647
G1 X-1.855 Y15.338 E13.01189
G1 X-1.855 Y14.895 E13.02189
G1 X-1.895 Y14.855 E13.02317
G1 F10500.000 E1.02317
G1 Z1.175 F18000.000
G92 E0
G1 X-4.111 Y16.620 F18000.000
G1 Z0.175 F18000.000
G1 E12.00000 F10500.000
G1 X-5.351 Y15.380 E12.03963 F2700.000
G1 X-5.793 Y15.380 E12.04963
G1 X-4.553 Y16.620 E12.08926
G1 X-4.996 Y16.620 E12.09925
G1 X-6.235 Y15.380 E12.13888
G1 X-6.677 Y15.380 E12.14888
G1 X-5.438 Y16.620 E12.18851
G1 X-5.880 Y16.620 E12.19851
G1 X-7.120 Y15.380 E12.23814
G1 X-7.562 Y15.380 E12.24814
G1 X-6.323 Y16.620 E12.28777
G1 X-6.765 Y16.620 E12.29776
G1 X-8.004 Y15.380 E12.33739
G1 X-8.447 Y15.380 E12.34739
G1 X-7.207 Y16.620 E12.38702
G1 X-7.649 Y16.620 E12.39702
G1 X-8.889 Y15.380 E12.43665
G1 X-9.856 Y14.855 F18000.000
G1 X-8.092 Y16.620 E12.49306 F2700.000
G1 X-8.534 Y16.620 E12.50306
G1 X-10.298 Y14.855 E12.55947
G1 X-10.741 Y14.855 E12.56947
G1 X-8.976 Y16.620 E12.62589
G1 X-9.335 Y16.703 E12.63422
G1 X-11.144 Y14.894 E12.69204
G1 X-11.145 Y15.336 E12.70202
G1 X-9.596 Y16.885 E12.75155
G1 X-9.778 Y17.145 E12.75873
G1 X-11.145 Y15.778 E12.80243
G1 X-11.145 Y16.220 E12.81243
G1 X-10.220 Y17.145 E12.84199
G1 X-10.662 Y17.145 E12.85199
G1 X-11.145 Y16.662 E12.86740
G1 X-11.145 Y17.105 E12.87740
G1 X-11.105 Y17.145 E12.87868
G1 F10500.000 E0.87868
G1 Z1.175 F18000.000
G92 E0
G1 X-14.650 Y17.350 F18000.000
G1 Z0.175 F18000.000
G1 E12.00000 F10500.000
G1 X-16.377 Y17.350 E12.03904 F1800.000
G1 X-16.397 Y17.250 E12.04134
G1 X-16.538 Y17.038 E12.04710
G1 X-16.750 Y16.897 E12.05286
G1 X-16.985 Y16.850 E12.05828
G1 X-22.015 Y16.850 E12.17199
G1 X-22.250 Y16.897 E12.17741
G1 X-22.462 Y17.038 E12.18317
G1 X-22.603 Y17.250 E12.18893
G1 X-22.623 Y17.350 E12.19123
G1 X-24.350 Y17.350 E12.23027
G1 X-24.350 Y14.650 E12.29131
G1 X-22.623 Y14.650 E12.33035
G1 X-22.603 Y14.750 E12.33265
G1 X-22.462 Y14.962 E12.33841
G1 X-22.250 Y15.103 E12.34417
G1 X-22.015 Y15.150 E12.34959
G1 X-16.985 Y15.150 E12.46330
G1 X-16.750 Y15.103 E12.46872
G1 X-16.538 Y14.962 E12.47448
G1 X-16.397 Y14.750 E12.48024
G1 X-16.377 Y14.650 E12.48254
G1 X-14.650 Y14.650 E12.52158
G1 X-14.650 Y17.297 E12.58143
G1 X-16.144 Y17.145 F18000.000
G1 X-17.933 Y15.355 E12.63865 F2700.000
G1 X-17.491 Y15.355 E12.64864
G1 X-15.702 Y17.145 E12.70586
G1 X-15.259 Y17.145 E12.71586
G1 X-17.049 Y15.355 E12.77307
G1 X-16.667 Y15.295 E12.78181
G1 X-14.856 Y17.106 E12.83971
G1 X-14.855 Y16.664 E12.84969
G1 X-16.402 Y15.118 E12.89914
G1 X-16.221 Y14.856 E12.90633
G1 X-14.855 Y16.222 E12.94999
G1 X-14.855 Y15.780 E12.95999
G1 X-15.780 Y14.855 E12.98955
G1 X-15.338 Y14.855 E12.99955
G1 X-14.855 Y15.338 E13.01497
G1 X-14.855 Y14.895 E13.02497
G1 X-14.895 Y14.855 E13.02625
G1 F10500.000 E1.02625
G1 Z1.175 F18000.000
G92 E0
G1 X-17.086 Y16.645 F18000.000
G1 Z0.175 F18000.000
G1 E12.00000 F10500.000
G1 X-18.376 Y15.355 E12.04123 F2700.000
G1 X-18.818 Y15.355 E12.05123
G1 X-17.528 Y16.645 E12.09245
G1 X-17.971 Y16.645 E12.10245
G1 X-19.260 Y15.355 E12.14368
G1 X-19.702 Y15.355 E12.15368
G1 X-18.413 Y16.645 E12.19491
G1 X-18.855 Y16.645 E12.20490
G1 X-20.145 Y15.355 E12.24613
G1 X-20.587 Y15.355 E12.25613
G1 X-19.298 Y16.645 E12.29736
G1 X-19.740 Y16.645 E12.30736
G1 X-21.029 Y15.355 E12.34858
G1 X-21.472 Y15.355 E12.35858
G1 X-20.182 Y16.645 E12.39981
G1 X-20.624 Y16.645 E12.40981
G1 X-21.914 Y15.355 E12.45104
G1 X-22.586 Y15.126 F18000.000
G1 X-21.067 Y16.645 E12.49960 F2700.000
G1 X-21.509 Y16.645 E12.50960
G1 X-23.298 Y14.855 E12.56681
G1 X-22.856 Y14.855 E12.57681
G1 X-22.626 Y15.086 E12.58417
G1 X-23.741 Y14.855 F18000.000
G1 X-21.951 Y16.645 E12.64138 F2700.000
G1 X-22.333 Y16.705 E12.65012
G1 X-24.144 Y14.894 E12.70802
G1 X-24.145 Y15.336 E12.71800
G1 X-22.598 Y16.882 E12.76745
G1 X-22.779 Y17.144 E12.77464
G1 X-24.145 Y15.778 E12.81830
G1 X-24.145 Y16.220 E12.82830
G1 X-23.220 Y17.145 E12.85786
G1 X-23.662 Y17.145 E12.86786
G1 X-24.145 Y16.662 E12.88328
G1 X-24.145 Y17.105 E12.89328
G1 X-24.105 Y17.145 E12.89456
G1 F10500.000 E0.89456
G1 Z1.175 F18000.000
G92 E0
G1 X14.650 Y13.350 F18000.000
G1 Z0.175 F18000.000
G1 E12.00000 F10500.000
G1 X14.650 Y10.650 E12.06104 F1800.000
G1 X16.372 Y10.650 E12.09997
G1 X16.389 Y10.756 E12.10238
G1 X16.506 Y10.986 E12.10823
G1 X16.689 Y11.169 E12.11408
G1 X16.919 Y11.286 E12.11993
G1 X17.163 Y11.325 E12.12551
G1 X21.837 Y11.325 E12.23117
G1 X22.081 Y11.286 E12.23675
G1 X22.311 Y11.169 E12.24259
G1 X22.494 Y10.986 E12.24844
G1 X22.611 Y10.756 E12.25429
G1 X22.628 Y10.650 E12.25671
G1 X24.350 Y10.650 E12.29563
G1 X24.350 Y13.350 E12.35668
G1 X22.628 Y13.350 E12.39560
G1 X22.611 Y13.244 E12.39802
G1 X22.494 Y13.014 E12.40387
G1 X22.311 Y12.831 E12.40972
G1 X22.081 Y12.714 E12.41556
G1 X21.837 Y12.675 E12.42114
G1 X17.163 Y12.675 E12.52680
G1 X16.919 Y12.714 E12.53238
G1 X16.689 Y12.831 E12.53823
G1 X16.506 Y13.014 E12.54408
G1 X16.389 Y13.244 E12.54993
G1 X16.372 Y13.350 E12.55234
G1 X14.703 Y13.350 E12.59008
G1 X14.895 Y13.145 F18000.000
G1 X14.855 Y13.105 E12.59136 F2700.000
G1 X14.855 Y12.662 E12.60136
G1 X15.338 Y13.145 E12.61678
G1 X15.780 Y13.145 E12.62678
G1 X14.855 Y12.220 E12.65634
G1 X14.855 Y11.778 E12.66634
G1 X16.213 Y13.136 E12.70976
G1 X16.375 Y12.855 E12.71708
G1 X14.855 Y11.336 E12.76566
G1 X14.856 Y10.894 E12.77564
G1 X16.605 Y12.643 E12.83156
G1 X16.911 Y12.507 E12.83913
G1 X15.259 Y10.855 E12.89195
G1 X16.277 Y10.988 F18000.000
G1 X16.144 Y10.855 E12.89619 F2700.000
G1 X15.702 Y10.855 E12.90619
G1 X17.316 Y12.470 E12.95781
G1 X17.758 Y12.470 E12.96781
G1 X16.687 Y11.398 E13.00206
G1 X17.261 Y11.530 E13.01539
G1 X18.201 Y12.470 E13.04542
G1 X18.643 Y12.470 E13.05542
G1 X17.703 Y11.530 E13.08546
G1 X18.146 Y11.530 E13.09546
G1 X19.085 Y12.470 E13.12549
G1 X19.527 Y12.470 E13.13549
G1 X18.588 Y11.530 E13.16553
G1 X19.030 Y11.530 E13.17553
G1 X19.970 Y12.470 E13.20557
G1 X20.412 Y12.470 E13.21556
G1 X19.473 Y11.530 E13.24560
G1 X19.915 Y11.530 E13.25560
G1 X20.854 Y12.470 E13.28564
G1 X21.297 Y12.470 E13.29564
G1 X20.357 Y11.530 E13.32567
G1 X20.799 Y11.530 E13.33567
G1 X21.739 Y12.470 E13.36571
G1 X22.856 Y13.145 F18000.000
G1 X21.242 Y11.530 E13.41733 F2700.000
G1 X21.684 Y11.530 E13.42733
G1 X23.298 Y13.145 E13.47894
G1 X23.741 Y13.145 E13.48894
G1 X22.089 Y11.493 E13.54175
G1 X22.395 Y11.357 E13.54933
G1 X24.144 Y13.106 E13.60525
G1 X24.145 Y12.664 E13.61523
G1 X22.625 Y11.145 E13.66380
G1 X22.787 Y10.864 E13.67113
G1 X24.145 Y12.222 E13.71455
G1 X24.145 Y11.780 E13.72455
G1 X23.220 Y10.855 E13.75411
G1 X23.662 Y10.855 E13.76411
G1 X24.145 Y11.338 E13.77953
G1 X24.145 Y10.895 E13.78953
G1 X24.105 Y10.855 E13.79081
G1 F10500.000 E1.79081
G1 Z1.175 F18000.000
G92 E0
G1 X11.350 Y10.650 F18000.000
G1 Z0.175 F18000.000
G1 E12.00000 F10500.000
G1 X11.350 Y13.350 E12.06104 F1800.000
G1 X9.628 Y13.350 E12.09997
G1 X9.613 Y13.252 E12.10221
G1 X9.499 Y13.029 E12.10788
G1 X9.321 Y12.851 E12.11355
G1 X9.098 Y12.737 E12.11922
G1 X8.862 Y12.700 E12.12462
G1 X4.138 Y12.700 E12.23141
G1 X3.902 Y12.737 E12.23682
G1 X3.679 Y12.851 E12.24249
G1 X3.501 Y13.029 E12.24816
G1 X3.387 Y13.252 E12.25383
G1 X3.372 Y13.350 E12.25607
G1 X1.650 Y13.350 E12.29500
G1 X1.650 Y10.650 E12.35604
G1 X3.372 Y10.650 E12.39497
G1 X3.387 Y10.748 E12.39720
G1 X3.501 Y10.971 E12.40288
G1 X3.679 Y11.149 E12.40855
G1 X3.902 Y11.263 E12.41422
G1 X4.138 Y11.300 E12.41962
G1 X8.862 Y11.300 E12.52641
G1 X9.100 Y11.262 E12.53187
G1 X9.341 Y11.129 E12.53809
G1 X9.499 Y10.971 E12.54313
G1 X9.613 Y10.748 E12.54880
G1 X9.628 Y10.650 E12.55104
G1 X11.297 Y10.650 E12.58878
G1 X11.105 Y10.855 F18000.000
G1 X11.145 Y10.895 E12.59006 F2700.000
G1 X11.145 Y11.338 E12.60006
G1 X10.662 Y10.855 E12.61548
G1 X10.220 Y10.855 E12.62548
G1 X11.145 Y11.780 E12.65504
G1 X11.145 Y12.222 E12.66504
G1 X9.785 Y10.862 E12.70852
G1 X9.620 Y11.140 E12.71582
G1 X11.145 Y12.664 E12.76455
G1 X11.144 Y13.106 E12.77453
G1 X9.380 Y11.342 E12.83092
G1 X9.071 Y11.475 E12.83853
G1 X10.741 Y13.145 E12.89193
G1 X10.298 Y13.145 E12.90193
G1 X8.659 Y11.505 E12.95434
G1 X8.217 Y11.505 E12.96434
G1 X9.856 Y13.145 E13.01676
G1 X8.764 Y12.495 F18000.000
G1 X7.774 Y11.505 E13.04840 F2700.000
G1 X7.332 Y11.505 E13.05839
G1 X8.322 Y12.495 E13.09003
G1 X7.879 Y12.495 E13.10003
G1 X6.890 Y11.505 E13.13166
G1 X6.448 Y11.505 E13.14166
G1 X7.437 Y12.495 E13.17330
G1 X6.995 Y12.495 E13.18330
G1 X6.005 Y11.505 E13.21493
G1 X5.563 Y11.505 E13.22493
G1 X6.552 Y12.495 E13.25657
G1 X6.110 Y12.495 E13.26657
G1 X5.121 Y11.505 E13.29820
G1 X4.678 Y11.505 E13.30820
G1 X5.668 Y12.495 E13.33984
G1 X5.226 Y12.495 E13.34983
G1 X4.236 Y11.505 E13.38147
G1 X3.656 Y11.368 E13.39494
G1 X4.783 Y12.495 E13.43097
G1 X4.341 Y12.495 E13.44097
G1 X2.702 Y10.855 E13.49339
G1 X3.144 Y10.855 E13.50339
G1 X3.282 Y10.994 E13.50781
G1 X2.259 Y10.855 F18000.000
G1 X3.929 Y12.525 E13.56120 F2700.000
G1 X3.615 Y12.653 E13.56888
G1 X1.856 Y10.894 E13.62511
G1 X1.855 Y11.336 E13.63509
G1 X3.380 Y12.860 E13.68383
G1 X3.215 Y13.138 E13.69113
G1 X1.855 Y11.778 E13.73461
G1 X1.855 Y12.220 E13.74461
G1 X2.780 Y13.145 E13.77417
G1 X2.338 Y13.145 E13.78416
G1 X1.855 Y12.662 E13.79958
G1 X1.855 Y13.105 E13.80958
G1 X1.895 Y13.145 E13.81086
G1 F10500.000 E1.81086
G1 Z1.175 F18000.000
G92 E0
G1 X-1.650 Y13.350 F18000.000
G1 Z0.175 F18000.000
G1 E12.00000 F10500.000
G1 X-3.372 Y13.350 E12.03893 F1800.000
G1 X-3.386 Y13.260 E12.04099
