; generated by Slic3r 0.9.8-dev on 2012-12-19 at 08:15:01

; This config has a workaround for the extrusion retraction compensation bug for the first layer... be sure to comment out those 3 lines IF the bug has been fixed.

; layer_height = .1
; perimeters = 1
; top_solid_layers = 0
; bottom_solid_layers = 0
; fill_density = 0
; perimeter_speed = 100
; infill_speed = 100
; travel_speed = 100
; scale = 1
; nozzle_diameter = .345
; filament_diameter = 3
; extrusion_multiplier = 1
; perimeters extrusion width = 0.48mm
; infill extrusion width = 0.48mm
; first layer extrusion width = 0.48mm

G92 E0
G1 E100
G1 E0
G90 ; use absolute coordinates
G21 ; set units to millimeters
G92 E0 ; reset extrusion distance
M82 ; use absolute distances for extrusion
G1 Z0.100 F6000.000 ; move to next layer (0)
G1 X105.072 Y93.120 ; move to first perimeter point
G1 X93.009 Y100.085 F6000.000 E0.09095 ; perimeter
G1 X100.053 Y87.884 E0.18294 ; perimeter
G1 X100.809 Y88.401 E0.18892 ; perimeter
G1 X101.507 Y88.938 E0.19467 ; perimeter
G1 X102.175 Y89.515 E0.20044 ; perimeter
G1 X102.880 Y90.205 E0.20688 ; perimeter
G1 X103.470 Y90.858 E0.21262 ; perimeter
G1 X104.022 Y91.543 E0.21837 ; perimeter
G1 X104.533 Y92.260 E0.22411 ; perimeter
G1 X105.037 Y93.061 E0.23029 ; perimeter
G1 X105.072 Y93.120 E0.23074 ; perimeter
G1 X105.308 Y93.517 F6000.000 ; move inwards before travel
G1 X105.309 Y93.545 ; move to first perimeter point
G1 X105.716 Y94.368 F6000.000 E0.23674 ; perimeter
G1 X106.064 Y95.183 E0.24252 ; perimeter
G1 X106.363 Y96.017 E0.24830 ; perimeter
G1 X106.614 Y96.867 E0.25409 ; perimeter
G1 X106.815 Y97.733 E0.25990 ; perimeter
G1 X106.980 Y98.713 E0.26638 ; perimeter
G1 X107.073 Y99.594 E0.27217 ; perimeter
G1 X107.118 Y100.506 E0.27814 ; perimeter
G1 X93.252 Y100.506 E0.36867 ; perimeter
G1 X105.250 Y93.580 E0.45912 ; perimeter
G1 X105.309 Y93.545 E0.45957 ; perimeter
G1 X105.719 Y93.332 F6000.000 ; move inwards before travel
G1 X107.118 Y100.994 ; move to first perimeter point
G1 X107.073 Y101.906 F6000.000 E0.46554 ; perimeter
G1 X106.994 Y102.678 E0.47060 ; perimeter
G1 X106.857 Y103.553 E0.47639 ; perimeter
G1 X106.695 Y104.311 E0.48145 ; perimeter
G1 X106.524 Y104.957 E0.48581 ; perimeter
G1 X106.293 Y105.693 E0.49085 ; perimeter
G1 X105.418 Y108.018 E0.50707 ; perimeter
G1 X93.252 Y100.994 E0.59879 ; perimeter
G1 X107.048 Y100.994 E0.68888 ; perimeter
G1 X107.118 Y100.994 E0.68933 ; perimeter
G1 X107.579 Y101.009 F6000.000 ; move inwards before travel
G1 X107.852 Y101.010 ; move to first perimeter point
G1 X107.756 Y102.015 F6000.000 E0.69592 ; perimeter
G1 X107.597 Y103.013 E0.70252 ; perimeter
G1 X107.376 Y103.999 E0.70911 ; perimeter
G1 X107.093 Y104.968 E0.71571 ; perimeter
G1 X106.665 Y106.126 E0.72377 ; perimeter
G1 X105.614 Y108.550 E0.74102 ; perimeter
G1 X105.451 Y108.484 E0.74217 ; perimeter
G4 P38
G1 X105.399 Y108.569 E0.74282 ; perimeter
G4 P39
G1 X93.009 Y101.415 E0.83623 ; perimeter
G1 X100.117 Y113.727 E0.92906 ; perimeter
G1 X99.695 Y113.970 E0.93224 ; perimeter
G1 X92.343 Y101.237 E1.02824 ; perimeter
G1 X92.116 Y101.630 E1.03120 ; perimeter
G4 P35
G1 X92.116 Y99.870 E1.04270 ; perimeter
G4 P22
G1 X92.343 Y100.263 E1.04566 ; perimeter
G4 P35
G1 X99.637 Y87.630 E1.14091 ; perimeter
G1 X98.748 Y87.146 E1.14752 ; perimeter
G1 X97.853 Y86.730 E1.15396 ; perimeter
G1 X97.031 Y86.407 E1.15973 ; perimeter
G1 X96.089 Y86.103 E1.16619 ; perimeter
G1 X95.129 Y85.860 E1.17266 ; perimeter
G1 X94.156 Y85.680 E1.17912 ; perimeter
G1 X93.283 Y85.574 E1.18487 ; perimeter
G1 X92.116 Y85.489 E1.19250 ; perimeter
G1 X92.116 Y83.991 E1.20228 ; perimeter
G1 X92.997 Y84.031 E1.20804 ; perimeter
G1 X93.779 Y84.105 E1.21317 ; perimeter
G1 X94.557 Y84.218 E1.21830 ; perimeter
G1 X95.328 Y84.368 E1.22343 ; perimeter
G1 X96.091 Y84.557 E1.22856 ; perimeter
G1 X96.843 Y84.782 E1.23369 ; perimeter
G1 X97.689 Y85.084 E1.23955 ; perimeter
G1 X98.414 Y85.388 E1.24468 ; perimeter
G1 X99.123 Y85.726 E1.24981 ; perimeter
G1 X99.814 Y86.099 E1.25494 ; perimeter
G1 X100.487 Y86.505 E1.26007 ; perimeter
G1 X101.228 Y87.008 E1.26592 ; perimeter
G1 X101.856 Y87.484 E1.27107 ; perimeter
G1 X102.458 Y87.989 E1.27620 ; perimeter
G1 X103.035 Y88.523 E1.28133 ; perimeter
G1 X103.585 Y89.084 E1.28646 ; perimeter
G1 X104.106 Y89.672 E1.29159 ; perimeter
G1 X104.598 Y90.284 E1.29672 ; perimeter
G1 X105.123 Y91.013 E1.30258 ; perimeter
G1 X105.548 Y91.674 E1.30771 ; perimeter
G1 X105.940 Y92.355 E1.31284 ; perimeter
G1 X106.298 Y93.054 E1.31797 ; perimeter
G1 X106.622 Y93.770 E1.32310 ; perimeter
G1 X106.948 Y94.607 E1.32897 ; perimeter
G1 X107.194 Y95.353 E1.33410 ; perimeter
G1 X107.404 Y96.110 E1.33923 ; perimeter
G1 X107.597 Y96.985 E1.34508 ; perimeter
G1 X107.726 Y97.762 E1.35022 ; perimeter
G1 X107.817 Y98.543 E1.35535 ; perimeter
G1 X107.869 Y99.327 E1.36048 ; perimeter
G1 X107.882 Y100.351 E1.36717 ; perimeter
G1 X107.856 Y100.941 E1.37102 ; perimeter
G1 X107.852 Y101.010 E1.37148 ; perimeter
G1 X97.735 Y114.856 F6000.000 ; move to first perimeter point
G1 X99.207 Y114.108 F6000.000 E1.38226 ; perimeter
G4 P23
G1 X99.205 Y114.170 F6000.000 ; move to first perimeter point
G4 P39
G1 X99.306 Y114.218 F6000.000 E1.38299 ; perimeter
G4 P38
G1 X100.528 Y113.557 F6000.000 ; move to first perimeter point
G1 X100.541 Y113.373 F6000.000 E1.38420 ; perimeter
G4 P23
G1 X100.471 Y113.341 F6000.000 ; move to first perimeter point
G4 P39
G1 X101.030 Y113.039 F6000.000 E1.38834 ; perimeter
G1 X102.203 Y112.100 E1.39816 ; perimeter
G1 X103.404 Y110.915 E1.40917 ; perimeter
G1 X104.649 Y109.369 E1.42213 ; perimeter
G1 X104.814 Y109.129 E1.42404 ; perimeter
G1 X104.758 Y109.027 E1.42480 ; perimeter
G4 P38
G1 X104.814 Y109.129 F6000.000 ; move to first perimeter point
G4 P38
G1 X104.867 Y109.115 F6000.000 E1.42515 ; perimeter
G1 X105.247 Y108.986 E1.42777 ; perimeter
G4 P35
G1 X92.348 Y112.760 F6000.000 ; move to first perimeter point
G1 X92.353 Y115.771 F6000.000 E1.44743 ; perimeter
G1 X92.691 Y115.963 E1.44997 ; perimeter
G1 X95.189 Y115.648 E1.46641 ; perimeter
G1 X97.735 Y114.856 E1.48382 ; perimeter
G1 X92.349 Y112.038 F6000.000 ; move to first perimeter point
G1 X92.348 Y112.760 F6000.000 E1.48853 ; perimeter
G4 P32
G1 X92.349 Y111.316 F6000.000 ; move to first perimeter point
G4 P25
G1 X92.349 Y112.038 F6000.000 E1.49324 ; perimeter
G4 P32
G1 X92.349 Y111.075 F6000.000 ; move to first perimeter point
G4 P30
G1 X92.349 Y111.316 F6000.000 E1.49482 ; perimeter
G4 P37
G1 X92.349 Y110.835 F6000.000 ; move to first perimeter point
G4 P35
G1 X92.349 Y111.075 F6000.000 E1.49639 ; perimeter
G4 P37
G1 X92.349 Y110.835 F6000.000 ; move to first perimeter point
G1 X92.350 Y110.594 F6000.000 E1.49796 ; perimeter
G1 X92.351 Y106.021 E1.52782 ; perimeter
G1 X92.357 Y102.048 E1.55376 ; perimeter
G1 X92.350 Y96.438 F6000.000 ; move to first perimeter point
G1 X92.357 Y99.452 F6000.000 E1.57343 ; perimeter
G4 P9
G1 X92.351 Y94.270 F6000.000 ; move to first perimeter point
G1 X92.350 Y96.438 F6000.000 E1.58759 ; perimeter
G4 P18
G1 X92.350 Y92.342 F6000.000 ; move to first perimeter point
G1 X92.351 Y94.270 F6000.000 E1.60018 ; perimeter
G4 P20
G1 X92.349 Y91.619 F6000.000 ; move to first perimeter point
G4 P13
G1 X92.350 Y92.342 F6000.000 E1.60490 ; perimeter
G4 P32
G1 X92.349 Y91.378 F6000.000 ; move to first perimeter point
G4 P30
G1 X92.349 Y91.619 F6000.000 E1.60647 ; perimeter
G4 P37
G1 X92.349 Y91.137 F6000.000 ; move to first perimeter point
G4 P35
G1 X92.349 Y91.378 F6000.000 E1.60805 ; perimeter
G4 P37
G1 X92.349 Y91.137 F6000.000 ; move to first perimeter point
G1 X92.348 Y89.691 F6000.000 E1.61749 ; perimeter
G4 P23
G1 X92.352 Y86.225 E1.64012 ; perimeter
G4 P5
G1 X92.210 Y86.072 E1.64148 ; perimeter
G4 P37
G1 X92.352 Y86.225 F6000.000 ; move to first perimeter point
G4 P37
G1 X92.444 Y86.139 F6000.000 E1.64231 ; perimeter
G1 X92.445 Y86.138 E1.64231 ; perimeter
G4 P38
G1 X92.184 Y115.942 F6000.000 ; move to first perimeter point
G1 X92.353 Y115.771 F6000.000 E1.64388 ; perimeter
G4 P37
G1 X91.991 Y116.128 F6000.000 ; move to first perimeter point
G4 P34
G1 X92.184 Y115.942 F6000.000 E1.64563 ; perimeter
G1 X105.053 Y91.867 F6000.000 ; move to first fill point
G1 X104.605 Y91.419 F6000.000 E1.65193 ; fill
G4 P8
G1 X106.371 Y94.881 F6000.000 ; move to first fill point
G4 P1
G1 X105.900 Y94.027 F6000.000 E1.65566 ; fill
G1 X107.198 Y96.824 F6000.000 ; move to first fill point
G4 P9
G1 X106.905 Y96.530 F6000.000 E1.66062 ; fill
G1 X106.741 Y95.174 E1.67691 ; fill
G1 X106.447 Y94.880 E1.68186 ; fill
G1 X107.523 Y101.789 F6000.000 ; move to first fill point
G1 X107.355 Y101.621 F6000.000 E1.68277 ; fill
G4 P28
G1 X107.557 Y101.445 E1.68378 ; fill
G4 P26
G1 X107.373 Y101.261 E1.68477 ; fill
G4 P26
G1 X107.583 Y101.092 E1.68579 ; fill
G4 P26
G1 X107.386 Y100.895 E1.68685 ; fill
G4 P26
G1 X107.602 Y100.733 E1.68787 ; fill
G4 P26
G1 X107.389 Y100.519 E1.68902 ; fill
G4 P24
G1 X107.614 Y100.365 E1.69005 ; fill
G4 P26
G1 X107.375 Y100.126 E1.69133 ; fill
G4 P23
G1 X107.616 Y99.988 E1.69239 ; fill
G4 P26
G1 X107.356 Y99.728 E1.69378 ; fill
G4 P21
G1 X107.609 Y99.602 E1.69485 ; fill
G4 P25
G1 X107.326 Y99.319 E1.69637 ; fill
G4 P19
G1 X107.591 Y99.206 E1.69746 ; fill
G4 P25
G1 X107.423 Y99.038 E1.69836 ; fill
G1 Z0.200 F6000.000 ; move to next layer (1)
G1 X104.029 Y93.722 ; move to first perimeter point
G1 X93.009 Y100.085 F6000.000 E1.78145 ; perimeter
G1 X100.053 Y87.884 E1.87343 ; perimeter
G1 X100.720 Y88.337 E1.87870 ; perimeter
G1 X101.249 Y88.732 E1.88301 ; perimeter
G1 X101.844 Y89.221 E1.88803 ; perimeter
G1 X102.413 Y89.739 E1.89306 ; perimeter
G1 X102.956 Y90.285 E1.89809 ; perimeter
G1 X103.470 Y90.858 E1.90311 ; perimeter
G1 X103.955 Y91.456 E1.90814 ; perimeter
G1 X104.409 Y92.078 E1.91317 ; perimeter
G1 X105.072 Y93.120 E1.92123 ; perimeter
G1 X104.089 Y93.688 E1.92865 ; perimeter
G1 X104.029 Y93.722 E1.92910 ; perimeter
G4 P27
G1 X104.029 Y94.184 F6000.000 ; move inwards before travel
G1 X105.310 Y93.545 ; move to first perimeter point
G4 P25
G1 X105.716 Y94.368 F6000.000 E1.93510 ; perimeter
G1 X106.064 Y95.183 E1.94088 ; perimeter
G1 X106.363 Y96.017 E1.94667 ; perimeter
G1 X106.614 Y96.867 E1.95245 ; perimeter
G1 X106.814 Y97.730 E1.95824 ; perimeter
G1 X106.980 Y98.713 E1.96474 ; perimeter
G1 X107.073 Y99.594 E1.97053 ; perimeter
G1 X107.118 Y100.506 E1.97650 ; perimeter
G1 X93.252 Y100.506 E2.06703 ; perimeter
G1 X105.250 Y93.580 E2.15748 ; perimeter
G1 X105.310 Y93.545 E2.15794 ; perimeter
G1 X105.719 Y93.332 F6000.000 ; move inwards before travel
G1 X107.118 Y100.994 ; move to first perimeter point
G1 X107.073 Y101.906 F6000.000 E2.16390 ; perimeter
G1 X106.994 Y102.678 E2.16897 ; perimeter
G1 X106.857 Y103.553 E2.17475 ; perimeter
G1 X106.695 Y104.311 E2.17981 ; perimeter
G1 X106.525 Y104.954 E2.18415 ; perimeter
G1 X106.293 Y105.693 E2.18921 ; perimeter
G1 X105.418 Y108.018 E2.20543 ; perimeter
G1 X93.252 Y100.994 E2.29716 ; perimeter
G1 X107.048 Y100.994 E2.38724 ; perimeter
G1 X107.118 Y100.994 E2.38769 ; perimeter
G1 X107.579 Y101.009 F6000.000 ; move inwards before travel
G1 X107.852 Y101.010 ; move to first perimeter point
G1 X107.756 Y102.015 F6000.000 E2.39428 ; perimeter
G1 X107.597 Y103.013 E2.40088 ; perimeter
G1 X107.376 Y103.999 E2.40748 ; perimeter
G1 X107.093 Y104.968 E2.41407 ; perimeter
G1 X106.665 Y106.126 E2.42213 ; perimeter
G1 X105.614 Y108.550 E2.43938 ; perimeter
G1 X105.451 Y108.484 E2.44053 ; perimeter
G4 P38
G1 X105.399 Y108.569 E2.44118 ; perimeter
G4 P39
G1 X93.009 Y101.415 E2.53460 ; perimeter
G1 X100.117 Y113.727 E2.62742 ; perimeter
G1 X99.695 Y113.970 E2.63060 ; perimeter
G1 X92.344 Y101.237 E2.72660 ; perimeter
G1 X92.116 Y101.630 E2.72956 ; perimeter
G4 P35
G1 X92.116 Y99.870 E2.74106 ; perimeter
G4 P22
G1 X92.343 Y100.263 E2.74402 ; perimeter
G4 P35
G1 X99.637 Y87.630 E2.83927 ; perimeter
G1 X98.748 Y87.146 E2.84588 ; perimeter
G1 X97.858 Y86.732 E2.85229 ; perimeter
G1 X97.031 Y86.407 E2.85809 ; perimeter
G1 X96.089 Y86.103 E2.86456 ; perimeter
G1 X95.129 Y85.860 E2.87102 ; perimeter
G1 X94.156 Y85.680 E2.87748 ; perimeter
G1 X93.283 Y85.574 E2.88323 ; perimeter
G1 X92.116 Y85.489 E2.89086 ; perimeter
G1 X92.116 Y83.991 E2.90064 ; perimeter
G1 X92.997 Y84.031 E2.90640 ; perimeter
G1 X93.779 Y84.105 E2.91153 ; perimeter
G1 X94.557 Y84.218 E2.91666 ; perimeter
G1 X95.328 Y84.368 E2.92179 ; perimeter
G1 X96.091 Y84.557 E2.92692 ; perimeter
G1 X96.843 Y84.782 E2.93205 ; perimeter
G1 X97.682 Y85.082 E2.93786 ; perimeter
G1 X98.414 Y85.388 E2.94304 ; perimeter
G1 X99.123 Y85.726 E2.94817 ; perimeter
G1 X99.814 Y86.099 E2.95330 ; perimeter
G1 X100.575 Y86.562 E2.95912 ; perimeter
G1 X101.230 Y87.009 E2.96430 ; perimeter
G1 X101.856 Y87.484 E2.96943 ; perimeter
G1 X102.458 Y87.989 E2.97456 ; perimeter
G1 X103.035 Y88.523 E2.97969 ; perimeter
G1 X103.585 Y89.084 E2.98482 ; perimeter
G1 X104.106 Y89.672 E2.98995 ; perimeter
G1 X104.598 Y90.284 E2.99508 ; perimeter
G1 X105.060 Y90.920 E3.00021 ; perimeter
G1 X105.548 Y91.674 E3.00607 ; perimeter
G1 X105.940 Y92.355 E3.01120 ; perimeter
G1 X106.298 Y93.054 E3.01633 ; perimeter
G1 X106.622 Y93.770 E3.02146 ; perimeter
G1 X106.948 Y94.607 E3.02733 ; perimeter
G1 X107.194 Y95.353 E3.03246 ; perimeter
G1 X107.404 Y96.110 E3.03759 ; perimeter
G1 X107.596 Y96.980 E3.04340 ; perimeter
G1 X107.726 Y97.762 E3.04858 ; perimeter
G1 X107.817 Y98.543 E3.05371 ; perimeter
G1 X107.869 Y99.327 E3.05884 ; perimeter
G1 X107.883 Y100.112 E3.06397 ; perimeter
G1 X107.856 Y100.941 E3.06938 ; perimeter
G1 X107.852 Y101.010 E3.06984 ; perimeter
G1 X97.729 Y114.857 F6000.000 ; move to first perimeter point
G1 X99.206 Y114.114 F6000.000 E3.08063 ; perimeter
G4 P23
G1 X99.205 Y114.170 F6000.000 ; move to first perimeter point
G4 P39
G1 X99.312 Y114.220 F6000.000 E3.08141 ; perimeter
G4 P38
G1 X100.530 Y113.555 F6000.000 ; move to first perimeter point
G1 X100.541 Y113.374 F6000.000 E3.08259 ; perimeter
G4 P23
G1 X100.465 Y113.340 F6000.000 ; move to first perimeter point
G4 P39
G1 X101.033 Y113.035 F6000.000 E3.08680 ; perimeter
G1 X102.207 Y112.096 E3.09661 ; perimeter
G1 X103.401 Y110.920 E3.10756 ; perimeter
G1 X104.558 Y109.497 E3.11953 ; perimeter
G1 X104.812 Y109.132 E3.12243 ; perimeter
G1 X104.757 Y109.033 E3.12318 ; perimeter
G4 P38
G1 X104.812 Y109.132 F6000.000 ; move to first perimeter point
G4 P38
G1 X104.876 Y109.115 F6000.000 E3.12361 ; perimeter
G1 X105.252 Y108.984 E3.12621 ; perimeter
G4 P35
G1 X92.348 Y112.760 F6000.000 ; move to first perimeter point
G1 X92.353 Y115.771 F6000.000 E3.14587 ; perimeter
G1 X92.697 Y115.964 E3.14844 ; perimeter
G1 X95.194 Y115.645 E3.16488 ; perimeter
G1 X97.729 Y114.857 E3.18221 ; perimeter
G1 X92.349 Y112.038 F6000.000 ; move to first perimeter point
G1 X92.348 Y112.760 F6000.000 E3.18693 ; perimeter
G4 P32
G1 X92.349 Y111.316 F6000.000 ; move to first perimeter point
G4 P25
G1 X92.349 Y112.038 F6000.000 E3.19164 ; perimeter
G4 P32
G1 X92.349 Y111.075 F6000.000 ; move to first perimeter point
G4 P30
G1 X92.349 Y111.316 F6000.000 E3.19321 ; perimeter
G4 P37
G1 X92.349 Y110.835 F6000.000 ; move to first perimeter point
G4 P35
G1 X92.349 Y111.075 F6000.000 E3.19478 ; perimeter
G4 P37
G1 X92.349 Y110.835 F6000.000 ; move to first perimeter point
G1 X92.350 Y110.594 F6000.000 E3.19636 ; perimeter
G1 X92.351 Y106.021 E3.22621 ; perimeter
G1 X92.357 Y102.048 E3.25215 ; perimeter
G1 X92.350 Y96.438 F6000.000 ; move to first perimeter point
G1 X92.357 Y99.452 F6000.000 E3.27183 ; perimeter
G4 P9
G1 X92.351 Y94.270 F6000.000 ; move to first perimeter point
G1 X92.350 Y96.438 F6000.000 E3.28599 ; perimeter
G4 P18
