; generated by Slic3r 0.9.6-dev on 2012-11-19 at 22:23:53

; This config has a workaround for the extrusion retraction compensation bug for the first layer... be sure to comment out those 3 lines IF the bug has been fixed.

; layer_height = .1
; perimeters = 1
; top_solid_layers = 0
; bottom_solid_layers = 0
; fill_density = 0
; perimeter_speed = 100
; infill_speed = 100
; travel_speed = 100
; scale = 1
; nozzle_diameter = .1
; filament_diameter = 3
; extrusion_multiplier = 1
; perimeters extrusion width = 0.11mm
; infill extrusion width = 0.11mm
; first layer extrusion width = 0.11mm

G92 E0
G1 E100
G1 E0
G90 ; use absolute coordinates
G21 ; set units to millimeters
G92 E0 ; reset extrusion distance
M82 ; use absolute distances for extrusion
G1 Z0.100 F6000.000 ; move to next layer (0)
G1 X92.776 Y85.724 ; move to first perimeter point
G1 X93.589 Y85.795 F6000.000 E0.00120 ; perimeter
G1 X94.449 Y85.919 E0.00248 ; perimeter
G1 X95.301 Y86.093 E0.00376 ; perimeter
G1 X96.141 Y86.315 E0.00503 ; perimeter
G1 X96.967 Y86.585 E0.00631 ; perimeter
G1 X97.776 Y86.902 E0.00759 ; perimeter
G1 X98.565 Y87.266 E0.00887 ; perimeter
G1 X99.378 Y87.701 E0.01022 ; perimeter
G1 X92.964 Y98.811 E0.02908 ; perimeter
G1 X92.776 Y98.760 E0.02937 ; perimeter
G1 X92.776 Y85.740 E0.04851 ; perimeter
G1 X92.776 Y85.724 E0.04854 ; perimeter
G1 X100.116 Y88.153 F6000.000 ; move to first perimeter point
G1 X100.786 Y88.619 F6000.000 E0.04974 ; perimeter
G1 X101.471 Y89.153 E0.05101 ; perimeter
G1 X102.124 Y89.726 E0.05229 ; perimeter
G1 X102.744 Y90.336 E0.05357 ; perimeter
G1 X103.326 Y90.980 E0.05485 ; perimeter
G1 X103.871 Y91.658 E0.05612 ; perimeter
G1 X104.376 Y92.365 E0.05740 ; perimeter
G1 X104.811 Y93.053 E0.05860 ; perimeter
G1 X93.850 Y99.381 E0.07721 ; perimeter
G1 X93.713 Y99.243 E0.07749 ; perimeter
G1 X100.108 Y88.167 E0.09630 ; perimeter
G1 X100.116 Y88.153 E0.09632 ; perimeter
G1 X105.232 Y93.808 F6000.000 ; move to first perimeter point
G1 X105.590 Y94.547 F6000.000 E0.09753 ; perimeter
G1 X105.927 Y95.354 E0.09881 ; perimeter
G1 X106.217 Y96.180 E0.10010 ; perimeter
G1 X106.431 Y96.918 E0.10123 ; perimeter
G1 X106.629 Y97.767 E0.10251 ; perimeter
G1 X106.777 Y98.629 E0.10380 ; perimeter
G1 X106.875 Y99.499 E0.10508 ; perimeter
G1 X106.922 Y100.317 E0.10629 ; perimeter
G1 X94.333 Y100.317 E0.12480 ; perimeter
G1 X94.283 Y100.130 E0.12508 ; perimeter
G1 X105.218 Y93.816 E0.14365 ; perimeter
G1 X105.232 Y93.808 E0.14367 ; perimeter
G1 X106.922 Y101.183 F6000.000 ; move to first perimeter point
G1 X106.875 Y102.001 F6000.000 E0.14488 ; perimeter
G1 X106.777 Y102.871 E0.14616 ; perimeter
G1 X106.629 Y103.733 E0.14745 ; perimeter
G1 X106.431 Y104.585 E0.14874 ; perimeter
G1 X106.183 Y105.424 E0.15002 ; perimeter
G1 X105.927 Y106.146 E0.15115 ; perimeter
G1 X105.590 Y106.953 E0.15244 ; perimeter
G1 X105.232 Y107.692 E0.15364 ; perimeter
G1 X94.283 Y101.370 E0.17223 ; perimeter
G1 X94.333 Y101.183 E0.17252 ; perimeter
G1 X106.906 Y101.183 E0.19100 ; perimeter
G1 X106.922 Y101.183 E0.19103 ; perimeter
G1 X104.811 Y108.447 F6000.000 ; move to first perimeter point
G1 X104.376 Y109.135 F6000.000 E0.19222 ; perimeter
G1 X103.871 Y109.842 E0.19350 ; perimeter
G1 X103.326 Y110.520 E0.19478 ; perimeter
G1 X102.744 Y111.164 E0.19605 ; perimeter
G1 X102.124 Y111.774 E0.19733 ; perimeter
G1 X101.471 Y112.347 E0.19861 ; perimeter
G1 X100.786 Y112.881 E0.19989 ; perimeter
G1 X100.116 Y113.347 E0.20109 ; perimeter
G1 X93.713 Y102.257 E0.21992 ; perimeter
G1 X93.850 Y102.119 E0.22020 ; perimeter
G1 X104.797 Y108.440 E0.23879 ; perimeter
G1 X104.811 Y108.447 E0.23881 ; perimeter
G1 X99.378 Y113.799 F6000.000 ; move to first perimeter point
G1 X98.565 Y114.234 F6000.000 E0.24016 ; perimeter
G1 X97.776 Y114.598 E0.24144 ; perimeter
G1 X96.967 Y114.915 E0.24272 ; perimeter
G1 X96.141 Y115.185 E0.24400 ; perimeter
G1 X95.301 Y115.407 E0.24527 ; perimeter
G1 X94.449 Y115.581 E0.24655 ; perimeter
G1 X93.589 Y115.705 E0.24783 ; perimeter
G1 X92.776 Y115.776 E0.24903 ; perimeter
G1 X92.776 Y102.739 E0.26820 ; perimeter
G1 X92.964 Y102.689 E0.26848 ; perimeter
G1 X99.370 Y113.786 E0.28732 ; perimeter
G1 X99.378 Y113.799 E0.28735 ; perimeter
G1 X99.613 Y114.230 F6000.000 ; move to first perimeter point
G1 X98.800 Y114.642 F6000.000 E0.28868 ; perimeter
G1 X97.863 Y115.050 E0.29019 ; perimeter
G1 X96.902 Y115.398 E0.29169 ; perimeter
G1 X95.921 Y115.684 E0.29319 ; perimeter
G1 X94.924 Y115.908 E0.29470 ; perimeter
G1 X93.914 Y116.069 E0.29620 ; perimeter
G1 X92.897 Y116.165 E0.29770 ; perimeter
G1 X91.927 Y116.197 E0.29913 ; perimeter
G1 X91.927 Y83.803 E0.34676 ; perimeter
G1 X92.491 Y83.814 E0.34758 ; perimeter
G1 X93.236 Y83.860 E0.34868 ; perimeter
G1 X93.914 Y83.931 E0.34968 ; perimeter
G1 X94.588 Y84.031 E0.35069 ; perimeter
G1 X95.257 Y84.160 E0.35169 ; perimeter
G1 X95.921 Y84.316 E0.35269 ; perimeter
G1 X96.577 Y84.500 E0.35369 ; perimeter
G1 X97.225 Y84.711 E0.35469 ; perimeter
G1 X97.863 Y84.950 E0.35570 ; perimeter
G1 X98.491 Y85.215 E0.35670 ; perimeter
G1 X99.107 Y85.507 E0.35770 ; perimeter
G1 X99.710 Y85.824 E0.35870 ; perimeter
G1 X100.779 Y86.469 E0.36054 ; perimeter
G1 X101.340 Y86.856 E0.36154 ; perimeter
G1 X101.885 Y87.266 E0.36254 ; perimeter
G1 X102.412 Y87.698 E0.36354 ; perimeter
G1 X102.920 Y88.152 E0.36455 ; perimeter
G1 X103.408 Y88.627 E0.36555 ; perimeter
G1 X103.877 Y89.122 E0.36655 ; perimeter
G1 X104.679 Y90.080 E0.36839 ; perimeter
G1 X105.085 Y90.627 E0.36939 ; perimeter
G1 X105.468 Y91.191 E0.37039 ; perimeter
G1 X105.826 Y91.770 E0.37139 ; perimeter
G1 X106.159 Y92.362 E0.37239 ; perimeter
G1 X106.706 Y93.488 E0.37423 ; perimeter
G1 X106.967 Y94.118 E0.37523 ; perimeter
G1 X107.201 Y94.758 E0.37623 ; perimeter
G1 X107.408 Y95.407 E0.37724 ; perimeter
G1 X107.587 Y96.064 E0.37824 ; perimeter
G1 X107.739 Y96.729 E0.37924 ; perimeter
G1 X107.862 Y97.399 E0.38024 ; perimeter
G1 X107.958 Y98.074 E0.38124 ; perimeter
G1 X108.024 Y98.749 E0.38224 ; perimeter
G1 X108.072 Y100.000 E0.38408 ; perimeter
G1 X108.058 Y100.681 E0.38508 ; perimeter
G1 X108.015 Y101.361 E0.38609 ; perimeter
G1 X107.862 Y102.601 E0.38792 ; perimeter
G1 X107.739 Y103.271 E0.38892 ; perimeter
G1 X107.587 Y103.936 E0.38993 ; perimeter
G1 X107.408 Y104.593 E0.39093 ; perimeter
G1 X107.201 Y105.242 E0.39193 ; perimeter
G1 X106.967 Y105.882 E0.39293 ; perimeter
G1 X106.706 Y106.512 E0.39393 ; perimeter
G1 X106.419 Y107.130 E0.39494 ; perimeter
G1 X106.107 Y107.733 E0.39593 ; perimeter
G1 X105.468 Y108.809 E0.39777 ; perimeter
G1 X105.085 Y109.373 E0.39878 ; perimeter
G1 X104.679 Y109.920 E0.39978 ; perimeter
G1 X104.250 Y110.450 E0.40078 ; perimeter
G1 X103.800 Y110.961 E0.40178 ; perimeter
G1 X103.328 Y111.453 E0.40278 ; perimeter
G1 X102.836 Y111.925 E0.40379 ; perimeter
G1 X101.885 Y112.734 E0.40562 ; perimeter
G1 X101.340 Y113.144 E0.40662 ; perimeter
G1 X100.779 Y113.531 E0.40763 ; perimeter
G1 X100.202 Y113.893 E0.40863 ; perimeter
G1 X99.626 Y114.222 E0.40960 ; perimeter
G1 X99.613 Y114.230 E0.40963 ; perimeter
G1 Z0.200 F6000.000 ; move to next layer (1)
G1 X92.776 Y85.724 ; move to first perimeter point
G1 X93.589 Y85.795 F6000.000 E0.41083 ; perimeter
G1 X94.449 Y85.919 E0.41210 ; perimeter
G1 X95.301 Y86.093 E0.41338 ; perimeter
G1 X96.141 Y86.315 E0.41466 ; perimeter
G1 X96.967 Y86.585 E0.41594 ; perimeter
G1 X97.776 Y86.902 E0.41722 ; perimeter
G1 X98.565 Y87.266 E0.41849 ; perimeter
G1 X99.378 Y87.701 E0.41985 ; perimeter
G1 X92.964 Y98.811 E0.43871 ; perimeter
G1 X92.776 Y98.760 E0.43900 ; perimeter
G1 X92.776 Y85.740 E0.45814 ; perimeter
G1 X92.776 Y85.724 E0.45816 ; perimeter
G1 X100.116 Y88.153 F6000.000 ; move to first perimeter point
G1 X100.786 Y88.619 F6000.000 E0.45936 ; perimeter
G1 X101.471 Y89.153 E0.46064 ; perimeter
G1 X102.124 Y89.726 E0.46192 ; perimeter
G1 X102.744 Y90.336 E0.46320 ; perimeter
G1 X103.326 Y90.980 E0.46447 ; perimeter
G1 X103.871 Y91.658 E0.46575 ; perimeter
G1 X104.376 Y92.365 E0.46703 ; perimeter
G1 X104.811 Y93.053 E0.46823 ; perimeter
G1 X93.850 Y99.381 E0.48683 ; perimeter
G1 X93.713 Y99.243 E0.48712 ; perimeter
G1 X100.108 Y88.167 E0.50592 ; perimeter
G1 X100.116 Y88.153 E0.50595 ; perimeter
G1 X105.232 Y93.808 F6000.000 ; move to first perimeter point
G1 X105.590 Y94.547 F6000.000 E0.50715 ; perimeter
G1 X105.927 Y95.354 E0.50844 ; perimeter
G1 X106.217 Y96.180 E0.50973 ; perimeter
G1 X106.431 Y96.915 E0.51085 ; perimeter
G1 X106.629 Y97.767 E0.51214 ; perimeter
G1 X106.777 Y98.629 E0.51342 ; perimeter
G1 X106.875 Y99.499 E0.51471 ; perimeter
G1 X106.922 Y100.317 E0.51592 ; perimeter
G1 X94.333 Y100.317 E0.53443 ; perimeter
G1 X94.283 Y100.130 E0.53471 ; perimeter
G1 X105.218 Y93.816 E0.55328 ; perimeter
G1 X105.232 Y93.808 E0.55330 ; perimeter
G1 X106.922 Y101.183 F6000.000 ; move to first perimeter point
G1 X106.875 Y102.001 F6000.000 E0.55450 ; perimeter
G1 X106.777 Y102.871 E0.55579 ; perimeter
G1 X106.629 Y103.733 E0.55708 ; perimeter
G1 X106.431 Y104.585 E0.55836 ; perimeter
G1 X106.183 Y105.424 E0.55965 ; perimeter
G1 X105.927 Y106.146 E0.56078 ; perimeter
G1 X105.590 Y106.953 E0.56206 ; perimeter
G1 X105.232 Y107.692 E0.56327 ; perimeter
G1 X94.283 Y101.370 E0.58186 ; perimeter
G1 X94.333 Y101.183 E0.58214 ; perimeter
G1 X106.906 Y101.183 E0.60063 ; perimeter
G1 X106.922 Y101.183 E0.60065 ; perimeter
G1 X104.811 Y108.447 F6000.000 ; move to first perimeter point
G1 X104.376 Y109.135 F6000.000 E0.60185 ; perimeter
G1 X103.871 Y109.842 E0.60313 ; perimeter
G1 X103.326 Y110.520 E0.60440 ; perimeter
G1 X102.744 Y111.164 E0.60568 ; perimeter
G1 X102.124 Y111.774 E0.60696 ; perimeter
G1 X101.471 Y112.347 E0.60824 ; perimeter
G1 X100.786 Y112.881 E0.60951 ; perimeter
G1 X100.116 Y113.347 E0.61071 ; perimeter
G1 X93.713 Y102.257 E0.62954 ; perimeter
G1 X93.850 Y102.119 E0.62983 ; perimeter
G1 X104.797 Y108.440 E0.64841 ; perimeter
G1 X104.811 Y108.447 E0.64844 ; perimeter
G1 X99.378 Y113.799 F6000.000 ; move to first perimeter point
G1 X98.565 Y114.234 F6000.000 E0.64979 ; perimeter
G1 X97.776 Y114.598 E0.65107 ; perimeter
G1 X96.967 Y114.915 E0.65235 ; perimeter
G1 X96.141 Y115.185 E0.65362 ; perimeter
G1 X95.301 Y115.407 E0.65490 ; perimeter
G1 X94.449 Y115.581 E0.65618 ; perimeter
G1 X93.589 Y115.705 E0.65746 ; perimeter
G1 X92.776 Y115.776 E0.65866 ; perimeter
G1 X92.776 Y102.739 E0.67782 ; perimeter
G1 X92.964 Y102.689 E0.67811 ; perimeter
G1 X99.370 Y113.786 E0.69695 ; perimeter
G1 X99.378 Y113.799 E0.69697 ; perimeter
G1 X99.610 Y114.231 F6000.000 ; move to first perimeter point
G1 X98.697 Y114.691 F6000.000 E0.69847 ; perimeter
G1 X97.757 Y115.092 E0.69998 ; perimeter
G1 X96.794 Y115.433 E0.70148 ; perimeter
G1 X95.921 Y115.684 E0.70282 ; perimeter
G1 X94.924 Y115.908 E0.70432 ; perimeter
G1 X93.914 Y116.069 E0.70582 ; perimeter
G1 X92.897 Y116.165 E0.70732 ; perimeter
G1 X91.927 Y116.197 E0.70875 ; perimeter
G1 X91.927 Y83.803 E0.75638 ; perimeter
G1 X92.556 Y83.817 E0.75730 ; perimeter
G1 X93.236 Y83.860 E0.75830 ; perimeter
G1 X93.914 Y83.931 E0.75931 ; perimeter
G1 X94.588 Y84.031 E0.76031 ; perimeter
G1 X95.257 Y84.160 E0.76131 ; perimeter
G1 X95.921 Y84.316 E0.76231 ; perimeter
G1 X96.577 Y84.500 E0.76331 ; perimeter
G1 X97.225 Y84.711 E0.76432 ; perimeter
G1 X98.387 Y85.169 E0.76615 ; perimeter
G1 X99.005 Y85.456 E0.76715 ; perimeter
G1 X99.610 Y85.769 E0.76816 ; perimeter
G1 X100.202 Y86.107 E0.76916 ; perimeter
G1 X100.779 Y86.469 E0.77016 ; perimeter
G1 X101.340 Y86.856 E0.77116 ; perimeter
G1 X101.885 Y87.266 E0.77216 ; perimeter
G1 X102.412 Y87.698 E0.77317 ; perimeter
G1 X102.920 Y88.152 E0.77417 ; perimeter
G1 X103.408 Y88.627 E0.77517 ; perimeter
G1 X103.877 Y89.122 E0.77617 ; perimeter
G1 X104.679 Y90.080 E0.77801 ; perimeter
G1 X105.085 Y90.627 E0.77901 ; perimeter
G1 X105.468 Y91.191 E0.78001 ; perimeter
G1 X105.826 Y91.770 E0.78101 ; perimeter
G1 X106.156 Y92.357 E0.78200 ; perimeter
G1 X106.706 Y93.488 E0.78385 ; perimeter
G1 X106.967 Y94.118 E0.78485 ; perimeter
G1 X107.201 Y94.758 E0.78586 ; perimeter
G1 X107.408 Y95.407 E0.78686 ; perimeter
G1 X107.587 Y96.064 E0.78786 ; perimeter
G1 X107.739 Y96.729 E0.78886 ; perimeter
G1 X107.853 Y97.340 E0.78978 ; perimeter
G1 X107.958 Y98.074 E0.79087 ; perimeter
G1 X108.024 Y98.743 E0.79186 ; perimeter
G1 X108.072 Y100.000 E0.79370 ; perimeter
G1 X108.058 Y100.681 E0.79471 ; perimeter
G1 X108.015 Y101.361 E0.79571 ; perimeter
G1 X107.862 Y102.601 E0.79755 ; perimeter
G1 X107.739 Y103.271 E0.79855 ; perimeter
G1 X107.587 Y103.936 E0.79955 ; perimeter
G1 X107.408 Y104.593 E0.80055 ; perimeter
G1 X107.201 Y105.242 E0.80155 ; perimeter
G1 X106.967 Y105.882 E0.80255 ; perimeter
G1 X106.706 Y106.512 E0.80356 ; perimeter
G1 X106.160 Y107.635 E0.80539 ; perimeter
G1 X105.826 Y108.230 E0.80640 ; perimeter
G1 X105.468 Y108.809 E0.80740 ; perimeter
G1 X105.085 Y109.373 E0.80840 ; perimeter
G1 X104.679 Y109.920 E0.80940 ; perimeter
G1 X104.250 Y110.450 E0.81040 ; perimeter
G1 X103.800 Y110.961 E0.81140 ; perimeter
G1 X103.328 Y111.453 E0.81241 ; perimeter
G1 X102.843 Y111.919 E0.81340 ; perimeter
G1 X101.885 Y112.734 E0.81525 ; perimeter
G1 X101.340 Y113.144 E0.81625 ; perimeter
G1 X100.779 Y113.531 E0.81725 ; perimeter
G1 X100.202 Y113.893 E0.81825 ; perimeter
G1 X99.624 Y114.224 E0.81923 ; perimeter
G1 X99.610 Y114.231 E0.81925 ; perimeter
G1 Z0.300 F6000.000 ; move to next layer (2)
G1 X92.776 Y85.724 ; move to first perimeter point
G1 X93.589 Y85.795 F6000.000 E0.82045 ; perimeter
G1 X94.449 Y85.919 E0.82173 ; perimeter
G1 X95.301 Y86.093 E0.82301 ; perimeter
G1 X96.141 Y86.315 E0.82429 ; perimeter
G1 X96.967 Y86.585 E0.82556 ; perimeter
G1 X97.776 Y86.902 E0.82684 ; perimeter
G1 X98.565 Y87.266 E0.82812 ; perimeter
G1 X99.378 Y87.701 E0.82947 ; perimeter
G1 X92.964 Y98.811 E0.84834 ; perimeter
G1 X92.776 Y98.760 E0.84862 ; perimeter
G1 X92.776 Y85.740 E0.86777 ; perimeter
G1 X92.776 Y85.724 E0.86779 ; perimeter
G1 X100.116 Y88.153 F6000.000 ; move to first perimeter point
G1 X100.786 Y88.619 F6000.000 E0.86899 ; perimeter
G1 X101.471 Y89.153 E0.87027 ; perimeter
G1 X102.124 Y89.726 E0.87154 ; perimeter
G1 X102.744 Y90.336 E0.87282 ; perimeter
G1 X103.326 Y90.980 E0.87410 ; perimeter
G1 X103.871 Y91.658 E0.87538 ; perimeter
G1 X104.376 Y92.365 E0.87665 ; perimeter
G1 X104.811 Y93.053 E0.87785 ; perimeter
G1 X93.850 Y99.381 E0.89646 ; perimeter
G1 X93.713 Y99.243 E0.89675 ; perimeter
G1 X100.108 Y88.167 E0.91555 ; perimeter
G1 X100.116 Y88.153 E0.91557 ; perimeter
G1 X105.232 Y93.808 F6000.000 ; move to first perimeter point
G1 X105.590 Y94.547 F6000.000 E0.91678 ; perimeter
G1 X105.927 Y95.354 E0.91807 ; perimeter
G1 X106.217 Y96.180 E0.91935 ; perimeter
G1 X106.431 Y96.915 E0.92048 ; perimeter
G1 X106.629 Y97.767 E0.92176 ; perimeter
G1 X106.777 Y98.629 E0.92305 ; perimeter
G1 X106.875 Y99.499 E0.92434 ; perimeter
G1 X106.922 Y100.317 E0.92554 ; perimeter
G1 X94.333 Y100.317 E0.94405 ; perimeter
G1 X94.283 Y100.130 E0.94434 ; perimeter
G1 X105.218 Y93.816 E0.96290 ; perimeter
G1 X105.232 Y93.808 E0.96293 ; perimeter
G1 X106.922 Y101.183 F6000.000 ; move to first perimeter point
G1 X106.875 Y102.001 F6000.000 E0.96413 ; perimeter
G1 X106.777 Y102.871 E0.96542 ; perimeter
G1 X106.629 Y103.733 E0.96670 ; perimeter
G1 X106.431 Y104.585 E0.96799 ; perimeter
G1 X106.183 Y105.424 E0.96928 ; perimeter
G1 X105.927 Y106.146 E0.97040 ; perimeter
G1 X105.590 Y106.953 E0.97169 ; perimeter
G1 X105.232 Y107.692 E0.97290 ; perimeter
G1 X94.283 Y101.370 E0.99148 ; perimeter
G1 X94.333 Y101.183 E0.99177 ; perimeter
G1 X106.906 Y101.183 E1.01026 ; perimeter
G1 X106.922 Y101.183 E1.01028 ; perimeter
G1 X104.811 Y108.447 F6000.000 ; move to first perimeter point
