; generated by Slic3r 0.9.6-dev on 2012-11-19 at 22:25:44

; This config has a workaround for the extrusion retraction compensation bug for the first layer... be sure to comment out those 3 lines IF the bug has been fixed.

; layer_height = .1
; perimeters = 1
; top_solid_layers = 0
; bottom_solid_layers = 0
; fill_density = 0
; perimeter_speed = 100
; infill_speed = 100
; travel_speed = 100
; scale = 1
; nozzle_diameter = .2
; filament_diameter = 3
; extrusion_multiplier = 1
; perimeters extrusion width = 0.28mm
; infill extrusion width = 0.28mm
; first layer extrusion width = 0.28mm

G92 E0
G1 E100
G1 E0
G90 ; use absolute coordinates
G21 ; set units to millimeters
G92 E0 ; reset extrusion distance
M82 ; use absolute distances for extrusion
G1 Z0.100 F6000.000 ; move to next layer (0)
G1 X92.689 Y85.630 ; move to first perimeter point
G1 X93.599 Y85.708 F6000.000 E0.00340 ; perimeter
G1 X94.464 Y85.833 E0.00665 ; perimeter
G1 X95.321 Y86.007 E0.00990 ; perimeter
G1 X96.166 Y86.231 E0.01315 ; perimeter
G1 X97.099 Y86.540 E0.01681 ; perimeter
G1 X97.911 Y86.865 E0.02006 ; perimeter
G1 X98.702 Y87.237 E0.02331 ; perimeter
G1 X99.498 Y87.668 E0.02667 ; perimeter
G1 X93.006 Y98.913 E0.07495 ; perimeter
G1 X92.689 Y98.828 E0.07617 ; perimeter
G1 X92.689 Y85.670 E0.12510 ; perimeter
G1 X92.689 Y85.630 E0.12525 ; perimeter
G1 X100.086 Y88.029 F6000.000 ; move to first perimeter point
G1 X100.838 Y88.548 F6000.000 E0.12864 ; perimeter
G1 X101.527 Y89.086 E0.13189 ; perimeter
G1 X102.184 Y89.662 E0.13514 ; perimeter
G1 X102.807 Y90.275 E0.13839 ; perimeter
G1 X103.393 Y90.924 E0.14164 ; perimeter
G1 X103.941 Y91.605 E0.14489 ; perimeter
G1 X104.448 Y92.316 E0.14814 ; perimeter
G1 X104.932 Y93.084 E0.15151 ; perimeter
G1 X93.836 Y99.490 E0.19916 ; perimeter
G1 X93.603 Y99.258 E0.20038 ; perimeter
G1 X100.067 Y88.063 E0.24844 ; perimeter
G1 X100.086 Y88.029 E0.24859 ; perimeter
G1 X105.268 Y93.687 F6000.000 ; move to first perimeter point
G1 X105.624 Y94.411 F6000.000 E0.25159 ; perimeter
G1 X105.969 Y95.220 E0.25486 ; perimeter
G1 X106.266 Y96.048 E0.25813 ; perimeter
G1 X106.515 Y96.893 E0.26141 ; perimeter
G1 X106.715 Y97.750 E0.26468 ; perimeter
G1 X106.864 Y98.617 E0.26795 ; perimeter
G1 X106.963 Y99.492 E0.27122 ; perimeter
G1 X107.012 Y100.405 E0.27463 ; perimeter
G1 X94.266 Y100.405 E0.32202 ; perimeter
G1 X94.181 Y100.088 E0.32324 ; perimeter
G1 X105.234 Y93.706 E0.37070 ; perimeter
G1 X105.268 Y93.687 E0.37084 ; perimeter
G1 X107.012 Y101.095 F6000.000 ; move to first perimeter point
G1 X106.963 Y102.008 F6000.000 E0.37425 ; perimeter
G1 X106.864 Y102.883 E0.37752 ; perimeter
G1 X106.715 Y103.750 E0.38079 ; perimeter
G1 X106.515 Y104.607 E0.38406 ; perimeter
G1 X106.267 Y105.452 E0.38734 ; perimeter
G1 X105.969 Y106.280 E0.39061 ; perimeter
G1 X105.624 Y107.089 E0.39388 ; perimeter
G1 X105.268 Y107.813 E0.39688 ; perimeter
G1 X94.181 Y101.412 E0.44448 ; perimeter
G1 X94.266 Y101.095 E0.44570 ; perimeter
G1 X106.973 Y101.095 E0.49295 ; perimeter
G1 X107.012 Y101.095 E0.49310 ; perimeter
G1 X104.932 Y108.416 F6000.000 ; move to first perimeter point
G1 X104.448 Y109.184 F6000.000 E0.49647 ; perimeter
G1 X103.941 Y109.895 E0.49972 ; perimeter
G1 X103.393 Y110.576 E0.50297 ; perimeter
G1 X102.807 Y111.225 E0.50622 ; perimeter
G1 X102.184 Y111.838 E0.50947 ; perimeter
G1 X101.527 Y112.414 E0.51272 ; perimeter
G1 X100.838 Y112.952 E0.51597 ; perimeter
G1 X100.087 Y113.471 E0.51937 ; perimeter
G1 X93.603 Y102.242 E0.56758 ; perimeter
G1 X93.836 Y102.010 E0.56880 ; perimeter
G1 X104.898 Y108.397 E0.61630 ; perimeter
G1 X104.932 Y108.416 E0.61644 ; perimeter
G1 X105.395 Y108.760 F6000.000 ; move to first perimeter point
G1 X104.679 Y109.777 F6000.000 E0.62107 ; perimeter
G1 X103.887 Y110.735 E0.62569 ; perimeter
G1 X103.024 Y111.629 E0.63031 ; perimeter
G1 X102.095 Y112.453 E0.63493 ; perimeter
G1 X101.105 Y113.204 E0.63955 ; perimeter
G1 X100.060 Y113.876 E0.64417 ; perimeter
G1 X98.966 Y114.465 E0.64879 ; perimeter
G1 X97.793 Y114.987 E0.65357 ; perimeter
G1 X97.684 Y114.734 E0.65459 ; perimeter
G1 X98.604 Y114.312 E0.65835 ; perimeter
G1 X99.498 Y113.832 E0.66212 ; perimeter
G1 X93.006 Y102.587 E0.71040 ; perimeter
G1 X92.689 Y102.672 E0.71163 ; perimeter
G1 X92.689 Y116.090 E0.76151 ; perimeter
G1 X92.015 Y116.110 E0.76402 ; perimeter
G1 X92.015 Y83.890 E0.88382 ; perimeter
G1 X93.116 Y83.938 E0.88792 ; perimeter
G1 X94.127 Y84.048 E0.89170 ; perimeter
G1 X95.129 Y84.222 E0.89548 ; perimeter
G1 X96.226 Y84.489 E0.89968 ; perimeter
G1 X97.302 Y84.832 E0.90388 ; perimeter
G1 X98.248 Y85.204 E0.90766 ; perimeter
G1 X99.169 Y85.636 E0.91144 ; perimeter
G1 X100.157 Y86.182 E0.91564 ; perimeter
G1 X101.012 Y86.732 E0.91942 ; perimeter
G1 X101.919 Y87.405 E0.92362 ; perimeter
G1 X102.777 Y88.139 E0.92782 ; perimeter
G1 X103.504 Y88.851 E0.93160 ; perimeter
G1 X104.184 Y89.606 E0.93538 ; perimeter
G1 X104.882 Y90.494 E0.93958 ; perimeter
G1 X105.514 Y91.427 E0.94377 ; perimeter
G1 X106.029 Y92.306 E0.94756 ; perimeter
G1 X106.486 Y93.214 E0.95134 ; perimeter
G1 X106.926 Y94.255 E0.95554 ; perimeter
G1 X107.291 Y95.324 E0.95974 ; perimeter
G1 X107.556 Y96.305 E0.96352 ; perimeter
G1 X107.776 Y97.411 E0.96771 ; perimeter
G1 X107.907 Y98.421 E0.97150 ; perimeter
G1 X107.979 Y99.548 E0.97570 ; perimeter
G1 X107.975 Y100.565 E0.97948 ; perimeter
G1 X107.896 Y101.689 E0.98367 ; perimeter
G1 X107.757 Y102.699 E0.98746 ; perimeter
G1 X107.530 Y103.802 E0.99165 ; perimeter
G1 X107.258 Y104.784 E0.99544 ; perimeter
G1 X106.926 Y105.745 E0.99922 ; perimeter
G1 X106.486 Y106.786 E1.00342 ; perimeter
G1 X105.975 Y107.793 E1.00762 ; perimeter
G1 X105.417 Y108.726 E1.01166 ; perimeter
G1 X105.395 Y108.760 E1.01181 ; perimeter
G1 X95.926 Y115.466 F6000.000 ; move to first perimeter point
G1 X97.352 Y115.008 F6000.000 E1.01738 ; perimeter
G1 X97.440 Y114.789 E1.01825 ; perimeter
G1 X97.646 Y114.626 F6000.000 ; move inwards before travel
G1 X97.352 Y115.008 ; move to first perimeter point
G1 X97.442 Y115.047 F2579.697 E1.01862 ; perimeter
G1 X97.599 Y115.257 F2579.697 ; move inwards before travel
G1 X97.442 Y115.047 F572.366 ; move to first perimeter point
G1 X97.463 Y115.050 F450.762 E1.01870 ; perimeter
G1 X97.670 Y115.211 F450.762 ; move inwards before travel
G1 X97.463 Y115.050 F342.760 ; move to first perimeter point
G1 X97.564 Y115.103 F342.760 E1.01912 ; perimeter
G1 X97.704 Y115.326 F486.093 ; move inwards before travel
G1 X94.280 Y115.816 F736.086 ; move to first perimeter point
G1 X95.926 Y115.466 F2469.741 E1.02538 ; perimeter
G1 X96.176 Y115.547 F2469.741 ; move inwards before travel
G1 X93.881 Y115.867 F2469.741 ; move to first perimeter point
G1 X94.280 Y115.816 F2469.741 E1.02688 ; perimeter
G1 X94.522 Y115.918 F855.046 ; move inwards before travel
G1 X93.336 Y115.928 F855.046 ; move to first perimeter point
G1 X93.881 Y115.867 F817.635 E1.02892 ; perimeter
G1 X94.122 Y115.973 F817.635 ; move inwards before travel
G1 X93.117 Y115.948 F817.635 ; move to first perimeter point
G1 X93.336 Y115.928 F817.635 E1.02973 ; perimeter
G1 X93.574 Y116.040 F366.709 ; move inwards before travel
G1 X93.080 Y115.954 F366.709 ; move to first perimeter point
G1 X93.117 Y115.948 F366.709 E1.02987 ; perimeter
G1 X93.364 Y116.037 F370.653 ; move inwards before travel
G1 X92.896 Y116.138 F425.373 ; move to first perimeter point
G1 X93.080 Y115.954 F425.373 E1.03084 ; perimeter
G1 X93.000 Y115.873 F276.565 E1.03126 ; perimeter
G1 X92.895 Y115.477 F278.245 ; move inwards before travel
G1 X93.515 Y99.061 F930.144 ; move to first fill point
G1 X93.261 Y98.807 F930.144 E1.03335 ; fill
G1 X93.473 Y98.439 F930.144 E1.03581 ; fill
G1 X93.732 Y98.698 F930.144 E1.03794 ; fill
G1 X93.945 Y98.330 F1025.386 E1.04040 ; fill
G1 X93.686 Y98.071 F1025.386 E1.04253 ; fill
G1 X93.898 Y97.704 F1025.386 E1.04499 ; fill
G1 X94.157 Y97.963 F1025.386 E1.04711 ; fill
G1 X94.369 Y97.595 F1025.391 E1.04958 ; fill
G1 X94.110 Y97.336 F1025.391 E1.05170 ; fill
G1 X94.323 Y96.968 F1025.391 E1.05417 ; fill
G1 X94.582 Y97.227 F1025.391 E1.05629 ; fill
G1 X94.794 Y96.860 F1025.391 E1.05876 ; fill
G1 X94.535 Y96.601 F1025.389 E1.06088 ; fill
G1 X94.747 Y96.233 F1025.389 E1.06334 ; fill
G1 X95.006 Y96.492 F1025.389 E1.06547 ; fill
G1 X95.219 Y96.124 F1025.389 E1.06793 ; fill
G1 X94.959 Y95.865 F1025.389 E1.07006 ; fill
G1 X95.172 Y95.497 F1025.495 E1.07252 ; fill
G1 X95.431 Y95.756 F1025.495 E1.07465 ; fill
G1 X95.643 Y95.389 F1025.495 E1.07711 ; fill
G1 X95.384 Y95.130 F1025.495 E1.07924 ; fill
G1 X95.596 Y94.762 F1025.496 E1.08170 ; fill
G1 X95.855 Y95.021 F1025.496 E1.08383 ; fill
G1 X96.068 Y94.653 F1025.496 E1.08629 ; fill
G1 X95.809 Y94.394 F1025.494 E1.08842 ; fill
G1 X96.021 Y94.027 F1025.494 E1.09088 ; fill
G1 X96.280 Y94.286 F1025.388 E1.09301 ; fill
G1 X96.492 Y93.918 F1025.388 E1.09547 ; fill
G1 X96.233 Y93.659 F1025.388 E1.09759 ; fill
G1 X96.446 Y93.291 F1025.388 E1.10006 ; fill
G1 X96.705 Y93.550 F1025.388 E1.10218 ; fill
G1 X96.917 Y93.182 F1025.388 E1.10465 ; fill
G1 X96.658 Y92.923 F1025.388 E1.10677 ; fill
G1 X96.870 Y92.556 F1025.388 E1.10924 ; fill
G1 X97.129 Y92.815 F1025.388 E1.11136 ; fill
G1 X97.341 Y92.447 F1025.388 E1.11382 ; fill
G1 X97.082 Y92.188 F1025.388 E1.11595 ; fill
G1 X97.295 Y91.820 F1025.388 E1.11841 ; fill
G1 X97.554 Y92.079 F1025.388 E1.12054 ; fill
G1 X97.766 Y91.712 F1025.388 E1.12300 ; fill
G1 X97.507 Y91.453 F1025.388 E1.12513 ; fill
G1 X97.719 Y91.085 F1025.388 E1.12759 ; fill
G1 X97.978 Y91.344 F1025.388 E1.12972 ; fill
G1 X98.191 Y90.976 F1025.388 E1.13218 ; fill
G1 X97.932 Y90.717 F1025.388 E1.13430 ; fill
G1 X98.144 Y90.349 F1025.388 E1.13677 ; fill
G1 X98.403 Y90.608 F1025.388 E1.13889 ; fill
G1 X98.615 Y90.241 F1025.389 E1.14136 ; fill
G1 X98.356 Y89.982 F1025.389 E1.14348 ; fill
G1 X98.569 Y89.614 F1025.495 E1.14595 ; fill
G1 X98.828 Y89.873 F1025.495 E1.14807 ; fill
G1 X99.040 Y89.505 F1025.496 E1.15054 ; fill
G1 X98.781 Y89.246 F1025.496 E1.15266 ; fill
G1 X98.993 Y88.879 F1025.496 E1.15513 ; fill
G1 X99.252 Y89.138 F1025.494 E1.15725 ; fill
G1 X99.465 Y88.770 F1025.494 E1.15971 ; fill
G1 X99.205 Y88.511 F1025.494 E1.16184 ; fill
G1 X99.418 Y88.143 F1025.494 E1.16430 ; fill
G1 X99.677 Y88.402 F1025.494 E1.16643 ; fill
G1 X99.889 Y88.034 F1025.495 E1.16889 ; fill
G1 X99.635 Y87.780 F1025.495 E1.17098 ; fill
G1 X94.287 Y99.832 F6000.000 ; move to first fill point
G1 X94.033 Y99.579 F6000.000 E1.17303 ; fill
G1 X94.391 Y99.364 F6000.000 E1.17542 ; fill
G1 X94.650 Y99.623 E1.17752 ; fill
G1 X95.012 Y99.413 F917.275 E1.17992 ; fill
G1 X94.753 Y99.154 F932.974 E1.18202 ; fill
G1 X95.116 Y98.945 F1469.382 E1.18441 ; fill
G1 X95.375 Y99.204 F1469.382 E1.18651 ; fill
G1 X95.738 Y98.994 F1477.226 E1.18891 ; fill
G1 X95.479 Y98.735 F1477.226 E1.19101 ; fill
G1 X95.842 Y98.526 F1477.226 E1.19341 ; fill
G1 X96.101 Y98.785 F1477.226 E1.19551 ; fill
G1 X96.464 Y98.575 F1477.241 E1.19790 ; fill
G1 X96.205 Y98.316 F1477.241 E1.20000 ; fill
G1 X96.568 Y98.107 F1477.241 E1.20240 ; fill
G1 X96.827 Y98.366 F1477.241 E1.20450 ; fill
G1 X97.190 Y98.156 F1477.241 E1.20690 ; fill
G1 X96.931 Y97.897 F1477.230 E1.20900 ; fill
G1 X97.294 Y97.688 F1477.230 E1.21140 ; fill
G1 X97.553 Y97.947 F1477.230 E1.21349 ; fill
G1 X97.915 Y97.737 F1477.230 E1.21589 ; fill
G1 X97.656 Y97.478 F1477.127 E1.21799 ; fill
G1 X98.019 Y97.269 F1477.127 E1.22039 ; fill
G1 X98.278 Y97.528 F1477.127 E1.22249 ; fill
G1 X98.641 Y97.318 F1477.127 E1.22488 ; fill
G1 X98.382 Y97.059 F1477.125 E1.22698 ; fill
G1 X98.745 Y96.850 F1477.125 E1.22938 ; fill
G1 X99.004 Y97.109 F1477.123 E1.23148 ; fill
G1 X99.367 Y96.899 F1477.123 E1.23388 ; fill
G1 X99.108 Y96.640 F1477.123 E1.23597 ; fill
G1 X99.471 Y96.431 F1477.123 E1.23837 ; fill
G1 X99.730 Y96.690 F1477.123 E1.24047 ; fill
G1 X100.093 Y96.480 F1477.123 E1.24287 ; fill
G1 X99.834 Y96.221 F1477.123 E1.24497 ; fill
G1 X100.196 Y96.012 F1477.123 E1.24737 ; fill
G1 X100.456 Y96.271 F1477.018 E1.24946 ; fill
G1 X100.818 Y96.061 F1477.018 E1.25186 ; fill
G1 X100.559 Y95.802 F1477.018 E1.25396 ; fill
G1 X100.922 Y95.593 F1477.018 E1.25636 ; fill
G1 X101.181 Y95.852 F1477.018 E1.25846 ; fill
G1 X101.544 Y95.642 F1477.018 E1.26086 ; fill
G1 X101.285 Y95.383 F1477.018 E1.26295 ; fill
G1 X101.648 Y95.174 F1477.018 E1.26535 ; fill
G1 X101.907 Y95.433 F1477.017 E1.26745 ; fill
G1 X102.270 Y95.223 F1477.017 E1.26985 ; fill
G1 X102.011 Y94.964 F1477.017 E1.27195 ; fill
G1 X102.374 Y94.755 F1477.017 E1.27435 ; fill
G1 X102.633 Y95.014 F1477.017 E1.27644 ; fill
G1 X102.996 Y94.804 F1477.017 E1.27884 ; fill
G1 X102.737 Y94.545 F1477.017 E1.28094 ; fill
G1 X103.099 Y94.336 F1477.017 E1.28334 ; fill
G1 X103.358 Y94.595 F1477.017 E1.28544 ; fill
G1 X103.721 Y94.385 F1477.017 E1.28784 ; fill
G1 X103.462 Y94.126 F1477.017 E1.28993 ; fill
G1 X103.825 Y93.917 F1477.069 E1.29233 ; fill
G1 X104.084 Y94.176 F1477.069 E1.29443 ; fill
G1 X104.447 Y93.966 F1477.069 E1.29683 ; fill
G1 X104.188 Y93.707 F1477.069 E1.29893 ; fill
G1 X104.551 Y93.498 F1477.069 E1.30133 ; fill
G1 X104.810 Y93.757 F1477.059 E1.30342 ; fill
G1 X105.168 Y93.542 F1477.059 E1.30581 ; fill
G1 X104.914 Y93.288 F1469.422 E1.30787 ; fill
G1 X94.566 Y100.880 F6000.000 ; move to first fill point
G1 X94.312 Y100.627 F6000.000 E1.30991 ; fill
G1 X94.873 Y100.619 F6000.000 E1.31311 ; fill
G1 X95.134 Y100.881 E1.31521 ; fill
G1 X95.442 Y100.619 F1223.181 E1.31750 ; fill
G1 X95.703 Y100.880 F461.763 E1.31960 ; fill
G1 X96.011 Y100.619 F461.763 E1.32190 ; fill
G1 X96.272 Y100.881 F461.752 E1.32400 ; fill
G1 X96.580 Y100.620 F461.754 E1.32630 ; fill
G1 X96.841 Y100.880 F461.754 E1.32840 ; fill
G1 X97.149 Y100.619 F461.755 E1.33069 ; fill
G1 X97.410 Y100.880 F461.755 E1.33279 ; fill
G1 X97.718 Y100.619 F461.755 E1.33509 ; fill
G1 X97.979 Y100.881 F461.755 E1.33719 ; fill
G1 X98.287 Y100.620 F461.757 E1.33949 ; fill
G1 X98.548 Y100.880 F461.757 E1.34159 ; fill
G1 X98.855 Y100.619 F461.758 E1.34389 ; fill
G1 X99.116 Y100.880 F461.758 E1.34599 ; fill
G1 X99.424 Y100.619 F461.758 E1.34828 ; fill
G1 X99.685 Y100.881 F461.752 E1.35038 ; fill
G1 X99.993 Y100.620 F461.752 E1.35268 ; fill
G1 X100.254 Y100.881 F461.751 E1.35478 ; fill
G1 X100.562 Y100.619 F461.763 E1.35708 ; fill
G1 X100.823 Y100.880 F461.763 E1.35918 ; fill
G1 X101.131 Y100.619 F461.763 E1.36147 ; fill
G1 X101.392 Y100.881 F461.752 E1.36357 ; fill
G1 X101.700 Y100.620 F461.752 E1.36587 ; fill
G1 X101.961 Y100.881 F461.752 E1.36797 ; fill
G1 X102.268 Y100.619 F461.763 E1.37027 ; fill
G1 X102.529 Y100.880 F461.763 E1.37237 ; fill
G1 X102.837 Y100.619 F461.763 E1.37466 ; fill
G1 X103.098 Y100.881 F461.752 E1.37677 ; fill
G1 X103.406 Y100.620 F461.752 E1.37906 ; fill
G1 X103.667 Y100.881 F461.751 E1.38116 ; fill
G1 X103.975 Y100.619 F461.763 E1.38346 ; fill
G1 X104.236 Y100.880 F461.763 E1.38556 ; fill
G1 X104.544 Y100.619 F461.763 E1.38786 ; fill
G1 X104.805 Y100.881 F461.752 E1.38996 ; fill
G1 X105.113 Y100.620 F461.752 E1.39225 ; fill
G1 X105.374 Y100.881 F461.752 E1.39435 ; fill
G1 X105.681 Y100.619 F461.763 E1.39665 ; fill
G1 X105.942 Y100.880 F461.763 E1.39875 ; fill
G1 X106.250 Y100.619 F461.763 E1.40105 ; fill
G1 X106.511 Y100.881 F461.752 E1.40315 ; fill
G1 X106.819 Y100.620 F461.752 E1.40544 ; fill
G1 X107.073 Y100.873 F461.751 E1.40749 ; fill
G1 X94.283 Y101.928 F1962.455 ; move to first fill point
G1 X105.447 Y108.365 F6000.000 E1.48366 ; fill
G1 X92.370 Y98.795 F6000.000 ; move to first fill point
G1 X92.203 Y98.627 F6000.000 E1.48455 ; fill
G1 X92.501 Y98.548 F6000.000 E1.48572 ; fill
G1 X92.203 Y98.250 E1.48731 ; fill
G1 X92.501 Y98.170 F447.236 E1.48848 ; fill
G1 X92.203 Y97.872 F447.236 E1.49007 ; fill
G1 X92.501 Y97.792 F447.236 E1.49124 ; fill
