; generated by Slic3r 0.9.6-dev on 2012-11-19 at 14:24:25

; layer_height = .175
; perimeters = 1
; top_solid_layers = 0
; bottom_solid_layers = 0
; fill_density = 0
; perimeter_speed = 130
; infill_speed = 130
; travel_speed = 300
; scale = 1
; nozzle_diameter = .345
; filament_diameter = 2.9
; extrusion_multiplier = 1
; perimeters extrusion width = 0.48mm
; infill extrusion width = 0.48mm
; first layer extrusion width = 0.48mm

G90 ; use absolute coordinates
G21 ; set units to millimeters
M82 ; use absolute distances for extrusion
G28 ; go home and zero the axes
G92 X0 Y0 Z0 E0.0
G1 Z1.0 F240 ; Head on up to a location I can be seen.
G1 E5 ; let's spew a little.
G92 E2.0
G1 E0.0 ; retract a little so I stop drooling.
G1 X0 Y0 Z0 F3000
G1 Y30
G1 X30
G1 Y0
G1 X100 Y0 Z1.0
G1 X100 Y30 Z0 E3
G92 E0
M106
G90 ; use absolute coordinates
G21 ; set units to millimeters
G92 E0 ; reset extrusion distance
M82 ; use absolute distances for extrusion
M106 S255 ; enable fan
G1 F1560.000 E-1.00000 ; retract
G92 E0 ; reset extrusion distance
G1 Z0.480 F18000.000 ; move to next layer (0)
G1 X100.053 Y87.884 ; move to first perimeter point
G1 F1560.000 E1.00000 ; compensate retraction
G1 X100.809 Y88.401 F3510.000 E1.01258 ; perimeter
G1 X101.507 Y88.938 E1.02466 ; perimeter
G1 X102.172 Y89.513 E1.03674 ; perimeter
G1 X102.880 Y90.205 E1.05033 ; perimeter
G1 X103.541 Y90.942 E1.06391 ; perimeter
G1 X104.088 Y91.631 E1.07599 ; perimeter
G1 X104.594 Y92.351 E1.08807 ; perimeter
G1 X105.072 Y93.120 E1.10050 ; perimeter
G1 X93.819 Y99.617 E1.27889 ; perimeter
G1 X93.477 Y99.274 E1.28554 ; perimeter
G1 X100.019 Y87.943 E1.46516 ; perimeter
G1 X100.053 Y87.884 E1.46609 ; perimeter
G1 F1560.000 E0.46609 ; retract
G92 E0 ; reset extrusion distance
G1 X105.309 Y93.545 F18000.000 ; move to first perimeter point
G1 F1560.000 E1.00000 ; compensate retraction
G1 X105.716 Y94.368 F3510.000 E1.01260 ; perimeter
G1 X106.064 Y95.183 E1.02476 ; perimeter
G1 X106.363 Y96.017 E1.03693 ; perimeter
G1 X106.614 Y96.867 E1.04909 ; perimeter
G1 X106.814 Y97.730 E1.06125 ; perimeter
G1 X106.980 Y98.713 E1.07493 ; perimeter
G1 X107.073 Y99.594 E1.08710 ; perimeter
G1 X107.118 Y100.506 E1.09964 ; perimeter
G1 X94.188 Y100.506 E1.27714 ; perimeter
G1 X94.063 Y100.039 E1.28379 ; perimeter
G1 X105.251 Y93.579 E1.46114 ; perimeter
G1 X105.309 Y93.545 E1.46208 ; perimeter
G1 X106.298 Y93.054 F18000.000 ; move to first perimeter point
G1 X106.622 Y93.770 F3900.000 E1.47286 ; perimeter
G1 X106.948 Y94.607 E1.48519 ; perimeter
G1 X107.226 Y95.461 E1.49752 ; perimeter
G1 X107.457 Y96.328 E1.50984 ; perimeter
G1 X107.638 Y97.208 E1.52217 ; perimeter
G1 X107.770 Y98.096 E1.53450 ; perimeter
G1 X107.833 Y98.692 E1.54273 ; perimeter
G1 X107.884 Y99.865 E1.55884 ; perimeter
G1 X107.864 Y100.786 E1.57148 ; perimeter
G1 X107.795 Y101.681 E1.58381 ; perimeter
G1 X107.676 Y102.571 E1.59614 ; perimeter
G1 X107.507 Y103.453 E1.60846 ; perimeter
G1 X107.289 Y104.324 E1.62079 ; perimeter
G1 X107.022 Y105.181 E1.63312 ; perimeter
G1 X106.749 Y105.918 E1.64391 ; perimeter
G1 X106.366 Y106.819 E1.65735 ; perimeter
G1 X105.940 Y106.645 E1.66367 ; perimeter
G1 X106.219 Y105.902 E1.67457 ; perimeter
G1 X106.430 Y105.272 E1.68370 ; perimeter
G1 X106.641 Y104.526 E1.69434 ; perimeter
G1 X106.792 Y103.879 E1.70346 ; perimeter
G1 X106.914 Y103.226 E1.71259 ; perimeter
G1 X107.021 Y102.458 E1.72323 ; perimeter
G1 X107.081 Y101.796 E1.73235 ; perimeter
G1 X107.118 Y100.994 E1.74338 ; perimeter
G1 X94.188 Y100.994 E1.92088 ; perimeter
G1 X94.063 Y101.461 E1.92753 ; perimeter
G1 X105.654 Y108.154 E2.11127 ; perimeter
G1 X105.399 Y108.569 E2.11796 ; perimeter
G1 X93.819 Y101.883 E2.30152 ; perimeter
G1 X93.477 Y102.226 E2.30817 ; perimeter
G1 X100.117 Y113.727 E2.49048 ; perimeter
G1 X99.695 Y113.970 E2.49717 ; perimeter
G1 X93.055 Y102.469 E2.67948 ; perimeter
G1 X92.116 Y102.721 E2.69281 ; perimeter
G1 X92.116 Y98.779 E2.74692 ; perimeter
G1 X93.055 Y99.031 E2.76025 ; perimeter
G1 X99.637 Y87.630 E2.94098 ; perimeter
G1 X98.748 Y87.146 E2.95488 ; perimeter
G1 X97.856 Y86.731 E2.96839 ; perimeter
G1 X97.031 Y86.407 E2.98055 ; perimeter
G1 X96.089 Y86.103 E2.99414 ; perimeter
G1 X95.129 Y85.860 E3.00773 ; perimeter
G1 X94.156 Y85.680 E3.02132 ; perimeter
G1 X93.282 Y85.574 E3.03340 ; perimeter
G1 X92.116 Y85.489 E3.04945 ; perimeter
G1 X92.116 Y83.991 E3.07002 ; perimeter
G1 X93.221 Y84.048 E3.08519 ; perimeter
G1 X94.335 Y84.182 E3.10060 ; perimeter
G1 X95.437 Y84.393 E3.11601 ; perimeter
G1 X96.522 Y84.681 E3.13142 ; perimeter
G1 X97.584 Y85.044 E3.14683 ; perimeter
G1 X98.618 Y85.481 E3.16223 ; perimeter
G1 X99.520 Y85.935 E3.17610 ; perimeter
G1 X100.487 Y86.505 E3.19151 ; perimeter
G1 X101.411 Y87.142 E3.20692 ; perimeter
G1 X102.203 Y87.769 E3.22078 ; perimeter
G1 X103.035 Y88.523 E3.23619 ; perimeter
G1 X103.812 Y89.333 E3.25160 ; perimeter
G1 X104.530 Y90.195 E3.26701 ; perimeter
G1 X105.186 Y91.106 E3.28242 ; perimeter
G1 X105.776 Y92.061 E3.29782 ; perimeter
G1 X106.268 Y92.993 E3.31230 ; perimeter
G1 X106.298 Y93.054 E3.31323 ; perimeter
G1 F1560.000 E2.31323 ; retract
G92 E0 ; reset extrusion distance
G1 X97.291 Y115.034 F18000.000 ; move to first perimeter point
G1 F1560.000 E1.00000 ; compensate retraction
G1 X98.680 Y114.444 F2340.000 E1.02071 ; perimeter
G1 X99.207 Y114.111 E1.02927 ; perimeter
G1 X99.205 Y114.170 F18000.000 ; move to first perimeter point
G1 X99.309 Y114.219 F1436.477 E1.03085 ; perimeter
G1 X100.529 Y113.556 F11049.819 ; move to first perimeter point
G1 X100.541 Y113.373 F1436.477 E1.03336 ; perimeter
G1 X100.468 Y113.340 F2499.078 ; move to first perimeter point
G1 X101.031 Y113.037 F422.411 E1.04215 ; perimeter
G1 X102.205 Y112.098 F1302.683 E1.06278 ; perimeter
G1 X103.402 Y110.917 F2200.649 E1.08587 ; perimeter
G1 X104.650 Y109.367 F2340.000 E1.11319 ; perimeter
G1 X104.813 Y109.130 E1.11713 ; perimeter
G1 X104.757 Y109.030 E1.11871 ; perimeter
G1 X104.813 Y109.130 F18000.000 ; move to first perimeter point
G1 X104.872 Y109.115 F2340.000 E1.11954 ; perimeter
G1 X105.249 Y108.985 E1.12502 ; perimeter
G1 X105.807 Y107.435 F18000.000 ; move to first perimeter point
G1 X105.917 Y107.952 F435.900 E1.13227 ; perimeter
G1 X105.668 Y107.495 F3353.077 ; move to first perimeter point
G1 X105.848 Y107.365 F435.900 E1.13532 ; perimeter
G1 X105.535 Y107.511 F1040.435 ; move to first perimeter point
G1 X105.668 Y107.495 F135.256 E1.13716 ; perimeter
G1 X105.714 Y107.044 F1040.435 ; move to first perimeter point
G1 X105.848 Y107.365 F240.705 E1.14194 ; perimeter
G1 X106.242 Y107.220 F295.697 E1.14771 ; perimeter
G1 X106.689 Y107.296 F2274.588 ; move inwards before travel
G1 F1560.000 E0.14771 ; retract
G92 E0 ; reset extrusion distance
G1 X92.349 Y106.519 F2274.588 ; move to first perimeter point
G1 F1560.000 E1.00000 ; compensate retraction
G1 X92.353 Y115.772 F2340.000 E1.12702 ; perimeter
G1 X92.861 Y115.976 F2340.000 E1.13453 ; perimeter
G1 X94.199 Y115.831 E1.15301 ; perimeter
G1 X95.846 Y115.488 E1.17610 ; perimeter
G1 X97.291 Y115.034 E1.19690 ; perimeter
G1 X97.734 Y115.133 F18000.000 ; move inwards before travel
G1 F1560.000 E0.19690 ; retract
G92 E0 ; reset extrusion distance
G1 X92.349 Y104.837 F18000.000 ; move to first perimeter point
G1 F1560.000 E1.00000 ; compensate retraction
G1 X92.349 Y106.519 F1261.404 E1.02309 ; perimeter
G1 X92.349 Y104.597 F9703.108 ; move to first perimeter point
G1 X92.349 Y104.837 F1261.404 E1.02639 ; perimeter
G1 X92.349 Y104.597 F1386.162 ; move to first perimeter point
G1 X92.350 Y104.116 F180.201 E1.03298 ; perimeter
G1 X92.350 Y103.411 F180.201 E1.04268 ; perimeter
G1 X92.257 Y103.318 F180.201 E1.04448 ; perimeter
G1 X92.350 Y103.411 F535.171 ; move to first perimeter point
G1 X92.381 Y103.379 F69.572 E1.04509 ; perimeter
G1 X92.598 Y103.062 F185.693 E1.05035 ; perimeter
G1 X93.006 Y102.866 F2041.407 ; move inwards before travel
G1 F1560.000 E0.05035 ; retract
G92 E0 ; reset extrusion distance
G1 X92.381 Y98.121 F2180.744 ; move to first perimeter point
G1 F1560.000 E1.00000 ; compensate retraction
G1 X92.598 Y98.438 F283.497 E1.00526 ; perimeter
G1 X92.350 Y98.089 F1826.544 ; move to first perimeter point
G1 X92.381 Y98.121 F237.451 E1.00588 ; perimeter
G1 X92.257 Y98.182 F371.478 ; move to first perimeter point
G1 X92.350 Y98.089 F69.538 E1.00768 ; perimeter
G1 X92.349 Y96.661 F69.538 E1.02730 ; perimeter
G1 X92.347 Y89.684 F69.538 E1.12307 ; perimeter
G1 X92.352 Y86.225 F69.538 E1.17055 ; perimeter
G1 X92.210 Y86.073 F106.589 E1.17341 ; perimeter
G1 X92.352 Y86.225 F819.912 ; move to first perimeter point
G1 X92.444 Y86.140 F106.589 E1.17514 ; perimeter
G1 X92.445 Y86.138 F106.589 E1.17516 ; perimeter
G1 X92.836 Y85.910 F1352.222 ; move inwards before travel
G1 F1560.000 E0.17516 ; retract
G92 E0 ; reset extrusion distance
G1 X92.186 Y115.938 F18000.000 ; move to first perimeter point
G1 F1560.000 E1.00000 ; compensate retraction
G1 X92.353 Y115.772 F2340.000 E1.00324 ; perimeter
G1 X91.994 Y116.127 F18000.000 ; move to first perimeter point
G1 X92.186 Y115.938 F144.470 E1.00694 ; perimeter
G1 X92.847 Y115.769 F2101.564 ; move inwards before travel
G1 F1560.000 E0.00694 ; retract
G92 E0 ; reset extrusion distance
G1 X105.160 Y92.032 F18000.000 ; move to first fill point
G1 F1560.000 E1.00000 ; compensate retraction
G1 X104.725 Y91.598 F3900.000 E1.01267 ; fill
G1 F1560.000 E0.01267 ; retract
G92 E0 ; reset extrusion distance
G1 X107.236 Y96.990 F18000.000 ; move to first fill point
G1 F1560.000 E1.00000 ; compensate retraction
G1 X106.947 Y96.702 F1752.584 E1.00591 ; fill
G1 X107.025 Y96.103 F1752.584 E1.01465 ; fill
G1 X106.670 Y95.748 F265.773 E1.02191 ; fill
G1 X106.728 Y95.130 F265.773 E1.03090 ; fill
G1 X106.281 Y94.682 F335.777 E1.04007 ; fill
G1 X106.307 Y94.033 F335.777 E1.04948 ; fill
G1 X105.707 Y93.432 F450.540 E1.06178 ; fill
G1 X105.672 Y92.722 F476.300 E1.07208 ; fill
G1 X105.383 Y92.433 F692.965 E1.07800 ; fill
G1 F1560.000 E0.07800 ; retract
G92 E0 ; reset extrusion distance
G1 X107.507 Y101.962 F14294.591 ; move to first fill point
G1 F1560.000 E1.00000 ; compensate retraction
G1 X107.339 Y101.794 F3097.161 E1.00202 ; fill
G1 X107.546 Y101.604 F3097.161 E1.00441 ; fill
G1 X107.362 Y101.420 F155.313 E1.00663 ; fill
G1 X107.577 Y101.239 F161.782 E1.00902 ; fill
G1 X107.377 Y101.038 F161.782 E1.01144 ; fill
G1 X107.601 Y100.865 F167.988 E1.01384 ; fill
G1 X107.390 Y100.654 F167.988 E1.01638 ; fill
G1 X107.615 Y100.482 F168.996 E1.01879 ; fill
G1 X107.375 Y100.242 F180.174 E1.02168 ; fill
G1 X107.620 Y100.090 F184.004 E1.02413 ; fill
G1 X107.357 Y99.827 F197.039 E1.02729 ; fill
G1 X107.615 Y99.688 F197.039 E1.02978 ; fill
G1 X107.328 Y99.401 F214.911 E1.03323 ; fill
G1 X107.599 Y99.275 F214.911 E1.03577 ; fill
G1 X107.286 Y98.962 F234.480 E1.03953 ; fill
G1 X107.571 Y98.850 F234.480 E1.04213 ; fill
G1 X107.230 Y98.508 F256.171 E1.04624 ; fill
G1 X107.530 Y98.412 F256.171 E1.04892 ; fill
G1 X107.157 Y98.038 F280.248 E1.05342 ; fill
G1 X107.475 Y97.959 F280.248 E1.05621 ; fill
G1 X107.065 Y97.549 F307.613 E1.06114 ; fill
G1 X107.236 Y97.323 F307.613 E1.06355 ; fill
G1 X107.404 Y97.491 F307.613 E1.06557 ; fill
G1 F1560.000 E0.06557 ; retract
G92 E0 ; reset extrusion distance
G1 Z0.655 F18000.000 ; move to next layer (1)
G1 X100.053 Y87.884 F18000.000 ; move to first perimeter point
G1 F1560.000 E1.00000 ; compensate retraction
G1 X100.809 Y88.401 F4145.574 E1.01101 ; perimeter
G1 X101.507 Y88.938 E1.02158 ; perimeter
G1 X102.172 Y89.513 E1.03214 ; perimeter
G1 X102.880 Y90.205 E1.04404 ; perimeter
G1 X103.541 Y90.942 E1.05592 ; perimeter
G1 X104.088 Y91.631 E1.06649 ; perimeter
G1 X104.594 Y92.351 E1.07706 ; perimeter
G1 X105.072 Y93.120 E1.08794 ; perimeter
G1 X93.819 Y99.617 E1.24403 ; perimeter
G1 X93.477 Y99.274 E1.24985 ; perimeter
G1 X100.019 Y87.943 E1.40701 ; perimeter
G1 X100.053 Y87.884 E1.40783 ; perimeter
G1 F1560.000 E0.40783 ; retract
G92 E0 ; reset extrusion distance
G1 X105.310 Y93.545 F18000.000 ; move to first perimeter point
G1 F1560.000 E1.00000 ; compensate retraction
G1 X105.716 Y94.368 F4145.574 E1.01103 ; perimeter
G1 X106.064 Y95.183 E1.02167 ; perimeter
G1 X106.363 Y96.017 E1.03231 ; perimeter
G1 X106.614 Y96.867 E1.04295 ; perimeter
G1 X106.817 Y97.746 E1.05379 ; perimeter
G1 X106.980 Y98.713 E1.06557 ; perimeter
G1 X107.073 Y99.594 E1.07621 ; perimeter
G1 X107.118 Y100.506 E1.08719 ; perimeter
G1 X94.188 Y100.506 E1.24250 ; perimeter
G1 X94.063 Y100.039 E1.24832 ; perimeter
G1 X105.251 Y93.579 E1.40350 ; perimeter
G1 X105.310 Y93.545 E1.40432 ; perimeter
G1 X106.298 Y93.054 F18000.000 ; move to first perimeter point
G1 X106.665 Y93.874 F4606.193 E1.41510 ; perimeter
G1 X106.985 Y94.713 E1.42589 ; perimeter
G1 X107.258 Y95.568 E1.43668 ; perimeter
G1 X107.482 Y96.438 E1.44746 ; perimeter
G1 X107.638 Y97.208 E1.45690 ; perimeter
G1 X107.770 Y98.096 E1.46769 ; perimeter
G1 X107.852 Y98.990 E1.47847 ; perimeter
G1 X107.883 Y99.888 E1.48926 ; perimeter
G1 X107.864 Y100.786 E1.50005 ; perimeter
G1 X107.795 Y101.681 E1.51083 ; perimeter
G1 X107.676 Y102.571 E1.52162 ; perimeter
G1 X107.507 Y103.453 E1.53241 ; perimeter
G1 X107.289 Y104.324 E1.54319 ; perimeter
G1 X107.022 Y105.181 E1.55398 ; perimeter
G1 X106.749 Y105.918 E1.56342 ; perimeter
G1 X106.366 Y106.819 E1.57518 ; perimeter
G1 X105.940 Y106.645 E1.58071 ; perimeter
G1 X106.219 Y105.902 E1.59025 ; perimeter
G1 X106.430 Y105.272 E1.59823 ; perimeter
G1 X106.641 Y104.526 E1.60755 ; perimeter
G1 X106.792 Y103.879 E1.61553 ; perimeter
G1 X106.914 Y103.226 E1.62351 ; perimeter
G1 X107.021 Y102.458 E1.63282 ; perimeter
G1 X107.081 Y101.796 E1.64081 ; perimeter
G1 X107.118 Y100.994 E1.65045 ; perimeter
G1 X94.188 Y100.994 E1.80577 ; perimeter
G1 X94.063 Y101.461 E1.81158 ; perimeter
G1 X105.654 Y108.154 E1.97236 ; perimeter
G1 X105.399 Y108.569 E1.97821 ; perimeter
G1 X93.819 Y101.883 E2.13883 ; perimeter
G1 X93.477 Y102.226 E2.14465 ; perimeter
G1 X100.117 Y113.727 E2.30417 ; perimeter
G1 X99.695 Y113.970 E2.31002 ; perimeter
G1 X93.055 Y102.469 E2.46954 ; perimeter
G1 X92.116 Y102.721 E2.48121 ; perimeter
G1 X92.116 Y98.779 E2.52855 ; perimeter
G1 X93.055 Y99.031 E2.54022 ; perimeter
G1 X99.637 Y87.630 E2.69836 ; perimeter
G1 X98.748 Y87.146 E2.71052 ; perimeter
G1 X97.865 Y86.735 E2.72221 ; perimeter
G1 X97.031 Y86.407 E2.73298 ; perimeter
G1 X96.089 Y86.103 E2.74487 ; perimeter
G1 X95.129 Y85.860 E2.75676 ; perimeter
G1 X94.156 Y85.680 E2.76865 ; perimeter
G1 X93.283 Y85.574 E2.77922 ; perimeter
G1 X92.116 Y85.489 E2.79327 ; perimeter
G1 X92.116 Y83.991 E2.81126 ; perimeter
G1 X93.221 Y84.048 E2.82454 ; perimeter
G1 X94.335 Y84.182 E2.83802 ; perimeter
G1 X95.437 Y84.393 E2.85151 ; perimeter
G1 X96.522 Y84.681 E2.86499 ; perimeter
G1 X97.584 Y85.044 E2.87847 ; perimeter
G1 X98.618 Y85.481 E2.89195 ; perimeter
G1 X99.619 Y85.989 E2.90543 ; perimeter
G1 X100.487 Y86.505 E2.91757 ; perimeter
G1 X101.411 Y87.142 E2.93105 ; perimeter
G1 X102.203 Y87.769 E2.94318 ; perimeter
G1 X103.035 Y88.523 E2.95667 ; perimeter
G1 X103.812 Y89.333 E2.97015 ; perimeter
G1 X104.530 Y90.195 E2.98363 ; perimeter
G1 X105.186 Y91.106 E2.99711 ; perimeter
G1 X105.776 Y92.061 E3.01059 ; perimeter
G1 X106.268 Y92.993 E3.02326 ; perimeter
G1 X106.298 Y93.054 E3.02408 ; perimeter
G1 F1560.000 E2.02408 ; retract
G92 E0 ; reset extrusion distance
G1 X97.523 Y114.945 F18000.000 ; move to first perimeter point
G1 F1560.000 E1.00000 ; compensate retraction
G1 X99.204 Y114.122 F3000.000 E1.02249 ; perimeter
G1 X99.203 Y114.170 F18000.000 ; move to first perimeter point
G1 X99.320 Y114.222 F3000.000 E1.02402 ; perimeter
G1 X100.527 Y113.558 F9699.721 ; move to first perimeter point
