; generated by Slic3r 0.9.6-dev on 2012-11-19 at 22:19:33

; This config has a workaround for the extrusion retraction compensation bug for the first layer... be sure to comment out those 3 lines IF the bug has been fixed.

; layer_height = .1
; perimeters = 1
; top_solid_layers = 0
; bottom_solid_layers = 0
; fill_density = 0
; perimeter_speed = 100
; infill_speed = 100
; travel_speed = 100
; scale = 1
; nozzle_diameter = .345
; filament_diameter = 3
; extrusion_multiplier = 1
; perimeters extrusion width = 0.48mm
; infill extrusion width = 0.48mm
; first layer extrusion width = 0.48mm

G92 E0
G1 E100
G1 E0
G90 ; use absolute coordinates
G21 ; set units to millimeters
G92 E0 ; reset extrusion distance
M82 ; use absolute distances for extrusion
G1 Z0.100 F6000.000 ; move to next layer (0)
G1 X100.053 Y87.884 ; move to first perimeter point
G1 X100.809 Y88.401 F6000.000 E0.00598 ; perimeter
G1 X101.507 Y88.938 E0.01173 ; perimeter
G1 X102.175 Y89.515 E0.01750 ; perimeter
G1 X102.880 Y90.205 E0.02394 ; perimeter
G1 X103.541 Y90.942 E0.03040 ; perimeter
G1 X104.088 Y91.631 E0.03614 ; perimeter
G1 X104.594 Y92.351 E0.04189 ; perimeter
G1 X105.072 Y93.120 E0.04780 ; perimeter
G1 X93.819 Y99.617 E0.13265 ; perimeter
G1 X93.477 Y99.274 E0.13581 ; perimeter
G1 X100.018 Y87.944 E0.22123 ; perimeter
G1 X100.053 Y87.884 E0.22169 ; perimeter
G1 X105.309 Y93.545 F6000.000 ; move to first perimeter point
G1 X105.716 Y94.368 F6000.000 E0.22768 ; perimeter
G1 X106.064 Y95.183 E0.23346 ; perimeter
G1 X106.363 Y96.017 E0.23925 ; perimeter
G1 X106.614 Y96.867 E0.24503 ; perimeter
G1 X106.815 Y97.733 E0.25084 ; perimeter
G1 X106.980 Y98.713 E0.25733 ; perimeter
G1 X107.073 Y99.594 E0.26311 ; perimeter
G1 X107.118 Y100.506 E0.26908 ; perimeter
G1 X94.188 Y100.506 E0.35350 ; perimeter
G1 X94.063 Y100.039 E0.35666 ; perimeter
G1 X105.250 Y93.580 E0.44101 ; perimeter
G1 X105.309 Y93.545 E0.44146 ; perimeter
G1 X106.298 Y93.054 F6000.000 ; move to first perimeter point
G1 X106.665 Y93.874 F6000.000 E0.44732 ; perimeter
G1 X106.985 Y94.713 E0.45319 ; perimeter
G1 X107.258 Y95.568 E0.45905 ; perimeter
G1 X107.482 Y96.438 E0.46491 ; perimeter
G1 X107.638 Y97.208 E0.47004 ; perimeter
G1 X107.770 Y98.096 E0.47591 ; perimeter
G1 X107.852 Y98.990 E0.48177 ; perimeter
G1 X107.883 Y99.888 E0.48763 ; perimeter
G1 X107.864 Y100.785 E0.49350 ; perimeter
G1 X107.795 Y101.681 E0.49936 ; perimeter
G1 X107.676 Y102.571 E0.50522 ; perimeter
G1 X107.507 Y103.453 E0.51109 ; perimeter
G1 X107.289 Y104.324 E0.51695 ; perimeter
G1 X107.022 Y105.181 E0.52281 ; perimeter
G1 X106.749 Y105.918 E0.52794 ; perimeter
G1 X106.366 Y106.819 E0.53434 ; perimeter
G1 X105.940 Y106.645 E0.53734 ; perimeter
G1 X106.219 Y105.902 E0.54253 ; perimeter
G1 X106.430 Y105.272 E0.54687 ; perimeter
G1 X106.641 Y104.526 E0.55193 ; perimeter
G1 X106.792 Y103.879 E0.55627 ; perimeter
G1 X106.914 Y103.225 E0.56061 ; perimeter
G1 X107.021 Y102.458 E0.56567 ; perimeter
G1 X107.081 Y101.796 E0.57001 ; perimeter
G1 X107.118 Y100.994 E0.57525 ; perimeter
G1 X94.188 Y100.994 E0.65968 ; perimeter
G1 X94.063 Y101.461 E0.66284 ; perimeter
G1 X105.654 Y108.154 E0.75023 ; perimeter
G1 X105.399 Y108.569 E0.75341 ; perimeter
G1 X93.819 Y101.883 E0.84072 ; perimeter
G1 X93.477 Y102.226 E0.84388 ; perimeter
G1 X100.117 Y113.727 E0.93060 ; perimeter
G1 X99.695 Y113.970 E0.93378 ; perimeter
G1 X93.055 Y102.469 E1.02049 ; perimeter
G1 X92.116 Y102.721 E1.02683 ; perimeter
G1 X92.116 Y98.779 E1.05256 ; perimeter
G1 X93.055 Y99.031 E1.05891 ; perimeter
G1 X99.637 Y87.630 E1.14487 ; perimeter
G1 X98.748 Y87.146 E1.15148 ; perimeter
G1 X97.853 Y86.730 E1.15792 ; perimeter
G1 X97.031 Y86.407 E1.16369 ; perimeter
G1 X96.089 Y86.103 E1.17015 ; perimeter
G1 X95.129 Y85.860 E1.17661 ; perimeter
G1 X94.156 Y85.680 E1.18308 ; perimeter
G1 X93.283 Y85.574 E1.18882 ; perimeter
G1 X92.116 Y85.489 E1.19646 ; perimeter
G1 X92.116 Y83.991 E1.20624 ; perimeter
G1 X93.220 Y84.048 E1.21346 ; perimeter
G1 X94.335 Y84.182 E1.22078 ; perimeter
G1 X95.437 Y84.393 E1.22811 ; perimeter
G1 X96.522 Y84.681 E1.23544 ; perimeter
G1 X97.584 Y85.044 E1.24277 ; perimeter
G1 X98.616 Y85.480 E1.25009 ; perimeter
G1 X99.520 Y85.935 E1.25669 ; perimeter
G1 X100.487 Y86.505 E1.26402 ; perimeter
G1 X101.411 Y87.142 E1.27135 ; perimeter
G1 X102.203 Y87.769 E1.27795 ; perimeter
G1 X103.035 Y88.523 E1.28528 ; perimeter
G1 X103.812 Y89.333 E1.29260 ; perimeter
G1 X104.530 Y90.195 E1.29993 ; perimeter
G1 X105.186 Y91.106 E1.30726 ; perimeter
G1 X105.776 Y92.061 E1.31459 ; perimeter
G1 X106.268 Y92.992 E1.32147 ; perimeter
G1 X106.298 Y93.054 E1.32192 ; perimeter
G1 X97.289 Y115.034 F6000.000 ; move to first perimeter point
G1 X98.677 Y114.445 F6000.000 E1.33177 ; perimeter
G1 X99.207 Y114.108 E1.33587 ; perimeter
G1 X99.669 Y114.088 F6000.000 ; move inwards before travel
G1 X99.205 Y114.170 ; move to first perimeter point
G1 X99.306 Y114.218 F3569.905 E1.33660 ; perimeter
G1 X99.568 Y114.599 F3569.905 ; move inwards before travel
G1 X100.528 Y113.557 F3569.905 ; move to first perimeter point
G1 X100.541 Y113.373 F3569.905 E1.33781 ; perimeter
G1 X100.799 Y112.990 F3569.905 ; move inwards before travel
G1 X100.471 Y113.341 F1846.801 ; move to first perimeter point
G1 X101.030 Y113.039 F1846.801 E1.34195 ; perimeter
G1 X101.491 Y113.052 F837.348 ; move inwards before travel
G1 X101.030 Y113.039 F837.348 ; move to first perimeter point
G1 X102.203 Y112.100 F1760.899 E1.35177 ; perimeter
G1 X103.404 Y110.915 F3561.669 E1.36278 ; perimeter
G1 X103.851 Y110.798 F4231.519 ; move inwards before travel
G1 X103.404 Y110.915 F4231.519 ; move to first perimeter point
G1 X104.649 Y109.369 F4231.519 E1.37574 ; perimeter
G1 X104.814 Y109.129 F4231.519 E1.37765 ; perimeter
G1 X104.758 Y109.027 F2115.747 E1.37841 ; perimeter
G1 X104.766 Y108.565 F2115.747 ; move inwards before travel
G1 X104.814 Y109.129 F2115.747 ; move to first perimeter point
G1 X104.867 Y109.115 F2115.747 E1.37876 ; perimeter
G1 X105.312 Y109.237 F845.139 ; move inwards before travel
G1 X104.867 Y109.115 F667.557 ; move to first perimeter point
G1 X105.247 Y108.986 F752.985 E1.38138 ; perimeter
G1 X105.699 Y109.076 F752.985 ; move inwards before travel
G1 X105.807 Y107.435 F752.985 ; move to first perimeter point
G1 X105.916 Y107.953 F777.272 E1.38484 ; perimeter
G1 X105.773 Y108.391 F1435.334 ; move inwards before travel
G1 X105.668 Y107.495 F1435.334 ; move to first perimeter point
G1 X105.848 Y107.365 F1435.334 E1.38629 ; perimeter
G1 X106.307 Y107.318 F1435.334 ; move inwards before travel
G1 X105.537 Y107.510 F959.121 ; move to first perimeter point
G1 X105.668 Y107.495 F959.121 E1.38715 ; perimeter
G1 X106.092 Y107.677 F636.285 ; move inwards before travel
G1 X105.713 Y107.041 F636.285 ; move to first perimeter point
G1 X105.848 Y107.365 F636.285 E1.38944 ; perimeter
G1 X106.240 Y107.221 F588.162 E1.39217 ; perimeter
G1 X106.695 Y107.300 F682.155 ; move inwards before travel
G1 X92.349 Y106.519 F1170.634 ; move to first perimeter point
G1 X92.353 Y115.771 F6000.000 E1.45258 ; perimeter
G1 X92.858 Y115.976 F6000.000 E1.45614 ; perimeter
G1 X94.197 Y115.832 E1.46493 ; perimeter
G1 X95.843 Y115.489 E1.47591 ; perimeter
G1 X97.289 Y115.034 E1.48580 ; perimeter
G1 X97.739 Y115.134 F6000.000 ; move inwards before travel
G1 X92.349 Y104.837 ; move to first perimeter point
G1 X92.349 Y106.519 F6000.000 E1.49678 ; perimeter
G1 X92.118 Y106.919 F6000.000 ; move inwards before travel
G1 X92.349 Y104.597 ; move to first perimeter point
G1 X92.349 Y104.837 F3122.274 E1.49835 ; perimeter
G1 X92.118 Y105.237 F3122.274 ; move inwards before travel
G1 X92.349 Y104.597 F959.863 ; move to first perimeter point
G1 X92.350 Y104.116 F959.863 E1.50149 ; perimeter
G1 X92.580 Y103.717 F959.863 ; move inwards before travel
G1 X92.350 Y104.116 F959.863 ; move to first perimeter point
G1 X92.350 Y103.411 F692.948 E1.50610 ; perimeter
G1 X92.257 Y103.318 F599.461 E1.50696 ; perimeter
G1 X92.138 Y102.872 F599.461 ; move inwards before travel
G1 X92.350 Y103.411 F808.186 ; move to first perimeter point
G1 X92.381 Y103.379 F808.186 E1.50725 ; perimeter
G1 X92.826 Y103.257 F808.186 ; move inwards before travel
G1 X92.381 Y103.379 F808.186 ; move to first perimeter point
G1 X92.598 Y103.062 F714.648 E1.50975 ; perimeter
G1 X93.014 Y102.862 F948.442 ; move inwards before travel
G1 X92.381 Y98.121 F948.445 ; move to first perimeter point
G1 X92.598 Y98.438 F948.445 E1.51225 ; perimeter
G1 X92.633 Y98.898 F1165.228 ; move inwards before travel
G1 X92.350 Y98.089 F1165.228 ; move to first perimeter point
G1 X92.381 Y98.121 F1165.228 E1.51255 ; perimeter
G1 X92.498 Y98.568 F1165.228 ; move inwards before travel
G1 X92.257 Y98.182 F717.333 ; move to first perimeter point
G1 X92.350 Y98.089 F717.333 E1.51340 ; perimeter
G1 X92.349 Y96.661 F361.490 E1.52273 ; perimeter
G1 X92.580 Y96.261 F345.797 ; move inwards before travel
G1 X92.349 Y96.661 F599.764 ; move to first perimeter point
G1 X92.347 Y89.684 F603.309 E1.56828 ; perimeter
G1 X92.577 Y89.285 F603.309 ; move inwards before travel
G1 X92.347 Y89.684 F599.764 ; move to first perimeter point
G1 X92.352 Y86.225 F599.675 E1.59087 ; perimeter
G1 X92.210 Y86.073 F599.675 E1.59223 ; perimeter
G1 X92.107 Y85.623 F599.675 ; move inwards before travel
G1 X92.352 Y86.225 F903.967 ; move to first perimeter point
G1 X92.444 Y86.140 F903.967 E1.59305 ; perimeter
G1 X92.894 Y86.036 F903.967 ; move inwards before travel
G1 X92.444 Y86.140 F903.967 ; move to first perimeter point
G1 X92.445 Y86.138 F812.789 E1.59306 ; perimeter
G1 X92.843 Y85.905 F812.789 ; move inwards before travel
G1 X92.184 Y115.942 F6000.000 ; move to first perimeter point
G1 X92.353 Y115.771 F6000.000 E1.59463 ; perimeter
G1 X92.798 Y115.650 F6000.000 ; move inwards before travel
G1 X91.991 Y116.129 ; move to first perimeter point
G1 X92.184 Y115.942 F922.128 E1.59639 ; perimeter
G1 X92.866 Y115.772 F1312.163 ; move inwards before travel
G1 X105.053 Y91.867 ; move to first fill point
G1 X104.605 Y91.419 F6000.000 E1.60268 ; fill
G1 X107.198 Y96.824 F6000.000 ; move to first fill point
G1 X106.905 Y96.530 F6000.000 E1.60544 ; fill
G1 X106.978 Y95.940 E1.60938 ; fill
G1 X106.617 Y95.579 F541.239 E1.61276 ; fill
G1 X106.670 Y94.969 F541.239 E1.61682 ; fill
G1 X106.213 Y94.513 F684.747 E1.62110 ; fill
G1 X106.234 Y93.870 F684.747 E1.62537 ; fill
G1 X105.621 Y93.257 F919.789 E1.63112 ; fill
G1 X105.571 Y92.545 F993.914 E1.63585 ; fill
G1 X105.277 Y92.251 F1435.026 E1.63861 ; fill
G1 X107.523 Y101.789 F6000.000 ; move to first fill point
G1 X107.355 Y101.621 F6000.000 E1.63954 ; fill
G1 X107.558 Y101.432 F6000.000 E1.64063 ; fill
G1 X107.373 Y101.247 F304.592 E1.64166 ; fill
G1 X107.585 Y101.067 F317.955 E1.64275 ; fill
G1 X107.387 Y100.869 F317.955 E1.64385 ; fill
G1 X107.604 Y100.693 F325.914 E1.64495 ; fill
G1 X107.387 Y100.477 F325.914 E1.64615 ; fill
G1 X107.615 Y100.312 F341.607 E1.64726 ; fill
G1 X107.373 Y100.069 F363.743 E1.64860 ; fill
G1 X107.615 Y99.919 F363.775 E1.64972 ; fill
G1 X107.351 Y99.655 F395.880 E1.65119 ; fill
G1 X107.606 Y99.517 F395.880 E1.65233 ; fill
G1 X107.318 Y99.229 F432.048 E1.65392 ; fill
G1 X107.585 Y99.105 F432.048 E1.65508 ; fill
G1 X107.271 Y98.790 F471.930 E1.65683 ; fill
G1 X107.553 Y98.680 F471.930 E1.65802 ; fill
G1 X107.209 Y98.336 F515.947 E1.65993 ; fill
G1 X107.507 Y98.242 F515.947 E1.66116 ; fill
G1 X107.130 Y97.865 F565.480 E1.66325 ; fill
G1 X107.447 Y97.789 F565.480 E1.66453 ; fill
G1 X107.033 Y97.374 F621.483 E1.66683 ; fill
G1 X107.202 Y97.151 F621.483 E1.66793 ; fill
G1 X107.370 Y97.319 F621.483 E1.66886 ; fill
G1 Z0.200 F6000.000 ; move to next layer (1)
G1 X100.053 Y87.884 F6000.000 ; move to first perimeter point
G1 X100.809 Y88.401 F6000.000 E1.67485 ; perimeter
G1 X101.507 Y88.938 E1.68059 ; perimeter
G1 X102.172 Y89.513 E1.68634 ; perimeter
G1 X102.880 Y90.205 E1.69280 ; perimeter
G1 X103.541 Y90.942 E1.69926 ; perimeter
G1 X104.088 Y91.631 E1.70501 ; perimeter
G1 X104.594 Y92.351 E1.71075 ; perimeter
G1 X105.072 Y93.120 E1.71667 ; perimeter
G1 X93.819 Y99.617 E1.80151 ; perimeter
G1 X93.477 Y99.274 E1.80467 ; perimeter
G1 X100.018 Y87.944 E1.89010 ; perimeter
G1 X100.053 Y87.884 E1.89055 ; perimeter
G1 X105.310 Y93.545 F6000.000 ; move to first perimeter point
G1 X105.716 Y94.368 F6000.000 E1.89654 ; perimeter
G1 X106.064 Y95.183 E1.90233 ; perimeter
G1 X106.363 Y96.017 E1.90811 ; perimeter
G1 X106.614 Y96.867 E1.91390 ; perimeter
G1 X106.814 Y97.730 E1.91968 ; perimeter
G1 X106.980 Y98.713 E1.92619 ; perimeter
G1 X107.073 Y99.594 E1.93197 ; perimeter
G1 X107.118 Y100.506 E1.93794 ; perimeter
G1 X94.188 Y100.506 E2.02236 ; perimeter
G1 X94.063 Y100.039 E2.02553 ; perimeter
G1 X105.250 Y93.580 E2.10987 ; perimeter
G1 X105.310 Y93.545 E2.11032 ; perimeter
G1 X106.298 Y93.054 F6000.000 ; move to first perimeter point
G1 X106.665 Y93.874 F6000.000 E2.11619 ; perimeter
G1 X106.985 Y94.713 E2.12205 ; perimeter
G1 X107.258 Y95.568 E2.12791 ; perimeter
G1 X107.482 Y96.438 E2.13378 ; perimeter
G1 X107.638 Y97.208 E2.13891 ; perimeter
G1 X107.770 Y98.096 E2.14477 ; perimeter
G1 X107.852 Y98.990 E2.15063 ; perimeter
G1 X107.883 Y99.888 E2.15650 ; perimeter
G1 X107.867 Y100.787 E2.16237 ; perimeter
G1 X107.795 Y101.681 E2.16822 ; perimeter
G1 X107.676 Y102.571 E2.17409 ; perimeter
G1 X107.507 Y103.453 E2.17995 ; perimeter
G1 X107.289 Y104.324 E2.18581 ; perimeter
G1 X107.022 Y105.181 E2.19168 ; perimeter
G1 X106.749 Y105.918 E2.19681 ; perimeter
G1 X106.366 Y106.819 E2.20320 ; perimeter
G1 X105.940 Y106.645 E2.20621 ; perimeter
G1 X106.219 Y105.902 E2.21139 ; perimeter
G1 X106.430 Y105.272 E2.21573 ; perimeter
G1 X106.641 Y104.526 E2.22079 ; perimeter
G1 X106.792 Y103.879 E2.22513 ; perimeter
G1 X106.914 Y103.226 E2.22947 ; perimeter
G1 X107.021 Y102.458 E2.23453 ; perimeter
G1 X107.081 Y101.796 E2.23887 ; perimeter
G1 X107.118 Y100.994 E2.24412 ; perimeter
G1 X94.188 Y100.994 E2.32854 ; perimeter
G1 X94.063 Y101.461 E2.33170 ; perimeter
G1 X105.654 Y108.154 E2.41910 ; perimeter
G1 X105.399 Y108.569 E2.42228 ; perimeter
G1 X93.819 Y101.883 E2.50958 ; perimeter
G1 X93.477 Y102.226 E2.51275 ; perimeter
G1 X100.117 Y113.727 E2.59946 ; perimeter
G1 X99.695 Y113.970 E2.60264 ; perimeter
G1 X93.055 Y102.469 E2.68935 ; perimeter
G1 X92.116 Y102.721 E2.69569 ; perimeter
G1 X92.116 Y98.779 E2.72143 ; perimeter
G1 X93.055 Y99.031 E2.72777 ; perimeter
G1 X99.637 Y87.630 E2.81373 ; perimeter
G1 X98.748 Y87.146 E2.82034 ; perimeter
G1 X97.858 Y86.732 E2.82675 ; perimeter
G1 X97.031 Y86.407 E2.83255 ; perimeter
G1 X96.089 Y86.103 E2.83901 ; perimeter
G1 X95.129 Y85.860 E2.84548 ; perimeter
G1 X94.156 Y85.680 E2.85194 ; perimeter
G1 X93.283 Y85.574 E2.85769 ; perimeter
G1 X92.116 Y85.489 E2.86532 ; perimeter
G1 X92.116 Y83.991 E2.87510 ; perimeter
G1 X93.221 Y84.048 E2.88232 ; perimeter
G1 X94.335 Y84.182 E2.88965 ; perimeter
G1 X95.437 Y84.393 E2.89698 ; perimeter
G1 X96.522 Y84.681 E2.90431 ; perimeter
G1 X97.584 Y85.044 E2.91163 ; perimeter
G1 X98.618 Y85.481 E2.91896 ; perimeter
G1 X99.520 Y85.935 E2.92556 ; perimeter
G1 X100.487 Y86.505 E2.93289 ; perimeter
G1 X101.411 Y87.142 E2.94022 ; perimeter
G1 X102.203 Y87.769 E2.94681 ; perimeter
G1 X103.035 Y88.523 E2.95414 ; perimeter
G1 X103.812 Y89.333 E2.96147 ; perimeter
G1 X104.530 Y90.195 E2.96880 ; perimeter
G1 X105.186 Y91.106 E2.97612 ; perimeter
G1 X105.776 Y92.061 E2.98345 ; perimeter
G1 X106.268 Y92.992 E2.99033 ; perimeter
G1 X106.298 Y93.054 E2.99078 ; perimeter
G1 X97.294 Y115.033 F6000.000 ; move to first perimeter point
G1 X98.534 Y114.515 F6000.000 E2.99956 ; perimeter
G1 X99.206 Y114.114 E3.00467 ; perimeter
