; generated by Slic3r 0.9.8-dev on 2012-12-19 at 07:56:49

; This config has a workaround for the extrusion retraction compensation bug for the first layer... be sure to comment out those 3 lines IF the bug has been fixed.

; layer_height = .1
; perimeters = 1
; top_solid_layers = 0
; bottom_solid_layers = 0
; fill_density = 0
; perimeter_speed = 100
; infill_speed = 100
; travel_speed = 100
; scale = 1
; nozzle_diameter = .345
; filament_diameter = 3
; extrusion_multiplier = 1
; perimeters extrusion width = 0.48mm
; infill extrusion width = 0.48mm
; first layer extrusion width = 0.48mm

G92 E0
G1 E100
G1 E0
G90 ; use absolute coordinates
G21 ; set units to millimeters
G92 E0 ; reset extrusion distance
M82 ; use absolute distances for extrusion
G1 Z0.100 F6000.000 ; move to next layer (0)
G1 X124.259 Y117.259 ; move to first perimeter point
G1 X122.710 Y117.259 F6000.000 E0.01011 ; perimeter
G1 X122.588 Y117.018 E0.01187 ; perimeter
G1 X122.407 Y116.837 E0.01354 ; perimeter
G1 X122.178 Y116.721 E0.01522 ; perimeter
G1 X121.944 Y116.684 E0.01677 ; perimeter
G1 X117.056 Y116.684 E0.04868 ; perimeter
G1 X116.822 Y116.721 E0.05023 ; perimeter
G1 X116.593 Y116.837 E0.05190 ; perimeter
G1 X116.412 Y117.018 E0.05358 ; perimeter
G1 X116.290 Y117.259 E0.05534 ; perimeter
G1 X114.741 Y117.259 E0.06545 ; perimeter
G4 P14
G1 X114.741 Y114.741 E0.08188 ; perimeter
G1 X116.290 Y114.741 E0.09199 ; perimeter
G1 X116.412 Y114.982 E0.09375 ; perimeter
G1 X116.593 Y115.163 E0.09542 ; perimeter
G1 X116.822 Y115.279 E0.09710 ; perimeter
G1 X117.056 Y115.316 E0.09865 ; perimeter
G1 X121.944 Y115.316 E0.13056 ; perimeter
G1 X122.178 Y115.279 E0.13211 ; perimeter
G1 X122.407 Y115.163 E0.13379 ; perimeter
G1 X122.588 Y114.982 E0.13546 ; perimeter
G1 X122.710 Y114.741 E0.13722 ; perimeter
G1 X124.259 Y114.741 E0.14733 ; perimeter
G4 P14
G1 X124.259 Y117.189 E0.16331 ; perimeter
G1 X124.259 Y117.259 E0.16376 ; perimeter
G4 P14
G1 X124.259 Y113.259 F6000.000 ; move to first perimeter point
G1 X122.721 Y113.259 F6000.000 E0.17380 ; perimeter
G1 X122.569 Y112.960 E0.17599 ; perimeter
G1 X122.365 Y112.756 E0.17787 ; perimeter
G1 X122.109 Y112.625 E0.17975 ; perimeter
G1 X121.844 Y112.584 E0.18150 ; perimeter
G1 X117.156 Y112.584 E0.21211 ; perimeter
G1 X116.891 Y112.625 E0.21386 ; perimeter
G1 X116.635 Y112.756 E0.21574 ; perimeter
G1 X116.431 Y112.960 E0.21762 ; perimeter
G1 X116.279 Y113.259 E0.21981 ; perimeter
G1 X114.741 Y113.259 E0.22985 ; perimeter
G4 P12
G1 X114.741 Y110.741 E0.24628 ; perimeter
G1 X116.279 Y110.741 E0.25632 ; perimeter
G1 X116.431 Y111.040 E0.25851 ; perimeter
G1 X116.635 Y111.244 E0.26039 ; perimeter
G1 X116.891 Y111.375 E0.26227 ; perimeter
G1 X117.156 Y111.416 E0.26402 ; perimeter
G1 X121.844 Y111.416 E0.29463 ; perimeter
G1 X122.109 Y111.375 E0.29638 ; perimeter
G1 X122.365 Y111.244 E0.29826 ; perimeter
G1 X122.569 Y111.040 E0.30014 ; perimeter
G1 X122.721 Y110.741 E0.30233 ; perimeter
G1 X124.259 Y110.741 E0.31237 ; perimeter
G4 P12
G1 X124.259 Y113.189 E0.32835 ; perimeter
G1 X124.259 Y113.259 E0.32880 ; perimeter
G4 P14
G1 X124.259 Y109.259 F6000.000 ; move to first perimeter point
G1 X122.732 Y109.259 F6000.000 E0.33877 ; perimeter
G1 X122.550 Y108.901 E0.34139 ; perimeter
G1 X122.324 Y108.675 E0.34348 ; perimeter
G1 X122.040 Y108.530 E0.34556 ; perimeter
G1 X121.744 Y108.483 E0.34752 ; perimeter
G1 X117.256 Y108.483 E0.37682 ; perimeter
G1 X116.960 Y108.530 E0.37878 ; perimeter
G1 X116.676 Y108.675 E0.38086 ; perimeter
G1 X116.450 Y108.901 E0.38294 ; perimeter
G1 X116.268 Y109.259 E0.38556 ; perimeter
G1 X114.741 Y109.259 E0.39553 ; perimeter
G4 P11
G1 X114.741 Y106.741 E0.41197 ; perimeter
G1 X116.268 Y106.741 E0.42193 ; perimeter
G1 X116.450 Y107.099 E0.42455 ; perimeter
G1 X116.676 Y107.325 E0.42664 ; perimeter
G1 X116.960 Y107.470 E0.42872 ; perimeter
G1 X117.256 Y107.516 E0.43068 ; perimeter
G1 X121.744 Y107.516 E0.45998 ; perimeter
G1 X122.040 Y107.470 E0.46194 ; perimeter
G1 X122.324 Y107.325 E0.46402 ; perimeter
G1 X122.550 Y107.099 E0.46610 ; perimeter
G1 X122.732 Y106.741 E0.46872 ; perimeter
G1 X124.259 Y106.741 E0.47869 ; perimeter
G4 P11
G1 X124.259 Y109.189 E0.49467 ; perimeter
G1 X124.259 Y109.259 E0.49513 ; perimeter
G4 P14
G1 X124.259 Y105.259 F6000.000 ; move to first perimeter point
G1 X122.725 Y105.259 F6000.000 E0.50514 ; perimeter
G1 X122.594 Y104.941 E0.50738 ; perimeter
G1 X122.416 Y104.709 E0.50929 ; perimeter
G1 X122.184 Y104.531 E0.51120 ; perimeter
G1 X121.915 Y104.420 E0.51310 ; perimeter
G1 X121.641 Y104.384 E0.51490 ; perimeter
G1 X117.359 Y104.384 E0.54286 ; perimeter
G1 X117.085 Y104.420 E0.54466 ; perimeter
G1 X116.816 Y104.531 E0.54657 ; perimeter
G1 X116.584 Y104.709 E0.54848 ; perimeter
G1 X116.406 Y104.941 E0.55038 ; perimeter
G1 X116.275 Y105.259 E0.55263 ; perimeter
G1 X114.741 Y105.259 E0.56264 ; perimeter
G4 P9
G1 X114.741 Y102.741 E0.57908 ; perimeter
G1 X116.275 Y102.741 E0.58909 ; perimeter
G1 X116.406 Y103.059 E0.59133 ; perimeter
G1 X116.584 Y103.291 E0.59324 ; perimeter
G1 X116.816 Y103.469 E0.59515 ; perimeter
G1 X117.085 Y103.580 E0.59705 ; perimeter
G1 X117.359 Y103.616 E0.59885 ; perimeter
G1 X121.641 Y103.616 E0.62681 ; perimeter
G1 X121.915 Y103.580 E0.62861 ; perimeter
G1 X122.184 Y103.469 E0.63052 ; perimeter
G1 X122.416 Y103.291 E0.63243 ; perimeter
G1 X122.594 Y103.059 E0.63433 ; perimeter
G1 X122.725 Y102.741 E0.63658 ; perimeter
G1 X124.259 Y102.741 E0.64659 ; perimeter
G4 P9
G1 X124.259 Y105.189 E0.66257 ; perimeter
G1 X124.259 Y105.259 E0.66302 ; perimeter
G4 P14
G1 X124.259 Y101.259 F6000.000 ; move to first perimeter point
G1 X122.733 Y101.259 F6000.000 E0.67299 ; perimeter
G1 X122.580 Y100.891 E0.67559 ; perimeter
G1 X122.387 Y100.638 E0.67766 ; perimeter
G1 X122.134 Y100.445 E0.67974 ; perimeter
G1 X121.840 Y100.323 E0.68182 ; perimeter
G1 X121.541 Y100.284 E0.68379 ; perimeter
G1 X117.459 Y100.284 E0.71044 ; perimeter
G1 X117.160 Y100.323 E0.71241 ; perimeter
G1 X116.866 Y100.445 E0.71449 ; perimeter
G1 X116.613 Y100.638 E0.71657 ; perimeter
G1 X116.420 Y100.891 E0.71865 ; perimeter
G1 X116.267 Y101.259 E0.72125 ; perimeter
G1 X114.741 Y101.259 E0.73121 ; perimeter
G4 P8
G1 X114.741 Y98.741 E0.74764 ; perimeter
G1 X116.267 Y98.741 E0.75761 ; perimeter
G1 X116.420 Y99.109 E0.76021 ; perimeter
G1 X116.613 Y99.362 E0.76228 ; perimeter
G1 X116.866 Y99.555 E0.76436 ; perimeter
G1 X117.160 Y99.677 E0.76644 ; perimeter
G1 X117.459 Y99.716 E0.76841 ; perimeter
G1 X121.541 Y99.716 E0.79506 ; perimeter
G1 X121.840 Y99.677 E0.79703 ; perimeter
G1 X122.134 Y99.555 E0.79911 ; perimeter
G1 X122.387 Y99.362 E0.80119 ; perimeter
G1 X122.580 Y99.109 E0.80326 ; perimeter
G1 X122.733 Y98.741 E0.80586 ; perimeter
G1 X124.259 Y98.741 E0.81583 ; perimeter
G4 P8
G1 X124.259 Y101.189 E0.83181 ; perimeter
G1 X124.259 Y101.259 E0.83226 ; perimeter
G4 P14
G1 X117.780 Y96.000 F6000.000 ; move to first perimeter point
G1 X116.916 Y96.358 F6000.000 E0.83837 ; perimeter
G1 X116.643 Y96.568 E0.84062 ; perimeter
G1 X116.433 Y96.841 E0.84287 ; perimeter
G1 X116.260 Y97.258 E0.84582 ; perimeter
G1 X114.741 Y97.258 E0.85573 ; perimeter
G4 P4
G1 X114.741 Y94.741 E0.87217 ; perimeter
G1 X116.260 Y94.741 E0.88208 ; perimeter
G1 X116.433 Y95.159 E0.88504 ; perimeter
G1 X116.643 Y95.432 E0.88728 ; perimeter
G1 X116.916 Y95.642 E0.88953 ; perimeter
G1 X117.716 Y95.974 E0.89519 ; perimeter
G1 X117.780 Y96.000 E0.89564 ; perimeter
G4 P19
G1 X116.267 Y93.258 F6000.000 ; move to first perimeter point
G1 X114.741 Y93.258 F6000.000 E0.90560 ; perimeter
G1 X114.741 Y90.741 E0.92203 ; perimeter
G1 X116.267 Y90.741 E0.93199 ; perimeter
G1 X116.397 Y91.115 E0.93458 ; perimeter
G1 X116.566 Y91.384 E0.93665 ; perimeter
G1 X116.791 Y91.609 E0.93872 ; perimeter
G1 X117.060 Y91.778 E0.94080 ; perimeter
G1 X117.695 Y92.000 E0.94519 ; perimeter
G4 P4
G1 X117.060 Y92.222 E0.94959 ; perimeter
G1 X116.791 Y92.391 E0.95166 ; perimeter
G1 X116.566 Y92.616 E0.95374 ; perimeter
G1 X116.397 Y92.885 E0.95581 ; perimeter
G1 X116.289 Y93.193 E0.95794 ; perimeter
G1 X116.267 Y93.258 E0.95840 ; perimeter
G1 X116.261 Y89.258 F6000.000 ; move to first perimeter point
G1 X114.741 Y89.258 F6000.000 E0.96832 ; perimeter
G1 X114.741 Y86.741 E0.98476 ; perimeter
G1 X116.261 Y86.741 E0.99468 ; perimeter
G1 X116.407 Y87.159 E0.99756 ; perimeter
G1 X116.588 Y87.446 E0.99978 ; perimeter
G1 X116.829 Y87.687 E1.00200 ; perimeter
G1 X117.327 Y88.000 E1.00585 ; perimeter
G4 P7
G1 X116.829 Y88.313 E1.00969 ; perimeter
G1 X116.588 Y88.554 E1.01191 ; perimeter
G1 X116.407 Y88.841 E1.01413 ; perimeter
G1 X116.284 Y89.193 E1.01656 ; perimeter
G1 X116.261 Y89.258 E1.01701 ; perimeter
G4 P5
G1 X116.256 Y85.258 F6000.000 ; move to first perimeter point
G1 X114.741 Y85.258 F6000.000 E1.02690 ; perimeter
G1 X114.741 Y82.741 E1.04334 ; perimeter
G1 X116.256 Y82.741 E1.05323 ; perimeter
G1 X116.417 Y83.202 E1.05641 ; perimeter
G1 X116.610 Y83.509 E1.05878 ; perimeter
G1 X116.866 Y83.765 E1.06115 ; perimeter
G1 X117.240 Y84.000 E1.06403 ; perimeter
G4 P8
G1 X116.866 Y84.235 E1.06691 ; perimeter
G1 X116.610 Y84.491 E1.06928 ; perimeter
G1 X116.417 Y84.798 E1.07164 ; perimeter
G1 X116.279 Y85.193 E1.07438 ; perimeter
G1 X116.256 Y85.258 E1.07483 ; perimeter
G1 X111.259 Y85.258 F6000.000 ; move to first perimeter point
G1 X109.743 Y85.258 F6000.000 E1.08473 ; perimeter
G1 X109.585 Y84.809 E1.08784 ; perimeter
G1 X109.395 Y84.507 E1.09017 ; perimeter
G1 X109.143 Y84.255 E1.09250 ; perimeter
G1 X108.738 Y84.000 E1.09562 ; perimeter
G1 X109.143 Y83.745 E1.09874 ; perimeter
G1 X109.395 Y83.493 E1.10107 ; perimeter
G1 X109.585 Y83.191 E1.10340 ; perimeter
G1 X109.743 Y82.741 E1.10651 ; perimeter
G1 X111.259 Y82.741 E1.11641 ; perimeter
G1 X111.259 Y85.189 E1.13239 ; perimeter
G1 X111.259 Y85.258 E1.13285 ; perimeter
G1 X111.259 Y86.741 F6000.000 ; move to first perimeter point
G1 X111.259 Y89.258 F6000.000 E1.14928 ; perimeter
G1 X109.737 Y89.258 E1.15921 ; perimeter
G1 X109.595 Y88.852 E1.16202 ; perimeter
G1 X109.417 Y88.569 E1.16421 ; perimeter
G1 X109.181 Y88.333 E1.16639 ; perimeter
G1 X108.651 Y88.000 E1.17047 ; perimeter
G4 P7
G1 X109.181 Y87.667 E1.17456 ; perimeter
G1 X109.417 Y87.431 E1.17674 ; perimeter
G1 X109.595 Y87.148 E1.17892 ; perimeter
G1 X109.737 Y86.741 E1.18173 ; perimeter
G1 X111.189 Y86.741 E1.19121 ; perimeter
G1 X111.259 Y86.741 E1.19167 ; perimeter
G1 X111.259 Y90.741 F6000.000 ; move to first perimeter point
G1 X111.259 Y93.258 F6000.000 E1.20810 ; perimeter
G1 X109.745 Y93.258 E1.21798 ; perimeter
G1 X109.557 Y92.803 E1.22120 ; perimeter
G1 X109.335 Y92.515 E1.22357 ; perimeter
G1 X109.047 Y92.293 E1.22595 ; perimeter
G1 X108.339 Y92.000 E1.23095 ; perimeter
G4 P5
G1 X109.047 Y91.707 E1.23595 ; perimeter
G1 X109.335 Y91.485 E1.23833 ; perimeter
G1 X109.557 Y91.197 E1.24070 ; perimeter
G1 X109.745 Y90.741 E1.24392 ; perimeter
G1 X111.189 Y90.741 E1.25335 ; perimeter
G1 X111.259 Y90.741 E1.25380 ; perimeter
G1 X111.259 Y94.741 F6000.000 ; move to first perimeter point
G1 X111.259 Y97.258 F6000.000 E1.27023 ; perimeter
G1 X109.738 Y97.258 E1.28016 ; perimeter
G1 X109.570 Y96.853 E1.28302 ; perimeter
G1 X109.365 Y96.585 E1.28523 ; perimeter
G1 X109.097 Y96.380 E1.28743 ; perimeter
G1 X108.785 Y96.250 E1.28964 ; perimeter
G1 X106.882 Y96.000 E1.30217 ; perimeter
G1 X108.785 Y95.750 E1.31470 ; perimeter
G1 X109.097 Y95.620 E1.31690 ; perimeter
G1 X109.365 Y95.415 E1.31911 ; perimeter
G1 X109.570 Y95.147 E1.32131 ; perimeter
G1 X109.738 Y94.741 E1.32418 ; perimeter
G1 X111.189 Y94.741 E1.33365 ; perimeter
G1 X111.259 Y94.741 E1.33411 ; perimeter
G1 X106.118 Y96.000 F6000.000 ; move to first perimeter point
G1 X104.215 Y96.250 F6000.000 E1.34664 ; perimeter
G1 X103.903 Y96.380 E1.34884 ; perimeter
G1 X103.635 Y96.585 E1.35105 ; perimeter
G1 X103.430 Y96.853 E1.35325 ; perimeter
G1 X103.262 Y97.258 E1.35612 ; perimeter
G1 X101.741 Y97.258 E1.36604 ; perimeter
G1 X101.741 Y94.741 E1.38248 ; perimeter
G1 X103.262 Y94.741 E1.39240 ; perimeter
G1 X103.430 Y95.147 E1.39527 ; perimeter
G1 X103.635 Y95.415 E1.39747 ; perimeter
G1 X103.903 Y95.620 E1.39968 ; perimeter
G1 X104.215 Y95.750 E1.40188 ; perimeter
G1 X106.049 Y95.991 E1.41396 ; perimeter
G1 X106.118 Y96.000 E1.41441 ; perimeter
G1 X103.269 Y98.741 F6000.000 ; move to first perimeter point
G4 P0
G1 X103.416 Y99.097 F6000.000 E1.41692 ; perimeter
G1 X103.606 Y99.344 E1.41896 ; perimeter
G1 X103.853 Y99.534 E1.42099 ; perimeter
G1 X104.141 Y99.653 E1.42303 ; perimeter
G1 X104.434 Y99.691 E1.42496 ; perimeter
G1 X108.566 Y99.691 E1.45194 ; perimeter
G1 X108.859 Y99.653 E1.45387 ; perimeter
G1 X109.147 Y99.534 E1.45590 ; perimeter
G1 X109.394 Y99.344 E1.45793 ; perimeter
G1 X109.584 Y99.097 E1.45997 ; perimeter
G1 X109.731 Y98.741 E1.46248 ; perimeter
G1 X111.259 Y98.741 E1.47245 ; perimeter
G4 P8
G1 X111.259 Y101.259 E1.48889 ; perimeter
G1 X109.731 Y101.259 E1.49886 ; perimeter
G1 X109.584 Y100.903 E1.50138 ; perimeter
G1 X109.394 Y100.656 E1.50341 ; perimeter
G1 X109.147 Y100.466 E1.50544 ; perimeter
G1 X108.859 Y100.347 E1.50748 ; perimeter
G1 X108.566 Y100.309 E1.50941 ; perimeter
G1 X104.434 Y100.309 E1.53639 ; perimeter
G1 X104.141 Y100.347 E1.53832 ; perimeter
G1 X103.853 Y100.466 E1.54035 ; perimeter
G1 X103.606 Y100.656 E1.54239 ; perimeter
G1 X103.416 Y100.903 E1.54442 ; perimeter
G1 X103.269 Y101.259 E1.54693 ; perimeter
G1 X101.741 Y101.259 E1.55691 ; perimeter
G4 P8
G1 X101.741 Y98.741 E1.57334 ; perimeter
G1 X103.200 Y98.741 E1.58286 ; perimeter
G1 X103.269 Y98.741 E1.58332 ; perimeter
G1 X103.276 Y102.741 F6000.000 ; move to first perimeter point
G1 X103.403 Y103.047 F6000.000 E1.58547 ; perimeter
G1 X103.577 Y103.273 E1.58734 ; perimeter
G1 X103.803 Y103.447 E1.58920 ; perimeter
G1 X104.067 Y103.556 E1.59107 ; perimeter
G1 X104.334 Y103.591 E1.59282 ; perimeter
G1 X108.666 Y103.591 E1.62111 ; perimeter
G1 X108.933 Y103.556 E1.62287 ; perimeter
G1 X109.197 Y103.447 E1.62473 ; perimeter
G1 X109.423 Y103.273 E1.62660 ; perimeter
G1 X109.597 Y103.047 E1.62846 ; perimeter
G1 X109.724 Y102.741 E1.63062 ; perimeter
G1 X111.259 Y102.741 E1.64064 ; perimeter
G4 P10
G1 X111.259 Y105.259 E1.65708 ; perimeter
G1 X109.724 Y105.259 E1.66710 ; perimeter
G1 X109.597 Y104.953 E1.66926 ; perimeter
G1 X109.423 Y104.727 E1.67112 ; perimeter
G1 X109.197 Y104.553 E1.67298 ; perimeter
G1 X108.933 Y104.444 E1.67485 ; perimeter
G1 X108.666 Y104.409 E1.67661 ; perimeter
G1 X104.334 Y104.409 E1.70489 ; perimeter
G1 X104.067 Y104.444 E1.70665 ; perimeter
G1 X103.803 Y104.553 E1.70851 ; perimeter
G1 X103.577 Y104.727 E1.71038 ; perimeter
G1 X103.403 Y104.953 E1.71224 ; perimeter
G1 X103.276 Y105.259 E1.71440 ; perimeter
G1 X101.741 Y105.259 E1.72442 ; perimeter
G4 P10
G1 X101.741 Y102.741 E1.74086 ; perimeter
G1 X103.207 Y102.741 E1.75043 ; perimeter
G1 X103.276 Y102.741 E1.75088 ; perimeter
G4 P24
G1 X103.271 Y106.741 F6000.000 ; move to first perimeter point
G1 X103.445 Y107.085 F6000.000 E1.75339 ; perimeter
G1 X103.665 Y107.305 E1.75543 ; perimeter
G1 X103.943 Y107.446 E1.75746 ; perimeter
G1 X104.231 Y107.491 E1.75936 ; perimeter
G1 X108.769 Y107.491 E1.78899 ; perimeter
G1 X109.057 Y107.446 E1.79090 ; perimeter
G1 X109.335 Y107.305 E1.79293 ; perimeter
G1 X109.555 Y107.085 E1.79496 ; perimeter
G1 X109.729 Y106.741 E1.79748 ; perimeter
G1 X111.259 Y106.741 E1.80746 ; perimeter
G4 P11
G1 X111.259 Y109.259 E1.82390 ; perimeter
G1 X109.729 Y109.259 E1.83388 ; perimeter
G1 X109.555 Y108.915 E1.83639 ; perimeter
G1 X109.335 Y108.695 E1.83843 ; perimeter
G1 X109.057 Y108.554 E1.84046 ; perimeter
G1 X108.769 Y108.509 E1.84236 ; perimeter
G1 X104.231 Y108.509 E1.87199 ; perimeter
