; generated by Slic3r 0.9.6-dev on 2012-11-19 at 16:34:32

; This config has a workaround for the extrusion retraction compensation bug for the first layer... be sure to comment out those 3 lines IF the bug has been fixed.

; layer_height = .1
; perimeters = 1
; top_solid_layers = 0
; bottom_solid_layers = 0
; fill_density = 0
; perimeter_speed = 100
; infill_speed = 100
; travel_speed = 100
; scale = 1
; nozzle_diameter = .345
; filament_diameter = 3
; extrusion_multiplier = 1
; perimeters extrusion width = 0.48mm
; infill extrusion width = 0.48mm
; first layer extrusion width = 0.48mm


G90 ; use absolute coordinates
G21 ; set units to millimeters
G92 E0 ; reset extrusion distance
M82 ; use absolute distances for extrusion
G1 Z0.100 F6000.000 ; move to next layer (0)
G1 X89.965 Y158.965 ; move to first perimeter point
G1 X90.122 Y158.845 F6000.000 E0.00129 ; perimeter
G1 X90.304 Y158.769 E0.00258 ; perimeter
G1 X90.516 Y158.741 E0.00397 ; perimeter
G1 X92.139 Y158.741 E0.01457 ; perimeter
G1 X92.239 Y158.757 F2435.228 E0.01523 ; perimeter
G1 X92.311 Y158.795 F2435.228 E0.01576 ; perimeter
G1 X92.503 Y158.992 F2435.228 E0.01756 ; perimeter
G1 X92.676 Y159.081 F2435.228 E0.01883 ; perimeter
G1 X92.848 Y159.109 F2435.228 E0.01997 ; perimeter
G1 X107.152 Y159.109 F6000.000 E0.11336 ; perimeter
G1 X107.324 Y159.081 E0.11450 ; perimeter
G1 X107.497 Y158.992 E0.11577 ; perimeter
G1 X107.689 Y158.795 E0.11757 ; perimeter
G1 X107.761 Y158.757 E0.11810 ; perimeter
G1 X107.861 Y158.741 E0.11876 ; perimeter
G1 X109.484 Y158.741 E0.12936 ; perimeter
G1 X109.696 Y158.769 F2435.215 E0.13075 ; perimeter
G1 X109.878 Y158.845 F2435.215 E0.13204 ; perimeter
G1 X110.035 Y158.965 F2435.215 E0.13333 ; perimeter
G1 X110.155 Y159.122 F2435.215 E0.13462 ; perimeter
G1 X110.231 Y159.304 F2435.215 E0.13591 ; perimeter
G1 X110.259 Y159.516 F2435.215 E0.13730 ; perimeter
G1 X110.259 Y160.484 F3104.606 E0.14362 ; perimeter
G1 X110.231 Y160.696 F3421.999 E0.14502 ; perimeter
G1 X110.155 Y160.878 F3695.654 E0.14631 ; perimeter
G1 X110.035 Y161.035 F3930.635 E0.14760 ; perimeter
G1 X109.878 Y161.155 F4110.959 E0.14889 ; perimeter
G1 X109.696 Y161.231 F4224.312 E0.15018 ; perimeter
G1 X109.484 Y161.259 F4266.098 E0.15157 ; perimeter
G1 X107.861 Y161.259 F6000.000 E0.16217 ; perimeter
G1 X107.761 Y161.243 F4266.098 E0.16283 ; perimeter
G1 X107.689 Y161.205 F4266.098 E0.16336 ; perimeter
G1 X107.497 Y161.008 F4266.098 E0.16515 ; perimeter
G1 X107.324 Y160.919 F4266.098 E0.16642 ; perimeter
G1 X107.152 Y160.891 F4266.098 E0.16757 ; perimeter
G1 X92.848 Y160.891 F6000.000 E0.26096 ; perimeter
G1 X92.675 Y160.919 F4266.098 E0.26210 ; perimeter
G1 X92.503 Y161.008 F4266.098 E0.26337 ; perimeter
G1 X92.311 Y161.205 F4266.098 E0.26517 ; perimeter
G1 X92.239 Y161.243 F4266.098 E0.26570 ; perimeter
G1 X92.139 Y161.259 F4266.098 E0.26635 ; perimeter
G1 X90.516 Y161.259 F6000.000 E0.27695 ; perimeter
G1 X90.304 Y161.231 F551.256 E0.27835 ; perimeter
G1 X90.122 Y161.155 F551.256 E0.27964 ; perimeter
G1 X89.965 Y161.035 F551.256 E0.28093 ; perimeter
G1 X89.845 Y160.878 F551.256 E0.28222 ; perimeter
G1 X89.769 Y160.696 F629.117 E0.28351 ; perimeter
G1 X89.741 Y160.484 F670.905 E0.28490 ; perimeter
G1 X89.741 Y159.516 F6000.000 E0.29122 ; perimeter
G1 X89.769 Y159.304 F712.692 E0.29262 ; perimeter
G1 X89.845 Y159.122 F826.046 E0.29391 ; perimeter
G1 X89.923 Y159.020 F943.125 E0.29474 ; perimeter
G1 X89.965 Y158.965 F1006.343 E0.29519 ; perimeter
G1 X90.304 Y157.231 F1514.980 ; move to first perimeter point
G1 X90.122 Y157.155 F1628.330 E0.29648 ; perimeter
G1 X89.965 Y157.035 F1808.642 E0.29777 ; perimeter
G1 X89.845 Y156.878 F1988.961 E0.29906 ; perimeter
G1 X89.769 Y156.696 F2102.305 E0.30035 ; perimeter
G1 X89.741 Y156.484 F2144.094 E0.30175 ; perimeter
G1 X89.741 Y155.516 F6000.000 E0.30807 ; perimeter
G1 X89.769 Y155.304 F844.076 E0.30946 ; perimeter
G1 X89.845 Y155.122 F844.076 E0.31075 ; perimeter
G1 X89.965 Y154.965 F844.076 E0.31204 ; perimeter
G1 X90.122 Y154.845 F844.076 E0.31333 ; perimeter
G1 X90.304 Y154.769 F844.092 E0.31462 ; perimeter
G1 X90.516 Y154.741 F1161.468 E0.31601 ; perimeter
G1 X92.162 Y154.741 F3305.562 E0.32676 ; perimeter
G1 X92.322 Y154.787 F3305.562 E0.32784 ; perimeter
G1 X92.558 Y154.982 F3305.562 E0.32985 ; perimeter
G1 X92.758 Y155.026 F3305.562 E0.33118 ; perimeter
G1 X107.242 Y155.026 F6000.000 E0.42575 ; perimeter
G1 X107.442 Y154.982 E0.42709 ; perimeter
G1 X107.678 Y154.787 E0.42909 ; perimeter
G1 X107.838 Y154.741 E0.43018 ; perimeter
G1 X109.484 Y154.741 E0.44093 ; perimeter
G1 X109.696 Y154.769 F2469.363 E0.44232 ; perimeter
G1 X109.878 Y154.845 F2469.363 E0.44361 ; perimeter
G1 X110.035 Y154.965 F2469.363 E0.44490 ; perimeter
G1 X110.155 Y155.122 F2469.363 E0.44619 ; perimeter
G1 X110.231 Y155.304 F2469.363 E0.44748 ; perimeter
G1 X110.259 Y155.516 F2469.363 E0.44887 ; perimeter
G1 X110.259 Y156.484 F3104.606 E0.45519 ; perimeter
G1 X110.231 Y156.696 F3421.999 E0.45659 ; perimeter
G1 X110.155 Y156.878 F3695.654 E0.45788 ; perimeter
G1 X110.035 Y157.035 F3930.635 E0.45916 ; perimeter
G1 X109.878 Y157.155 F4110.959 E0.46045 ; perimeter
G1 X109.696 Y157.231 F4224.312 E0.46174 ; perimeter
G1 X109.484 Y157.259 F4266.098 E0.46314 ; perimeter
G1 X107.838 Y157.259 F6000.000 E0.47389 ; perimeter
G1 X107.678 Y157.213 F4266.098 E0.47497 ; perimeter
G1 X107.442 Y157.018 F4266.098 E0.47697 ; perimeter
G1 X107.242 Y156.974 F4266.098 E0.47831 ; perimeter
G1 X92.758 Y156.974 F6000.000 E0.57288 ; perimeter
G1 X92.558 Y157.018 F4266.098 E0.57422 ; perimeter
G1 X92.322 Y157.213 F4266.098 E0.57622 ; perimeter
G1 X92.162 Y157.259 F4266.098 E0.57730 ; perimeter
G1 X90.516 Y157.259 F6000.000 E0.58805 ; perimeter
G1 X90.373 Y157.240 F427.500 E0.58899 ; perimeter
G1 X90.304 Y157.231 F427.500 E0.58944 ; perimeter
G1 X90.516 Y153.259 F427.500 ; move to first perimeter point
G1 X90.304 Y153.231 F427.500 E0.59084 ; perimeter
G1 X90.122 Y153.155 F514.350 E0.59213 ; perimeter
G1 X89.965 Y153.035 F694.662 E0.59342 ; perimeter
G1 X89.845 Y152.878 F874.981 E0.59470 ; perimeter
G1 X89.769 Y152.696 F988.326 E0.59599 ; perimeter
G1 X89.741 Y152.484 F1030.114 E0.59739 ; perimeter
G1 X89.741 Y151.516 F6000.000 E0.60371 ; perimeter
G1 X89.769 Y151.304 F670.905 E0.60510 ; perimeter
G1 X89.845 Y151.122 F670.905 E0.60639 ; perimeter
G1 X89.965 Y150.965 F670.905 E0.60768 ; perimeter
G1 X90.122 Y150.845 F670.905 E0.60897 ; perimeter
G1 X90.304 Y150.769 F844.092 E0.61026 ; perimeter
G1 X90.516 Y150.741 F1161.468 E0.61165 ; perimeter
G1 X92.160 Y150.741 F2465.882 E0.62239 ; perimeter
G1 X92.320 Y150.788 F2465.882 E0.62348 ; perimeter
G1 X92.560 Y150.988 F2465.882 E0.62552 ; perimeter
G1 X92.766 Y151.034 F2465.882 E0.62689 ; perimeter
G1 X107.234 Y151.034 F6000.000 E0.72137 ; perimeter
G1 X107.440 Y150.988 E0.72274 ; perimeter
G1 X107.680 Y150.788 E0.72478 ; perimeter
G1 X107.840 Y150.741 E0.72587 ; perimeter
G1 X109.484 Y150.741 E0.73661 ; perimeter
G1 X109.696 Y150.769 F2465.900 E0.73800 ; perimeter
G1 X109.878 Y150.845 F2465.900 E0.73929 ; perimeter
G1 X110.035 Y150.965 F2465.900 E0.74058 ; perimeter
G1 X110.155 Y151.122 F2465.900 E0.74187 ; perimeter
G1 X110.231 Y151.304 F2465.900 E0.74316 ; perimeter
G1 X110.259 Y151.516 F2465.900 E0.74455 ; perimeter
G1 X110.259 Y152.484 F3104.606 E0.75087 ; perimeter
G1 X110.231 Y152.696 F3421.999 E0.75227 ; perimeter
G1 X110.155 Y152.878 F3695.654 E0.75356 ; perimeter
G1 X110.035 Y153.035 F3930.635 E0.75485 ; perimeter
G1 X109.878 Y153.155 F4110.959 E0.75613 ; perimeter
G1 X109.696 Y153.231 F4224.312 E0.75742 ; perimeter
G1 X109.484 Y153.259 F4266.098 E0.75882 ; perimeter
G1 X107.840 Y153.259 F6000.000 E0.76955 ; perimeter
G1 X107.680 Y153.212 F4266.098 E0.77064 ; perimeter
G1 X107.440 Y153.012 F4266.098 E0.77268 ; perimeter
G1 X107.234 Y152.966 F4266.098 E0.77406 ; perimeter
G1 X92.766 Y152.966 F6000.000 E0.86853 ; perimeter
G1 X92.560 Y153.012 F4266.098 E0.86990 ; perimeter
G1 X92.320 Y153.212 F4266.098 E0.87194 ; perimeter
G1 X92.160 Y153.259 F4266.098 E0.87303 ; perimeter
G1 X90.585 Y153.259 F6000.000 E0.88332 ; perimeter
G1 X90.516 Y153.259 E0.88377 ; perimeter
G1 X90.516 Y149.259 F6000.000 ; move to first perimeter point
G1 X90.304 Y149.231 F438.744 E0.88516 ; perimeter
G1 X90.122 Y149.155 F438.744 E0.88645 ; perimeter
G1 X89.965 Y149.035 F438.744 E0.88774 ; perimeter
G1 X89.845 Y148.878 F515.772 E0.88903 ; perimeter
G1 X89.769 Y148.696 F629.117 E0.89032 ; perimeter
G1 X89.741 Y148.484 F670.905 E0.89171 ; perimeter
G1 X89.741 Y147.516 F6000.000 E0.89804 ; perimeter
G1 X89.769 Y147.304 F712.692 E0.89943 ; perimeter
G1 X89.845 Y147.122 F826.046 E0.90072 ; perimeter
G1 X89.965 Y146.965 F1006.374 E0.90201 ; perimeter
G1 X90.122 Y146.845 F1241.342 E0.90330 ; perimeter
G1 X90.304 Y146.769 F1514.996 E0.90459 ; perimeter
G1 X90.516 Y146.741 F1832.373 E0.90598 ; perimeter
G1 X92.157 Y146.741 F2462.443 E0.91670 ; perimeter
G1 X92.251 Y146.756 F2462.443 E0.91731 ; perimeter
G1 X92.319 Y146.788 F2462.443 E0.91781 ; perimeter
G1 X92.563 Y146.994 F2462.443 E0.91989 ; perimeter
G1 X92.773 Y147.041 F2462.443 E0.92130 ; perimeter
G1 X107.227 Y147.041 F6000.000 E1.01568 ; perimeter
G1 X107.437 Y146.994 E1.01708 ; perimeter
G1 X107.681 Y146.788 E1.01916 ; perimeter
G1 X107.749 Y146.756 E1.01966 ; perimeter
G1 X107.843 Y146.741 E1.02027 ; perimeter
G1 X109.484 Y146.741 E1.03099 ; perimeter
G1 X109.696 Y146.769 F2462.434 E1.03239 ; perimeter
G1 X109.878 Y146.845 F2462.434 E1.03368 ; perimeter
G1 X110.035 Y146.965 F2462.434 E1.03497 ; perimeter
G1 X110.155 Y147.122 F2462.434 E1.03625 ; perimeter
G1 X110.231 Y147.304 F2462.434 E1.03754 ; perimeter
G1 X110.259 Y147.516 F2462.434 E1.03894 ; perimeter
G1 X110.259 Y148.484 F3104.610 E1.04526 ; perimeter
G1 X110.231 Y148.696 F3422.004 E1.04665 ; perimeter
G1 X110.155 Y148.878 F3695.658 E1.04794 ; perimeter
G1 X110.035 Y149.035 F3930.639 E1.04923 ; perimeter
G1 X109.878 Y149.155 F4110.963 E1.05052 ; perimeter
G1 X109.696 Y149.231 F4224.317 E1.05181 ; perimeter
G1 X109.484 Y149.259 F4266.102 E1.05320 ; perimeter
G1 X107.843 Y149.259 F6000.000 E1.06392 ; perimeter
G1 X107.749 Y149.244 F4266.102 E1.06454 ; perimeter
G1 X107.681 Y149.212 F4266.102 E1.06504 ; perimeter
G1 X107.437 Y149.006 F4266.102 E1.06712 ; perimeter
G1 X107.227 Y148.959 F4266.102 E1.06852 ; perimeter
G1 X92.773 Y148.959 F6000.000 E1.16290 ; perimeter
G1 X92.563 Y149.006 F4266.102 E1.16431 ; perimeter
G1 X92.319 Y149.212 F4266.102 E1.16639 ; perimeter
G1 X92.251 Y149.244 F4266.102 E1.16688 ; perimeter
G1 X92.157 Y149.259 F4266.102 E1.16750 ; perimeter
G1 X90.585 Y149.259 F6000.000 E1.17777 ; perimeter
G1 X90.516 Y149.259 E1.17822 ; perimeter
G1 X90.516 Y145.259 F450.000 ; move to first perimeter point
G1 X90.304 Y145.231 F450.000 E1.17961 ; perimeter
G1 X90.122 Y145.155 F450.000 E1.18090 ; perimeter
G1 X89.965 Y145.035 F450.000 E1.18219 ; perimeter
G1 X89.845 Y144.878 F515.763 E1.18348 ; perimeter
G1 X89.769 Y144.696 F629.108 E1.18477 ; perimeter
G1 X89.741 Y144.484 F670.896 E1.18616 ; perimeter
G1 X89.741 Y143.516 F6000.000 E1.19249 ; perimeter
G1 X89.769 Y143.304 F712.683 E1.19388 ; perimeter
G1 X89.845 Y143.122 F826.037 E1.19517 ; perimeter
G1 X89.965 Y142.965 F1006.365 E1.19646 ; perimeter
G1 X90.122 Y142.845 F1241.333 E1.19775 ; perimeter
G1 X90.304 Y142.769 F1514.987 E1.19904 ; perimeter
G1 X90.516 Y142.741 F1832.364 E1.20043 ; perimeter
G1 X92.141 Y142.741 F2437.959 E1.21104 ; perimeter
G1 X92.240 Y142.757 F2437.959 E1.21169 ; perimeter
G1 X92.312 Y142.794 F2437.959 E1.21222 ; perimeter
G1 X92.502 Y142.987 F2437.959 E1.21399 ; perimeter
G1 X92.671 Y143.074 F2437.959 E1.21524 ; perimeter
G1 X92.841 Y143.101 F2437.959 E1.21636 ; perimeter
G1 X107.159 Y143.101 F6000.000 E1.30985 ; perimeter
G1 X107.328 Y143.075 E1.31096 ; perimeter
G1 X107.498 Y142.987 E1.31221 ; perimeter
G1 X107.688 Y142.794 E1.31398 ; perimeter
G1 X107.760 Y142.757 E1.31451 ; perimeter
G1 X107.859 Y142.741 E1.31516 ; perimeter
G1 X109.484 Y142.741 E1.32577 ; perimeter
G1 X109.696 Y142.769 F2437.980 E1.32717 ; perimeter
G1 X109.878 Y142.845 F2437.980 E1.32846 ; perimeter
G1 X110.035 Y142.965 F2437.980 E1.32975 ; perimeter
G1 X110.155 Y143.122 F2437.980 E1.33104 ; perimeter
G1 X110.231 Y143.304 F2437.980 E1.33232 ; perimeter
G1 X110.259 Y143.516 F2437.980 E1.33372 ; perimeter
G1 X110.259 Y144.484 F3104.610 E1.34004 ; perimeter
G1 X110.231 Y144.696 F3422.004 E1.34143 ; perimeter
G1 X110.155 Y144.878 F3695.660 E1.34272 ; perimeter
G1 X110.035 Y145.035 F3930.665 E1.34401 ; perimeter
G1 X109.878 Y145.155 F4110.971 E1.34530 ; perimeter
G1 X109.696 Y145.231 F4224.316 E1.34659 ; perimeter
G1 X109.484 Y145.259 F4266.102 E1.34799 ; perimeter
G1 X107.859 Y145.259 F6000.000 E1.35860 ; perimeter
G1 X107.760 Y145.243 F4266.102 E1.35925 ; perimeter
G1 X107.688 Y145.206 F4266.102 E1.35978 ; perimeter
G1 X107.498 Y145.013 F4266.102 E1.36155 ; perimeter
G1 X107.377 Y144.950 F4266.102 E1.36244 ; perimeter
G1 X107.328 Y144.925 F4266.102 E1.36280 ; perimeter
G1 X107.159 Y144.899 F4266.102 E1.36391 ; perimeter
G1 X92.841 Y144.899 F6000.000 E1.45740 ; perimeter
G1 X92.671 Y144.926 F4266.102 E1.45853 ; perimeter
G1 X92.502 Y145.013 F4266.102 E1.45977 ; perimeter
G1 X92.312 Y145.206 F4266.102 E1.46154 ; perimeter
G1 X92.240 Y145.243 F4266.102 E1.46206 ; perimeter
G1 X92.141 Y145.259 F4266.102 E1.46272 ; perimeter
G1 X90.585 Y145.259 F6000.000 E1.47288 ; perimeter
G1 X90.516 Y145.259 E1.47333 ; perimeter
G1 X90.516 Y141.259 F6000.000 ; move to first perimeter point
G1 X90.304 Y141.231 F540.000 E1.47472 ; perimeter
G1 X90.122 Y141.155 F540.000 E1.47601 ; perimeter
G1 X89.965 Y141.035 F540.000 E1.47730 ; perimeter
G1 X89.845 Y140.878 F540.000 E1.47859 ; perimeter
G1 X89.769 Y140.696 F629.105 E1.47988 ; perimeter
G1 X89.741 Y140.484 F670.893 E1.48127 ; perimeter
G1 X89.741 Y139.516 F6000.000 E1.48760 ; perimeter
G1 X89.769 Y139.304 F712.680 E1.48899 ; perimeter
G1 X89.845 Y139.122 F826.034 E1.49028 ; perimeter
G1 X89.965 Y138.965 F1006.362 E1.49157 ; perimeter
G1 X90.122 Y138.845 F1241.330 E1.49286 ; perimeter
G1 X90.304 Y138.769 F1514.984 E1.49415 ; perimeter
G1 X90.516 Y138.741 F1832.361 E1.49554 ; perimeter
G1 X92.139 Y138.741 F2435.228 E1.50614 ; perimeter
G1 X92.239 Y138.757 F2435.228 E1.50680 ; perimeter
G1 X92.311 Y138.795 F2435.228 E1.50733 ; perimeter
G1 X92.503 Y138.992 F2435.228 E1.50913 ; perimeter
G1 X92.626 Y139.056 F2435.228 E1.51003 ; perimeter
G1 X92.676 Y139.081 F2435.228 E1.51039 ; perimeter
G1 X92.848 Y139.109 F2435.228 E1.51154 ; perimeter
G1 X107.152 Y139.109 F6000.000 E1.60493 ; perimeter
G1 X107.325 Y139.081 E1.60607 ; perimeter
G1 X107.448 Y139.017 E1.60698 ; perimeter
G1 X107.497 Y138.992 E1.60734 ; perimeter
G1 X107.689 Y138.795 E1.60914 ; perimeter
G1 X107.761 Y138.757 E1.60967 ; perimeter
G1 X107.861 Y138.741 E1.61033 ; perimeter
G1 X109.484 Y138.741 E1.62093 ; perimeter
G1 X109.696 Y138.769 F2435.222 E1.62232 ; perimeter
G1 X109.878 Y138.845 F2435.222 E1.62361 ; perimeter
G1 X110.035 Y138.965 F2435.222 E1.62490 ; perimeter
G1 X110.155 Y139.122 F2435.222 E1.62619 ; perimeter
G1 X110.231 Y139.304 F2435.222 E1.62748 ; perimeter
G1 X110.259 Y139.516 F2435.222 E1.62887 ; perimeter
G1 X110.259 Y140.484 F3104.610 E1.63519 ; perimeter
G1 X110.231 Y140.696 F3422.004 E1.63659 ; perimeter
G1 X110.155 Y140.878 F3695.660 E1.63788 ; perimeter
G1 X110.035 Y141.035 F3930.665 E1.63917 ; perimeter
G1 X109.878 Y141.155 F4110.971 E1.64045 ; perimeter
G1 X109.696 Y141.231 F4224.316 E1.64174 ; perimeter
G1 X109.484 Y141.259 F4266.102 E1.64314 ; perimeter
G1 X107.861 Y141.259 F6000.000 E1.65374 ; perimeter
G1 X107.761 Y141.243 F4266.102 E1.65440 ; perimeter
G1 X107.689 Y141.205 F4266.102 E1.65492 ; perimeter
