; generated by Slic3r 0.9.6-dev on 2012-11-19 at 16:54:34

; This config has a workaround for the extrusion retraction compensation bug for the first layer... be sure to comment out those 3 lines IF the bug has been fixed.

; layer_height = .1
; perimeters = 1
; top_solid_layers = 0
; bottom_solid_layers = 0
; fill_density = 0
; perimeter_speed = 100
; infill_speed = 100
; travel_speed = 100
; scale = 1
; nozzle_diameter = .345
; filament_diameter = 3
; extrusion_multiplier = 1
; perimeters extrusion width = 0.48mm
; infill extrusion width = 0.48mm
; first layer extrusion width = 0.48mm

G92 E0
G1 E100
G1 E0
G90 ; use absolute coordinates
G21 ; set units to millimeters
G92 E0 ; reset extrusion distance
M82 ; use absolute distances for extrusion
G1 Z0.100 F6000.000 ; move to next layer (0)
G1 X120.241 Y114.741 ; move to first perimeter point
G1 X122.786 Y114.741 F6000.000 E0.01661 ; perimeter
G1 X122.889 Y114.935 E0.01804 ; perimeter
G1 X122.987 Y115.053 E0.01905 ; perimeter
G1 X123.105 Y115.151 E0.02005 ; perimeter
G1 X123.240 Y115.223 E0.02105 ; perimeter
G1 X123.387 Y115.268 E0.02205 ; perimeter
G1 X123.528 Y115.281 E0.02297 ; perimeter
G1 X128.472 Y115.281 E0.05526 ; perimeter
G1 X128.613 Y115.268 E0.05618 ; perimeter
G1 X128.760 Y115.223 E0.05718 ; perimeter
G1 X128.895 Y115.151 E0.05818 ; perimeter
G1 X129.013 Y115.053 E0.05919 ; perimeter
G1 X129.111 Y114.935 E0.06019 ; perimeter
G1 X129.214 Y114.741 E0.06162 ; perimeter
G1 X131.759 Y114.741 E0.07823 ; perimeter
G1 X131.759 Y117.259 F3816.612 E0.09467 ; perimeter
G1 X129.214 Y117.259 F6000.000 E0.11128 ; perimeter
G1 X129.111 Y117.065 F3816.612 E0.11271 ; perimeter
G1 X129.013 Y116.947 F3816.612 E0.11371 ; perimeter
G1 X128.895 Y116.849 F3816.612 E0.11472 ; perimeter
G1 X128.760 Y116.777 F3816.612 E0.11572 ; perimeter
G1 X128.613 Y116.732 F3816.612 E0.11672 ; perimeter
G1 X128.472 Y116.719 F3816.612 E0.11764 ; perimeter
G1 X123.528 Y116.719 F6000.000 E0.14992 ; perimeter
G1 X123.387 Y116.732 F3775.501 E0.15085 ; perimeter
G1 X123.240 Y116.777 F3775.501 E0.15185 ; perimeter
G1 X123.105 Y116.849 F3775.501 E0.15285 ; perimeter
G1 X122.987 Y116.947 F3775.501 E0.15385 ; perimeter
G1 X122.889 Y117.065 F3775.501 E0.15485 ; perimeter
G1 X122.786 Y117.259 F3775.501 E0.15629 ; perimeter
G1 X120.241 Y117.259 F6000.000 E0.17290 ; perimeter
G1 X120.241 Y114.811 E0.18888 ; perimeter
G1 X120.241 Y114.741 E0.18933 ; perimeter
G1 X120.241 Y113.259 F6000.000 ; move to first perimeter point
G1 X120.241 Y110.741 F6000.000 E0.20577 ; perimeter
G1 X122.783 Y110.741 F3811.773 E0.22236 ; perimeter
G1 X122.876 Y110.941 F4111.342 E0.22380 ; perimeter
G1 X122.964 Y111.067 F4300.362 E0.22480 ; perimeter
G1 X123.073 Y111.176 F4463.505 E0.22581 ; perimeter
G1 X123.199 Y111.264 F4652.498 E0.22681 ; perimeter
G1 X123.338 Y111.329 F4861.613 E0.22782 ; perimeter
G1 X123.487 Y111.369 F5084.444 E0.22882 ; perimeter
G1 X123.629 Y111.381 F5298.364 E0.22976 ; perimeter
G1 X128.371 Y111.381 F6000.000 E0.26071 ; perimeter
G1 X128.513 Y111.369 E0.26165 ; perimeter
G1 X128.662 Y111.329 E0.26265 ; perimeter
G1 X128.801 Y111.264 E0.26366 ; perimeter
G1 X128.927 Y111.176 E0.26466 ; perimeter
G1 X129.036 Y111.067 E0.26567 ; perimeter
G1 X129.124 Y110.941 E0.26667 ; perimeter
G1 X129.217 Y110.741 E0.26811 ; perimeter
G1 X131.759 Y110.741 E0.28470 ; perimeter
G1 X131.759 Y113.259 F3811.773 E0.30114 ; perimeter
G1 X129.217 Y113.259 F6000.000 E0.31773 ; perimeter
G1 X129.124 Y113.059 F3811.773 E0.31917 ; perimeter
G1 X129.036 Y112.933 F3811.773 E0.32017 ; perimeter
G1 X128.927 Y112.824 F3811.773 E0.32118 ; perimeter
G1 X128.801 Y112.736 F3811.773 E0.32218 ; perimeter
G1 X128.662 Y112.671 F3811.773 E0.32318 ; perimeter
G1 X128.513 Y112.631 F3811.773 E0.32419 ; perimeter
G1 X128.370 Y112.619 F3811.773 E0.32512 ; perimeter
G1 X123.629 Y112.619 F6000.000 E0.35608 ; perimeter
G1 X123.487 Y112.631 F3775.501 E0.35702 ; perimeter
G1 X123.338 Y112.671 F3775.501 E0.35802 ; perimeter
G1 X123.199 Y112.736 F3775.501 E0.35902 ; perimeter
G1 X123.073 Y112.824 F3775.501 E0.36003 ; perimeter
G1 X122.964 Y112.933 F3775.501 E0.36103 ; perimeter
G1 X122.876 Y113.059 F3775.501 E0.36204 ; perimeter
G1 X122.783 Y113.259 F3775.501 E0.36348 ; perimeter
G1 X120.311 Y113.259 F6000.000 E0.37962 ; perimeter
G1 X120.241 Y113.259 E0.38007 ; perimeter
G1 X120.241 Y109.259 F6000.000 ; move to first perimeter point
G1 X120.241 Y106.741 F6000.000 E0.39650 ; perimeter
G1 X122.773 Y106.741 F3796.896 E0.41303 ; perimeter
G1 X122.889 Y106.991 F4171.475 E0.41483 ; perimeter
G1 X122.987 Y107.132 F4381.907 E0.41595 ; perimeter
G1 X123.109 Y107.253 F4563.517 E0.41707 ; perimeter
G1 X123.249 Y107.351 F4773.923 E0.41818 ; perimeter
G1 X123.404 Y107.423 F5006.733 E0.41930 ; perimeter
G1 X123.569 Y107.467 F5254.865 E0.42042 ; perimeter
G1 X123.729 Y107.481 F5494.851 E0.42147 ; perimeter
G1 X128.271 Y107.481 F6000.000 E0.45112 ; perimeter
G1 X128.431 Y107.467 E0.45217 ; perimeter
G1 X128.596 Y107.423 E0.45329 ; perimeter
G1 X128.751 Y107.351 E0.45441 ; perimeter
G1 X128.891 Y107.253 E0.45552 ; perimeter
G1 X129.013 Y107.131 E0.45664 ; perimeter
G1 X129.111 Y106.991 E0.45776 ; perimeter
G1 X129.227 Y106.741 E0.45956 ; perimeter
G1 X131.759 Y106.741 E0.47609 ; perimeter
G1 X131.759 Y109.259 F3796.896 E0.49252 ; perimeter
G1 X129.227 Y109.259 F6000.000 E0.50905 ; perimeter
G1 X129.111 Y109.009 F3796.896 E0.51085 ; perimeter
G1 X129.013 Y108.868 F3796.896 E0.51197 ; perimeter
G1 X128.891 Y108.747 F3796.896 E0.51309 ; perimeter
G1 X128.751 Y108.649 F3796.896 E0.51420 ; perimeter
G1 X128.596 Y108.577 F3796.896 E0.51532 ; perimeter
G1 X128.431 Y108.533 F3796.896 E0.51644 ; perimeter
G1 X128.270 Y108.519 F3796.896 E0.51749 ; perimeter
G1 X123.729 Y108.519 F6000.000 E0.54714 ; perimeter
G1 X123.569 Y108.533 F3775.501 E0.54819 ; perimeter
G1 X123.404 Y108.577 F3775.501 E0.54931 ; perimeter
G1 X123.249 Y108.649 F3775.501 E0.55043 ; perimeter
G1 X123.109 Y108.747 F3775.501 E0.55154 ; perimeter
G1 X122.987 Y108.869 F3775.501 E0.55266 ; perimeter
G1 X122.889 Y109.009 F3775.501 E0.55378 ; perimeter
G1 X122.773 Y109.259 F3775.501 E0.55558 ; perimeter
G1 X120.311 Y109.259 F6000.000 E0.57165 ; perimeter
G1 X120.241 Y109.259 E0.57211 ; perimeter
G1 X120.241 Y105.259 F6000.000 ; move to first perimeter point
G1 X120.241 Y102.741 F6000.000 E0.58854 ; perimeter
G1 X122.763 Y102.741 F3782.001 E0.60500 ; perimeter
G1 X122.903 Y103.041 F4231.582 E0.60716 ; perimeter
G1 X123.011 Y103.196 F4463.387 E0.60839 ; perimeter
G1 X123.144 Y103.329 F4663.533 E0.60963 ; perimeter
G1 X123.299 Y103.437 F4895.375 E0.61086 ; perimeter
G1 X123.470 Y103.517 F5151.851 E0.61209 ; perimeter
G1 X123.652 Y103.566 F5425.256 E0.61332 ; perimeter
G1 X123.829 Y103.581 F5691.300 E0.61449 ; perimeter
G1 X128.171 Y103.581 F6000.000 E0.64283 ; perimeter
G1 X128.348 Y103.566 E0.64399 ; perimeter
G1 X128.530 Y103.517 E0.64523 ; perimeter
G1 X128.701 Y103.437 E0.64646 ; perimeter
G1 X128.856 Y103.329 E0.64769 ; perimeter
G1 X128.989 Y103.196 E0.64892 ; perimeter
G1 X129.097 Y103.041 E0.65015 ; perimeter
G1 X129.237 Y102.741 E0.65231 ; perimeter
G1 X131.759 Y102.741 E0.66878 ; perimeter
G1 X131.759 Y105.259 F3782.001 E0.68521 ; perimeter
G1 X129.237 Y105.259 F6000.000 E0.70167 ; perimeter
G1 X129.097 Y104.959 F3782.001 E0.70383 ; perimeter
G1 X128.989 Y104.804 F3782.001 E0.70506 ; perimeter
G1 X128.856 Y104.671 F3782.001 E0.70630 ; perimeter
G1 X128.701 Y104.563 F3782.001 E0.70753 ; perimeter
G1 X128.530 Y104.483 F3782.001 E0.70876 ; perimeter
G1 X128.348 Y104.434 F3782.001 E0.70999 ; perimeter
G1 X128.171 Y104.418 F3782.001 E0.71116 ; perimeter
G1 X123.829 Y104.418 F6000.000 E0.73950 ; perimeter
G1 X123.652 Y104.434 F3775.501 E0.74066 ; perimeter
G1 X123.470 Y104.483 F3775.501 E0.74190 ; perimeter
G1 X123.299 Y104.563 F3775.501 E0.74313 ; perimeter
G1 X123.144 Y104.671 F3775.501 E0.74436 ; perimeter
G1 X123.011 Y104.804 F3775.501 E0.74559 ; perimeter
G1 X122.903 Y104.959 F3775.501 E0.74682 ; perimeter
G1 X122.763 Y105.259 F3775.501 E0.74898 ; perimeter
G1 X120.311 Y105.259 F6000.000 E0.76499 ; perimeter
G1 X120.241 Y105.259 E0.76545 ; perimeter
G1 X120.241 Y101.259 F6000.000 ; move to first perimeter point
G1 X120.241 Y98.741 F6000.000 E0.78188 ; perimeter
G1 X122.785 Y98.741 F3815.601 E0.79849 ; perimeter
G1 X122.829 Y98.904 F4059.978 E0.79959 ; perimeter
G1 X122.916 Y99.091 F4340.157 E0.80094 ; perimeter
G1 X123.034 Y99.260 F4593.416 E0.80228 ; perimeter
G1 X123.180 Y99.406 F4812.041 E0.80363 ; perimeter
G1 X123.349 Y99.524 F5065.284 E0.80497 ; perimeter
G1 X123.536 Y99.611 F5345.476 E0.80632 ; perimeter
G1 X123.735 Y99.664 F5644.107 E0.80766 ; perimeter
G1 X123.929 Y99.681 F5936.229 E0.80894 ; perimeter
G1 X128.071 Y99.681 F6000.000 E0.83598 ; perimeter
G1 X128.265 Y99.664 E0.83726 ; perimeter
G1 X128.464 Y99.611 E0.83860 ; perimeter
G1 X128.651 Y99.524 E0.83995 ; perimeter
G1 X128.820 Y99.406 E0.84129 ; perimeter
G1 X128.966 Y99.260 E0.84264 ; perimeter
G1 X129.084 Y99.091 E0.84399 ; perimeter
G1 X129.171 Y98.904 E0.84533 ; perimeter
G1 X129.215 Y98.741 E0.84643 ; perimeter
G1 X131.759 Y98.741 E0.86304 ; perimeter
G1 X131.759 Y101.259 F3815.603 E0.87948 ; perimeter
G1 X129.215 Y101.259 F6000.000 E0.89609 ; perimeter
G1 X129.171 Y101.096 F3815.603 E0.89719 ; perimeter
G1 X129.084 Y100.909 F3815.603 E0.89853 ; perimeter
G1 X128.966 Y100.740 F3815.603 E0.89988 ; perimeter
G1 X128.820 Y100.594 F3815.603 E0.90122 ; perimeter
G1 X128.651 Y100.476 F3815.603 E0.90257 ; perimeter
G1 X128.464 Y100.389 F3815.603 E0.90392 ; perimeter
G1 X128.265 Y100.336 F3815.603 E0.90526 ; perimeter
G1 X128.071 Y100.319 F3815.603 E0.90654 ; perimeter
G1 X123.929 Y100.319 F6000.000 E0.93358 ; perimeter
G1 X123.735 Y100.336 F3775.501 E0.93485 ; perimeter
G1 X123.536 Y100.389 F3775.501 E0.93620 ; perimeter
G1 X123.349 Y100.476 F3775.501 E0.93755 ; perimeter
G1 X123.180 Y100.594 F3775.501 E0.93889 ; perimeter
G1 X123.034 Y100.740 F3775.501 E0.94024 ; perimeter
G1 X122.916 Y100.909 F3775.501 E0.94158 ; perimeter
G1 X122.829 Y101.096 F3775.501 E0.94293 ; perimeter
G1 X122.785 Y101.259 F3775.501 E0.94403 ; perimeter
G1 X120.311 Y101.259 F6000.000 E0.96019 ; perimeter
G1 X120.241 Y101.259 E0.96064 ; perimeter
G1 X120.241 Y97.258 F6000.000 ; move to first perimeter point
G1 X120.241 Y94.741 F6000.000 E0.97707 ; perimeter
G1 X122.756 Y94.741 F3772.374 E0.99350 ; perimeter
G1 X122.897 Y95.082 F4283.286 E0.99590 ; perimeter
G1 X123.003 Y95.254 F4540.566 E0.99722 ; perimeter
G1 X123.133 Y95.407 F4770.204 E0.99853 ; perimeter
G1 X123.286 Y95.537 F4999.098 E0.99984 ; perimeter
G1 X123.458 Y95.642 F5256.811 E1.00116 ; perimeter
G1 X123.644 Y95.720 F5536.127 E1.00247 ; perimeter
G1 X124.204 Y95.854 F6000.000 E1.00624 ; perimeter
G1 X124.204 Y96.146 E1.00814 ; perimeter
G1 X123.644 Y96.280 E1.01190 ; perimeter
G1 X123.458 Y96.357 E1.01321 ; perimeter
G1 X123.286 Y96.463 E1.01453 ; perimeter
G1 X123.133 Y96.594 E1.01584 ; perimeter
G1 X123.003 Y96.746 E1.01715 ; perimeter
G1 X122.897 Y96.918 E1.01847 ; perimeter
G1 X122.757 Y97.258 E1.02088 ; perimeter
G1 X120.311 Y97.258 E1.03685 ; perimeter
G1 X120.241 Y97.258 E1.03730 ; perimeter
G1 X118.759 Y97.258 F6000.000 ; move to first perimeter point
G1 X116.243 Y97.258 F6000.000 E1.05373 ; perimeter
G1 X116.104 Y96.923 E1.05610 ; perimeter
G1 X116.000 Y96.753 E1.05740 ; perimeter
G1 X115.870 Y96.601 E1.05871 ; perimeter
G1 X115.717 Y96.471 E1.06001 ; perimeter
G1 X115.548 Y96.366 E1.06132 ; perimeter
G1 X115.363 Y96.290 E1.06262 ; perimeter
G1 X115.169 Y96.243 E1.06392 ; perimeter
G1 X114.690 Y96.206 E1.06706 ; perimeter
G1 X114.690 Y95.794 E1.06975 ; perimeter
G1 X115.169 Y95.756 E1.07288 ; perimeter
G1 X115.363 Y95.710 E1.07418 ; perimeter
G1 X115.548 Y95.634 E1.07549 ; perimeter
G1 X115.718 Y95.529 E1.07680 ; perimeter
G1 X115.869 Y95.400 E1.07809 ; perimeter
G1 X115.999 Y95.248 E1.07940 ; perimeter
G1 X116.103 Y95.078 E1.08070 ; perimeter
G1 X116.243 Y94.741 E1.08308 ; perimeter
G1 X118.759 Y94.741 E1.09950 ; perimeter
G1 X118.759 Y97.189 F3773.267 E1.11549 ; perimeter
G1 X118.759 Y97.258 F3775.501 E1.11594 ; perimeter
G1 X118.759 Y93.258 F6000.000 ; move to first perimeter point
G1 X116.219 Y93.258 F6000.000 E1.13252 ; perimeter
G1 X116.175 Y93.076 F3671.655 E1.13375 ; perimeter
G1 X116.093 Y92.877 F3671.655 E1.13515 ; perimeter
G1 X115.980 Y92.693 F3671.655 E1.13656 ; perimeter
G1 X115.840 Y92.530 F3671.655 E1.13796 ; perimeter
G1 X115.677 Y92.390 F3671.655 E1.13937 ; perimeter
G1 X115.493 Y92.277 F3671.655 E1.14078 ; perimeter
G1 X115.064 Y92.100 F3671.655 E1.14381 ; perimeter
G1 X115.064 Y91.900 F6000.000 E1.14511 ; perimeter
G1 X115.493 Y91.723 F1213.089 E1.14814 ; perimeter
G1 X115.677 Y91.610 F1213.089 E1.14955 ; perimeter
G1 X115.840 Y91.470 F1213.089 E1.15095 ; perimeter
G1 X115.980 Y91.307 F1374.189 E1.15236 ; perimeter
G1 X116.093 Y91.123 F1543.063 E1.15377 ; perimeter
G1 X116.175 Y90.924 F1666.663 E1.15517 ; perimeter
G1 X116.219 Y90.741 F1732.431 E1.15640 ; perimeter
G1 X118.759 Y90.741 F3809.385 E1.17298 ; perimeter
G1 X118.759 Y93.189 F3809.385 E1.18896 ; perimeter
G1 X118.759 Y93.258 F3809.385 E1.18941 ; perimeter
G1 X118.759 Y89.258 F6000.000 ; move to first perimeter point
G1 X116.221 Y89.258 F6000.000 E1.20598 ; perimeter
G1 X116.170 Y89.045 F3671.655 E1.20741 ; perimeter
G1 X116.082 Y88.832 F3671.655 E1.20892 ; perimeter
G1 X115.961 Y88.635 F3671.655 E1.21043 ; perimeter
G1 X115.811 Y88.459 F3671.655 E1.21194 ; perimeter
G1 X115.635 Y88.309 F3671.655 E1.21345 ; perimeter
G1 X115.131 Y88.000 F3671.655 E1.21731 ; perimeter
G1 X115.635 Y87.691 F1304.055 E1.22117 ; perimeter
G1 X115.811 Y87.541 F1304.055 E1.22268 ; perimeter
G1 X115.961 Y87.365 F1304.055 E1.22418 ; perimeter
G1 X116.082 Y87.168 F1425.768 E1.22569 ; perimeter
G1 X116.170 Y86.955 F1558.392 E1.22720 ; perimeter
G1 X116.221 Y86.741 F1635.282 E1.22864 ; perimeter
G1 X118.759 Y86.741 F3805.596 E1.24520 ; perimeter
G1 X118.759 Y89.189 F3805.596 E1.26118 ; perimeter
G1 X118.759 Y89.258 F3805.596 E1.26164 ; perimeter
G1 X118.759 Y85.258 F6000.000 ; move to first perimeter point
G1 X116.224 Y85.258 F6000.000 E1.27818 ; perimeter
G1 X116.165 Y85.014 F3671.655 E1.27982 ; perimeter
G1 X116.071 Y84.786 F3671.655 E1.28144 ; perimeter
G1 X115.942 Y84.576 F3671.655 E1.28305 ; perimeter
G1 X115.782 Y84.388 F3671.655 E1.28466 ; perimeter
G1 X115.594 Y84.228 F3671.655 E1.28627 ; perimeter
G1 X115.222 Y84.000 F3671.655 E1.28912 ; perimeter
G1 X115.594 Y83.772 F1245.734 E1.29197 ; perimeter
G1 X115.782 Y83.612 F1245.734 E1.29358 ; perimeter
G1 X115.942 Y83.424 F1245.734 E1.29519 ; perimeter
G1 X116.071 Y83.214 F1273.265 E1.29680 ; perimeter
G1 X116.165 Y82.986 F1414.875 E1.29841 ; perimeter
G1 X116.224 Y82.741 F1502.877 E1.30005 ; perimeter
G1 X118.759 Y82.741 F3801.809 E1.31660 ; perimeter
G1 X118.759 Y85.189 F3801.809 E1.33258 ; perimeter
G1 X118.759 Y85.258 F3801.809 E1.33304 ; perimeter
G1 X120.241 Y85.258 F3801.809 ; move to first perimeter point
G1 X120.241 Y82.741 F6000.000 E1.34947 ; perimeter
G1 X122.776 Y82.741 F3801.438 E1.36602 ; perimeter
G1 X122.835 Y82.989 F4172.551 E1.36768 ; perimeter
G1 X122.930 Y83.218 F4516.654 E1.36930 ; perimeter
G1 X123.060 Y83.430 F4834.174 E1.37092 ; perimeter
G1 X123.221 Y83.619 F5117.409 E1.37254 ; perimeter
G1 X123.410 Y83.780 F5400.589 E1.37416 ; perimeter
G1 X123.769 Y84.000 F5938.932 E1.37691 ; perimeter
G1 X123.410 Y84.220 F6000.000 E1.37966 ; perimeter
G1 X123.221 Y84.381 E1.38128 ; perimeter
G1 X123.060 Y84.570 E1.38290 ; perimeter
G1 X122.930 Y84.782 E1.38452 ; perimeter
G1 X122.835 Y85.011 E1.38615 ; perimeter
G1 X122.776 Y85.258 E1.38781 ; perimeter
G1 X120.311 Y85.258 E1.40390 ; perimeter
G1 X120.241 Y85.258 E1.40436 ; perimeter
