; generated by Slic3r 0.9.6-dev on 2012-11-19 at 15:38:17

; This config has a workaround for the extrusion retraction compensation bug for the first layer... be sure to comment out those 3 lines IF the bug has been fixed.

; layer_height = .175
; perimeters = 1
; top_solid_layers = 0
; bottom_solid_layers = 0
; fill_density = 0
; perimeter_speed = 130
; infill_speed = 130
; travel_speed = 300
; scale = 1
; nozzle_diameter = .345
; filament_diameter = 2.9
; extrusion_multiplier = 1
; perimeters extrusion width = 0.48mm
; infill extrusion width = 0.48mm
; first layer extrusion width = 0.48mm

G90 ; use absolute coordinates
G21 ; set units to millimeters
M82 ; use absolute distances for extrusion
G28 ; go home and zero the axes
G92 X0 Y0 Z0 E0.0
G1 Z1.0 F240 ; Head on up to a location I can be seen.
G1 E5 ; let's spew a little.
G92 E2.0
G1 E0.0 ; retract a little so I stop drooling.
G1 X0 Y0 Z0 F3000
G1 Y30
G1 X30 
G1 Y0 
G1 X100 Y0 Z1.0
G1 X100 Y30 Z0 E3
G92 E0
M106
G90 ; use absolute coordinates
G21 ; set units to millimeters
G92 E0 ; reset extrusion distance
M82 ; use absolute distances for extrusion
M106 S255 ; enable fan
G1 F1560.000 E-1.00000 ; retract
G92 E0 ; reset extrusion distance
G1 Z0.480 F18000.000 ; move to next layer (0)
G1 X108.764 Y97.966 ; move to first perimeter point
G1 F1560.000 E1.00000 ; compensate retraction
G1 X108.985 Y97.811 F3000.000 E1.00370 ; perimeter
G1 X109.243 Y97.744 E1.00737 ; perimeter
G1 X111.554 Y97.744 E1.03908 ; perimeter
G1 X111.871 Y97.791 E1.04349 ; perimeter
G1 X112.145 Y97.882 E1.04745 ; perimeter
G1 X112.428 Y98.033 E1.05185 ; perimeter
G1 X112.655 Y98.212 E1.05582 ; perimeter
G1 X112.888 Y98.477 E1.06066 ; perimeter
G1 X113.063 Y98.783 E1.06550 ; perimeter
G1 X113.174 Y99.118 E1.07034 ; perimeter
G1 X113.215 Y99.436 E1.07474 ; perimeter
G1 X113.216 Y100.532 E1.08980 ; perimeter
G1 X113.180 Y100.851 E1.09420 ; perimeter
G1 X113.122 Y101.068 E1.09729 ; perimeter
G1 X113.036 Y101.275 E1.10037 ; perimeter
G1 X112.924 Y101.470 E1.10345 ; perimeter
G1 X112.767 Y101.673 E1.10698 ; perimeter
G1 X112.506 Y101.911 E1.11182 ; perimeter
G1 X112.233 Y102.078 E1.11622 ; perimeter
G1 X111.933 Y102.193 E1.12062 ; perimeter
G1 X111.618 Y102.251 E1.12503 ; perimeter
G1 X109.255 Y102.257 E1.15746 ; perimeter
G1 X109.004 Y102.197 E1.16101 ; perimeter
G1 X108.796 Y102.064 E1.16440 ; perimeter
G1 X108.633 Y101.856 E1.16803 ; perimeter
G1 X108.479 Y101.462 E1.17383 ; perimeter
G1 X108.344 Y101.198 E1.17790 ; perimeter
G1 X108.053 Y100.796 E1.18472 ; perimeter
G1 X107.845 Y100.585 E1.18877 ; perimeter
G1 X107.615 Y100.399 E1.19284 ; perimeter
G1 X107.059 Y100.077 E1.20166 ; perimeter
G1 X107.059 Y99.923 E1.20377 ; perimeter
G1 X107.424 Y99.726 E1.20946 ; perimeter
G1 X107.670 Y99.560 E1.21354 ; perimeter
G1 X107.912 Y99.352 E1.21791 ; perimeter
G1 X108.126 Y99.118 E1.22227 ; perimeter
G1 X108.389 Y98.723 E1.22878 ; perimeter
G1 X108.497 Y98.499 E1.23220 ; perimeter
G1 X108.615 Y98.182 E1.23684 ; perimeter
G1 X108.719 Y98.017 E1.23952 ; perimeter
G1 X108.764 Y97.966 E1.24046 ; perimeter
G1 F1560.000 E0.24046 ; retract
G92 E0 ; reset extrusion distance
G1 X92.941 Y99.923 F12987.358 ; move to first perimeter point
G1 F1560.000 E1.00000 ; compensate retraction
G1 X92.941 Y100.077 F3000.000 E1.00211 ; perimeter
G1 X92.596 Y100.262 F3000.000 E1.00749 ; perimeter
G1 X92.366 Y100.413 F3000.000 E1.01125 ; perimeter
G1 X92.138 Y100.601 F3000.000 E1.01532 ; perimeter
G1 X91.932 Y100.813 F3000.000 E1.01937 ; perimeter
G1 X91.765 Y101.027 F3000.000 E1.02310 ; perimeter
G1 X91.611 Y101.277 F3000.000 E1.02713 ; perimeter
G1 X91.325 Y101.926 F3000.000 E1.03687 ; perimeter
G1 X91.170 Y102.092 F3000.000 E1.03998 ; perimeter
G1 X90.981 Y102.203 F3000.000 E1.04299 ; perimeter
G1 X90.851 Y102.243 F3000.000 E1.04486 ; perimeter
G1 X90.713 Y102.258 F3000.000 E1.04677 ; perimeter
G1 X88.446 Y102.256 F3000.000 E1.07789 ; perimeter
G1 X88.067 Y102.193 F3000.000 E1.08317 ; perimeter
G1 X87.710 Y102.049 F3000.000 E1.08845 ; perimeter
G1 X87.443 Y101.872 F3000.000 E1.09285 ; perimeter
G1 X87.212 Y101.649 F3000.000 E1.09725 ; perimeter
G1 X87.025 Y101.389 F3000.000 E1.10166 ; perimeter
G1 X86.889 Y101.098 F3000.000 E1.10606 ; perimeter
G1 X86.820 Y100.851 F3000.000 E1.10958 ; perimeter
G1 X86.787 Y100.596 F3000.000 E1.11311 ; perimeter
G1 X86.785 Y99.436 F3000.000 E1.12904 ; perimeter
G1 X86.813 Y99.181 F3000.000 E1.13256 ; perimeter
G1 X86.878 Y98.932 F3000.000 E1.13609 ; perimeter
G1 X86.964 Y98.725 F3000.000 E1.13917 ; perimeter
G1 X87.094 Y98.503 F3000.000 E1.14270 ; perimeter
G1 X87.233 Y98.327 F3000.000 E1.14578 ; perimeter
G1 X87.418 Y98.148 F3000.000 E1.14931 ; perimeter
G1 X87.627 Y97.999 F3000.000 E1.15283 ; perimeter
G1 X87.855 Y97.882 F3000.000 E1.15636 ; perimeter
G1 X88.192 Y97.777 F3000.000 E1.16120 ; perimeter
G1 X88.511 Y97.742 F3000.000 E1.16560 ; perimeter
G1 X90.715 Y97.742 F3000.000 E1.19586 ; perimeter
G1 X90.981 Y97.797 F3000.000 E1.19960 ; perimeter
G1 X91.170 Y97.908 F3000.000 E1.20260 ; perimeter
G1 X91.318 Y98.065 F3000.000 E1.20557 ; perimeter
G1 X91.387 Y98.186 F3000.000 E1.20747 ; perimeter
G1 X91.504 Y98.500 F3000.000 E1.21208 ; perimeter
G1 X91.633 Y98.763 E1.21610 ; perimeter
G1 X91.791 Y99.010 E1.22013 ; perimeter
G1 X91.977 Y99.238 E1.22417 ; perimeter
G1 X92.171 Y99.430 E1.22791 ; perimeter
G1 X92.385 Y99.601 E1.23167 ; perimeter
G1 X92.881 Y99.891 E1.23955 ; perimeter
G1 X92.941 Y99.923 E1.24049 ; perimeter
G1 F1560.000 E0.24049 ; retract
G92 E0 ; reset extrusion distance
G1 X96.227 Y100.019 F18000.000 ; move to first perimeter point
G1 F1560.000 E1.00000 ; compensate retraction
G1 X106.111 Y100.024 F3000.000 E1.13569 ; perimeter
G1 X106.614 Y100.003 E1.14260 ; perimeter
G1 X106.867 Y99.724 E1.14778 ; perimeter
G1 X106.614 Y100.003 F18000.000 ; move to first perimeter point
G1 X106.696 Y100.088 F3000.000 E1.14939 ; perimeter
G1 X106.805 Y100.527 F18000.000 ; move inwards before travel
G1 F1560.000 E0.14939 ; retract
G92 E0 ; reset extrusion distance
G1 X96.059 Y99.977 F1147.376 ; move to first perimeter point
G1 F1560.000 E1.00000 ; compensate retraction
G1 X96.227 Y100.019 F3000.000 E1.00238 ; perimeter
G1 X94.780 Y100.019 F968.931 ; move to first perimeter point
G1 X96.059 Y99.977 F3000.000 E1.01994 ; perimeter
G1 X93.304 Y99.912 F7376.112 ; move to first perimeter point
G1 X93.470 Y100.006 F3000.000 E1.02256 ; perimeter
G1 X94.780 Y100.019 F3000.000 E1.04054 ; perimeter
G1 X93.253 Y100.111 F8514.444 ; move to first perimeter point
G1 X93.386 Y99.997 F3000.000 E1.04295 ; perimeter
G1 X93.249 Y100.222 F770.729 ; move to first perimeter point
G1 X93.253 Y100.111 F3000.000 E1.04448 ; perimeter
G1 F1560.000 E0.04448 ; retract
G92 E0 ; reset extrusion distance
G1 Z0.655 F18000.000 ; move to next layer (1)
G1 X108.750 Y97.980 F18000.000 ; move to first perimeter point
G1 F1560.000 E1.00000 ; compensate retraction
G1 X108.854 Y97.888 F3000.000 E1.00167 ; perimeter
G1 X108.973 Y97.816 E1.00334 ; perimeter
G1 X109.103 Y97.768 E1.00500 ; perimeter
G1 X109.240 Y97.744 E1.00667 ; perimeter
G1 X111.554 Y97.744 E1.03447 ; perimeter
G1 X111.840 Y97.784 E1.03793 ; perimeter
G1 X112.115 Y97.869 E1.04140 ; perimeter
G1 X112.373 Y97.999 E1.04487 ; perimeter
G1 X112.631 Y98.190 E1.04872 ; perimeter
G1 X112.869 Y98.451 E1.05296 ; perimeter
G1 X113.050 Y98.754 E1.05720 ; perimeter
G1 X113.166 Y99.086 E1.06143 ; perimeter
G1 X113.215 Y99.436 E1.06567 ; perimeter
G1 X113.216 Y100.532 E1.07884 ; perimeter
G1 X113.187 Y100.819 E1.08231 ; perimeter
G1 X113.122 Y101.068 E1.08539 ; perimeter
G1 X113.036 Y101.275 E1.08809 ; perimeter
G1 X112.924 Y101.470 E1.09079 ; perimeter
G1 X112.788 Y101.649 E1.09349 ; perimeter
G1 X112.557 Y101.872 E1.09734 ; perimeter
G1 X112.261 Y102.064 E1.10158 ; perimeter
G1 X111.964 Y102.184 E1.10543 ; perimeter
G1 X111.650 Y102.248 E1.10928 ; perimeter
G1 X109.255 Y102.257 E1.13804 ; perimeter
G1 X109.015 Y102.202 E1.14100 ; perimeter
G1 X108.794 Y102.064 E1.14414 ; perimeter
G1 X108.633 Y101.858 E1.14728 ; perimeter
G1 X108.481 Y101.473 E1.15225 ; perimeter
G1 X108.349 Y101.215 E1.15574 ; perimeter
G1 X108.202 Y100.993 E1.15893 ; perimeter
G1 X108.046 Y100.800 E1.16191 ; perimeter
G1 X107.840 Y100.595 E1.16540 ; perimeter
G1 X107.610 Y100.413 E1.16892 ; perimeter
G1 X107.381 Y100.268 E1.17218 ; perimeter
G1 X107.016 Y100.080 E1.17711 ; perimeter
G1 X107.017 Y99.917 E1.17906 ; perimeter
G1 X107.401 Y99.720 E1.18425 ; perimeter
G1 X107.647 Y99.561 E1.18777 ; perimeter
G1 X107.905 Y99.345 E1.19182 ; perimeter
G1 X108.119 Y99.114 E1.19560 ; perimeter
G1 X108.393 Y98.707 E1.20149 ; perimeter
G1 X108.612 Y98.184 E1.20830 ; perimeter
G1 X108.705 Y98.031 E1.21045 ; perimeter
G1 X108.750 Y97.980 E1.21127 ; perimeter
G1 F1560.000 E0.21127 ; retract
G92 E0 ; reset extrusion distance
G1 X92.983 Y99.919 F13024.604 ; move to first perimeter point
G1 F1560.000 E1.00000 ; compensate retraction
G1 X92.983 Y100.081 F3000.000 E1.00194 ; perimeter
G1 X92.619 Y100.268 F3000.000 E1.00685 ; perimeter
G1 X92.390 Y100.413 F3000.000 E1.01011 ; perimeter
G1 X92.160 Y100.595 F3000.000 E1.01363 ; perimeter
G1 X91.939 Y100.817 F3000.000 E1.01740 ; perimeter
G1 X91.771 Y101.029 F3000.000 E1.02065 ; perimeter
G1 X91.618 Y101.273 F3000.000 E1.02411 ; perimeter
G1 X91.502 Y101.512 F3000.000 E1.02730 ; perimeter
G1 X91.388 Y101.816 F3000.000 E1.03120 ; perimeter
G1 X91.319 Y101.937 F3000.000 E1.03287 ; perimeter
G1 X91.171 Y102.093 F3000.000 E1.03546 ; perimeter
G1 X90.985 Y102.202 F3000.000 E1.03805 ; perimeter
G1 X90.852 Y102.243 F3000.000 E1.03972 ; perimeter
G1 X90.714 Y102.258 F3000.000 E1.04138 ; perimeter
G1 X88.478 Y102.257 F3000.000 E1.06823 ; perimeter
G1 X88.098 Y102.201 F3000.000 E1.07286 ; perimeter
G1 X87.739 Y102.064 F3000.000 E1.07748 ; perimeter
G1 X87.443 Y101.872 F3000.000 E1.08171 ; perimeter
G1 X87.212 Y101.649 F3000.000 E1.08557 ; perimeter
G1 X87.025 Y101.389 F3000.000 E1.08942 ; perimeter
G1 X86.889 Y101.098 F3000.000 E1.09327 ; perimeter
G1 X86.820 Y100.851 F3000.000 E1.09636 ; perimeter
G1 X86.787 Y100.596 F3000.000 E1.09944 ; perimeter
G1 X86.785 Y99.436 F3000.000 E1.11338 ; perimeter
G1 X86.813 Y99.181 F3000.000 E1.11646 ; perimeter
G1 X86.868 Y98.963 F3000.000 E1.11916 ; perimeter
G1 X86.964 Y98.725 F3000.000 E1.12225 ; perimeter
G1 X87.094 Y98.503 F3000.000 E1.12533 ; perimeter
G1 X87.233 Y98.326 F3000.000 E1.12803 ; perimeter
G1 X87.418 Y98.148 F3000.000 E1.13111 ; perimeter
G1 X87.627 Y97.999 F3000.000 E1.13420 ; perimeter
G1 X87.855 Y97.882 F3000.000 E1.13728 ; perimeter
G1 X88.192 Y97.777 F3000.000 E1.14152 ; perimeter
G1 X88.511 Y97.742 F3000.000 E1.14537 ; perimeter
G1 X90.714 Y97.742 F3000.000 E1.17183 ; perimeter
G1 X90.852 Y97.757 F3000.000 E1.17350 ; perimeter
G1 X90.985 Y97.798 F3000.000 E1.17517 ; perimeter
G1 X91.171 Y97.907 F3000.000 E1.17776 ; perimeter
G1 X91.318 Y98.063 F3000.000 E1.18035 ; perimeter
G1 X91.388 Y98.184 F3000.000 E1.18202 ; perimeter
G1 X91.510 Y98.507 F3000.000 E1.18617 ; perimeter
G1 X91.629 Y98.747 E1.18938 ; perimeter
G1 X91.786 Y98.991 E1.19287 ; perimeter
G1 X91.983 Y99.232 E1.19662 ; perimeter
G1 X92.177 Y99.420 E1.19985 ; perimeter
G1 X92.390 Y99.587 E1.20310 ; perimeter
G1 X92.599 Y99.720 E1.20609 ; perimeter
G1 X92.922 Y99.888 E1.21046 ; perimeter
G1 X92.983 Y99.919 E1.21128 ; perimeter
G1 F1560.000 E0.21128 ; retract
G92 E0 ; reset extrusion distance
G1 X96.503 Y99.979 F18000.000 ; move to first perimeter point
G1 F1560.000 E1.00000 ; compensate retraction
G1 X106.103 Y100.021 F3000.000 E1.11533 ; perimeter
G1 X106.552 Y99.998 E1.12073 ; perimeter
G1 X106.683 Y99.885 E1.12281 ; perimeter
G1 X106.552 Y99.998 F18000.000 ; move to first perimeter point
G1 X106.679 Y100.111 F3000.000 E1.12484 ; perimeter
G1 X106.821 Y100.542 F18000.000 ; move inwards before travel
G1 F1560.000 E0.12484 ; retract
G92 E0 ; reset extrusion distance
G1 X96.390 Y100.019 F1375.522 ; move to first perimeter point
G1 F1560.000 E1.00000 ; compensate retraction
G1 X96.503 Y99.979 F3000.000 E1.00143 ; perimeter
G1 X95.081 Y99.979 F784.430 ; move to first perimeter point
G1 X96.390 Y100.019 F3000.000 E1.01716 ; perimeter
G1 X93.447 Y100.002 F7552.569 ; move to first perimeter point
G1 X95.081 Y99.979 F3000.000 E1.03679 ; perimeter
G1 X93.440 Y100.013 F9426.940 ; move to first perimeter point
G1 X93.321 Y99.888 F3000.000 E1.03886 ; perimeter
G1 X93.316 Y100.114 F682.408 ; move to first perimeter point
G1 X93.440 Y100.013 F3000.000 E1.04077 ; perimeter
G1 F1560.000 E0.04077 ; retract
G92 E0 ; reset extrusion distance
G1 Z0.830 F18000.000 ; move to next layer (2)
G1 X108.750 Y97.978 ; move to first perimeter point
G1 F1560.000 E1.00000 ; compensate retraction
G1 X108.854 Y97.887 F3000.000 E1.00166 ; perimeter
G1 X108.973 Y97.816 E1.00333 ; perimeter
G1 X109.102 Y97.768 E1.00499 ; perimeter
G1 X109.239 Y97.744 E1.00665 ; perimeter
G1 X111.554 Y97.744 E1.03446 ; perimeter
G1 X111.840 Y97.784 E1.03793 ; perimeter
G1 X112.115 Y97.869 E1.04139 ; perimeter
G1 X112.373 Y97.999 E1.04486 ; perimeter
G1 X112.631 Y98.190 E1.04872 ; perimeter
G1 X112.869 Y98.451 E1.05295 ; perimeter
G1 X113.050 Y98.754 E1.05719 ; perimeter
G1 X113.166 Y99.086 E1.06143 ; perimeter
G1 X113.215 Y99.436 E1.06566 ; perimeter
G1 X113.216 Y100.532 E1.07883 ; perimeter
G1 X113.187 Y100.819 E1.08230 ; perimeter
G1 X113.122 Y101.068 E1.08539 ; perimeter
G1 X113.036 Y101.275 E1.08808 ; perimeter
G1 X112.924 Y101.470 E1.09078 ; perimeter
G1 X112.788 Y101.649 E1.09348 ; perimeter
G1 X112.532 Y101.892 E1.09772 ; perimeter
G1 X112.261 Y102.064 E1.10157 ; perimeter
G1 X111.964 Y102.184 E1.10542 ; perimeter
G1 X111.650 Y102.248 E1.10928 ; perimeter
G1 X109.254 Y102.257 E1.13805 ; perimeter
G1 X109.001 Y102.197 E1.14118 ; perimeter
G1 X108.794 Y102.065 E1.14413 ; perimeter
G1 X108.633 Y101.860 E1.14726 ; perimeter
G1 X108.483 Y101.482 E1.15214 ; perimeter
G1 X108.342 Y101.211 E1.15582 ; perimeter
G1 X108.194 Y100.991 E1.15900 ; perimeter
G1 X108.025 Y100.789 E1.16216 ; perimeter
G1 X107.800 Y100.574 E1.16590 ; perimeter
G1 X107.568 Y100.400 E1.16939 ; perimeter
G1 X107.337 Y100.263 E1.17261 ; perimeter
G1 X106.973 Y100.087 E1.17747 ; perimeter
G1 X106.973 Y99.913 E1.17956 ; perimeter
G1 X107.359 Y99.726 E1.18472 ; perimeter
G1 X107.623 Y99.562 E1.18845 ; perimeter
G1 X107.884 Y99.352 E1.19247 ; perimeter
G1 X108.112 Y99.112 E1.19645 ; perimeter
G1 X108.386 Y98.712 E1.20227 ; perimeter
G1 X108.501 Y98.475 E1.20543 ; perimeter
G1 X108.612 Y98.181 E1.20921 ; perimeter
G1 X108.705 Y98.030 E1.21135 ; perimeter
G1 X108.750 Y97.978 E1.21216 ; perimeter
G1 F1560.000 E0.21216 ; retract
G92 E0 ; reset extrusion distance
G1 X93.027 Y99.913 F13032.062 ; move to first perimeter point
G1 F1560.000 E1.00000 ; compensate retraction
G1 X93.027 Y100.087 F3000.000 E1.00208 ; perimeter
G1 X92.661 Y100.264 F3000.000 E1.00697 ; perimeter
G1 X92.414 Y100.412 F3000.000 E1.01044 ; perimeter
G1 X92.166 Y100.603 F3000.000 E1.01419 ; perimeter
G1 X91.945 Y100.822 F3000.000 E1.01793 ; perimeter
G1 X91.767 Y101.045 F3000.000 E1.02136 ; perimeter
G1 X91.625 Y101.268 F3000.000 E1.02454 ; perimeter
G1 X91.500 Y101.523 F3000.000 E1.02794 ; perimeter
G1 X91.388 Y101.819 F3000.000 E1.03174 ; perimeter
G1 X91.319 Y101.939 F3000.000 E1.03341 ; perimeter
G1 X91.171 Y102.095 F3000.000 E1.03599 ; perimeter
G1 X90.985 Y102.203 F3000.000 E1.03857 ; perimeter
G1 X90.853 Y102.243 F3000.000 E1.04023 ; perimeter
G1 X90.715 Y102.258 F3000.000 E1.04189 ; perimeter
G1 X88.478 Y102.257 F3000.000 E1.06876 ; perimeter
G1 X88.129 Y102.209 F3000.000 E1.07300 ; perimeter
G1 X87.796 Y102.092 F3000.000 E1.07724 ; perimeter
G1 X87.494 Y101.911 F3000.000 E1.08147 ; perimeter
