; generated by Slic3r 0.9.6-dev on 2012-11-19 at 16:37:54

; This config has a workaround for the extrusion retraction compensation bug for the first layer... be sure to comment out those 3 lines IF the bug has been fixed.

; layer_height = .1
; perimeters = 1
; top_solid_layers = 0
; bottom_solid_layers = 0
; fill_density = 0
; perimeter_speed = 100
; infill_speed = 100
; travel_speed = 100
; scale = 1
; nozzle_diameter = .345
; filament_diameter = 3
; extrusion_multiplier = 1
; perimeters extrusion width = 0.48mm
; infill extrusion width = 0.48mm
; first layer extrusion width = 0.48mm


G90 ; use absolute coordinates
G21 ; set units to millimeters
G92 E0 ; reset extrusion distance
M82 ; use absolute distances for extrusion
G1 E100
G1 E0
G1 Z0.100 F6000.000 ; move to next layer (0)
G1 X90.013 Y158.919 ; move to first perimeter point
G1 X90.241 Y158.787 F6000.000 E0.00172 ; perimeter
G1 X90.434 Y158.745 E0.00301 ; perimeter
G1 X92.151 Y158.741 E0.01423 ; perimeter
G1 X92.304 Y158.787 E0.01526 ; perimeter
G1 X92.422 Y158.916 E0.01641 ; perimeter
G1 X92.551 Y159.021 E0.01749 ; perimeter
G1 X92.703 Y159.087 E0.01858 ; perimeter
G1 X92.859 Y159.109 E0.01961 ; perimeter
G1 X107.141 Y159.109 E0.11286 ; perimeter
G1 X107.297 Y159.087 E0.11389 ; perimeter
G1 X107.449 Y159.021 E0.11497 ; perimeter
G1 X107.578 Y158.916 E0.11606 ; perimeter
G1 X107.696 Y158.787 E0.11720 ; perimeter
G1 X107.811 Y158.744 E0.11800 ; perimeter
G1 X109.566 Y158.745 E0.12946 ; perimeter
G1 X109.759 Y158.787 E0.13075 ; perimeter
G1 X109.987 Y158.919 E0.13247 ; perimeter
G1 X110.157 Y159.121 E0.13419 ; perimeter
G1 X110.247 Y159.368 E0.13591 ; perimeter
G1 X110.255 Y160.566 E0.14373 ; perimeter
G1 X110.187 Y160.820 E0.14545 ; perimeter
G1 X110.036 Y161.036 E0.14717 ; perimeter
G1 X109.821 Y161.187 E0.14889 ; perimeter
G1 X109.566 Y161.255 E0.15061 ; perimeter
G1 X107.849 Y161.259 E0.16182 ; perimeter
G1 X107.696 Y161.213 E0.16286 ; perimeter
G1 X107.578 Y161.084 E0.16400 ; perimeter
G1 X107.449 Y160.979 E0.16509 ; perimeter
G1 X107.297 Y160.913 E0.16617 ; perimeter
G1 X107.141 Y160.891 E0.16720 ; perimeter
G1 X92.859 Y160.891 E0.26045 ; perimeter
G1 X92.703 Y160.913 E0.26148 ; perimeter
G1 X92.551 Y160.979 E0.26257 ; perimeter
G1 X92.422 Y161.084 E0.26365 ; perimeter
G1 X92.304 Y161.213 E0.26480 ; perimeter
G1 X92.189 Y161.256 E0.26559 ; perimeter
G1 X90.434 Y161.255 F547.846 E0.27706 ; perimeter
G1 X90.241 Y161.213 F547.846 E0.27835 ; perimeter
G1 X90.013 Y161.081 F547.846 E0.28007 ; perimeter
G1 X89.843 Y160.879 F547.846 E0.28179 ; perimeter
G1 X89.753 Y160.632 F652.052 E0.28351 ; perimeter
G1 X89.745 Y159.434 F665.000 E0.29133 ; perimeter
G1 X89.813 Y159.180 F767.223 E0.29305 ; perimeter
G1 X89.962 Y158.966 F990.718 E0.29475 ; perimeter
G1 X90.013 Y158.919 F1066.998 E0.29520 ; perimeter
G1 X90.368 Y157.247 F1600.532 ; move to first perimeter point
G1 X90.180 Y157.187 F1689.800 E0.29649 ; perimeter
G1 X90.013 Y157.081 F1849.338 E0.29778 ; perimeter
G1 X89.879 Y156.935 F2049.933 E0.29908 ; perimeter
G1 X89.787 Y156.759 F2187.044 E0.30037 ; perimeter
G1 X89.741 Y156.495 F2255.985 E0.30212 ; perimeter
G1 X89.741 Y155.505 F6000.000 E0.30858 ; perimeter
G1 X89.787 Y155.241 F935.532 E0.31034 ; perimeter
G1 X89.919 Y155.013 F935.532 E0.31206 ; perimeter
G1 X90.121 Y154.843 F935.532 E0.31378 ; perimeter
G1 X90.241 Y154.787 F935.532 E0.31464 ; perimeter
G1 X90.434 Y154.745 F1038.576 E0.31593 ; perimeter
G1 X92.212 Y154.744 F3706.019 E0.32754 ; perimeter
G1 X92.332 Y154.791 F3885.114 E0.32838 ; perimeter
G1 X92.432 Y154.892 F4035.880 E0.32931 ; perimeter
G1 X92.560 Y154.977 F4228.428 E0.33031 ; perimeter
G1 X92.776 Y155.026 F4551.911 E0.33176 ; perimeter
G1 X107.224 Y155.026 F6000.000 E0.42610 ; perimeter
G1 X107.440 Y154.977 E0.42754 ; perimeter
G1 X107.568 Y154.892 E0.42855 ; perimeter
G1 X107.668 Y154.791 E0.42947 ; perimeter
G1 X107.788 Y154.744 E0.43031 ; perimeter
G1 X109.566 Y154.745 E0.44192 ; perimeter
G1 X109.696 Y154.768 E0.44279 ; perimeter
G1 X109.879 Y154.843 E0.44408 ; perimeter
G1 X110.081 Y155.013 E0.44580 ; perimeter
G1 X110.213 Y155.241 E0.44752 ; perimeter
G1 X110.259 Y155.505 E0.44927 ; perimeter
G1 X110.259 Y156.495 E0.45573 ; perimeter
G1 X110.213 Y156.759 E0.45749 ; perimeter
G1 X110.121 Y156.935 E0.45878 ; perimeter
G1 X109.987 Y157.081 E0.46007 ; perimeter
G1 X109.759 Y157.213 E0.46179 ; perimeter
G1 X109.566 Y157.255 E0.46308 ; perimeter
G1 X107.788 Y157.256 E0.47469 ; perimeter
G1 X107.668 Y157.209 E0.47553 ; perimeter
G1 X107.568 Y157.108 E0.47646 ; perimeter
G1 X107.440 Y157.023 E0.47747 ; perimeter
G1 X107.224 Y156.974 E0.47891 ; perimeter
G1 X92.776 Y156.974 E0.57325 ; perimeter
G1 X92.560 Y157.023 E0.57469 ; perimeter
G1 X92.432 Y157.108 E0.57570 ; perimeter
G1 X92.332 Y157.209 E0.57663 ; perimeter
G1 X92.212 Y157.256 E0.57746 ; perimeter
G1 X90.437 Y157.256 F423.724 E0.58906 ; perimeter
G1 X90.368 Y157.247 F423.724 E0.58951 ; perimeter
G1 X90.505 Y153.259 F423.724 ; move to first perimeter point
G1 X90.304 Y153.232 F423.724 E0.59083 ; perimeter
G1 X90.121 Y153.157 F423.724 E0.59213 ; perimeter
G1 X89.964 Y153.036 F552.750 E0.59342 ; perimeter
G1 X89.813 Y152.820 F779.346 E0.59514 ; perimeter
G1 X89.745 Y152.566 F881.594 E0.59686 ; perimeter
G1 X89.741 Y151.505 F886.268 E0.60378 ; perimeter
G1 X89.787 Y151.241 F666.969 E0.60554 ; perimeter
G1 X89.843 Y151.121 F666.969 E0.60640 ; perimeter
G1 X89.964 Y150.964 F666.969 E0.60769 ; perimeter
G1 X90.121 Y150.843 F666.969 E0.60899 ; perimeter
G1 X90.241 Y150.787 F748.793 E0.60985 ; perimeter
G1 X90.505 Y150.741 F1145.678 E0.61160 ; perimeter
G1 X92.206 Y150.743 F2551.432 E0.62271 ; perimeter
G1 X92.314 Y150.781 F2712.581 E0.62345 ; perimeter
G1 X92.432 Y150.895 F2890.040 E0.62453 ; perimeter
G1 X92.563 Y150.983 F3086.334 E0.62555 ; perimeter
G1 X92.783 Y151.034 F3417.239 E0.62703 ; perimeter
G1 X107.216 Y151.034 F6000.000 E0.72127 ; perimeter
G1 X107.437 Y150.983 E0.72275 ; perimeter
G1 X107.568 Y150.895 E0.72378 ; perimeter
G1 X107.686 Y150.781 E0.72486 ; perimeter
G1 X107.794 Y150.743 E0.72560 ; perimeter
G1 X109.495 Y150.741 E0.73670 ; perimeter
G1 X109.759 Y150.787 E0.73846 ; perimeter
G1 X109.879 Y150.843 E0.73932 ; perimeter
G1 X110.036 Y150.964 E0.74061 ; perimeter
G1 X110.157 Y151.121 E0.74191 ; perimeter
G1 X110.213 Y151.241 E0.74277 ; perimeter
G1 X110.259 Y151.505 E0.74452 ; perimeter
G1 X110.259 Y152.495 E0.75098 ; perimeter
G1 X110.213 Y152.759 E0.75274 ; perimeter
G1 X110.121 Y152.935 E0.75403 ; perimeter
G1 X109.987 Y153.081 E0.75532 ; perimeter
G1 X109.759 Y153.213 E0.75704 ; perimeter
G1 X109.566 Y153.255 E0.75833 ; perimeter
G1 X107.794 Y153.257 E0.76991 ; perimeter
G1 X107.686 Y153.219 F4251.244 E0.77065 ; perimeter
G1 X107.568 Y153.105 F4251.244 E0.77172 ; perimeter
G1 X107.437 Y153.017 F4251.244 E0.77275 ; perimeter
G1 X107.217 Y152.966 F4251.244 E0.77423 ; perimeter
G1 X92.784 Y152.966 F6000.000 E0.86847 ; perimeter
G1 X92.563 Y153.017 F4251.244 E0.86995 ; perimeter
G1 X92.432 Y153.105 F4251.244 E0.87098 ; perimeter
G1 X92.314 Y153.219 F4251.244 E0.87205 ; perimeter
G1 X92.206 Y153.257 F4251.244 E0.87280 ; perimeter
G1 X90.575 Y153.259 F4251.244 E0.88345 ; perimeter
G1 X90.505 Y153.259 F6000.000 E0.88390 ; perimeter
G1 X90.505 Y149.259 F6000.000 ; move to first perimeter point
G1 X90.304 Y149.232 F438.744 E0.88523 ; perimeter
G1 X90.121 Y149.157 F438.744 E0.88652 ; perimeter
G1 X89.964 Y149.036 F438.744 E0.88781 ; perimeter
G1 X89.813 Y148.820 F560.047 E0.88953 ; perimeter
G1 X89.745 Y148.566 F662.295 E0.89125 ; perimeter
G1 X89.741 Y147.505 F666.969 E0.89818 ; perimeter
G1 X89.787 Y147.241 F735.907 E0.89993 ; perimeter
G1 X89.879 Y147.065 F873.010 E0.90123 ; perimeter
G1 X89.964 Y146.964 F1000.452 E0.90209 ; perimeter
G1 X90.121 Y146.843 F1236.025 E0.90338 ; perimeter
G1 X90.241 Y146.787 F1415.631 E0.90424 ; perimeter
G1 X90.505 Y146.741 F1812.647 E0.90600 ; perimeter
G1 X92.204 Y146.743 F2548.629 E0.91709 ; perimeter
G1 X92.313 Y146.781 F2710.920 E0.91784 ; perimeter
G1 X92.432 Y146.898 F2889.911 E0.91893 ; perimeter
G1 X92.565 Y146.989 F3089.860 E0.91998 ; perimeter
G1 X92.791 Y147.041 F3428.528 E0.92150 ; perimeter
G1 X107.209 Y147.041 F6000.000 E1.01564 ; perimeter
G1 X107.435 Y146.989 E1.01715 ; perimeter
G1 X107.568 Y146.898 E1.01821 ; perimeter
G1 X107.687 Y146.781 E1.01930 ; perimeter
G1 X107.796 Y146.743 E1.02004 ; perimeter
G1 X109.495 Y146.741 E1.03114 ; perimeter
G1 X109.759 Y146.787 E1.03289 ; perimeter
G1 X109.879 Y146.843 E1.03375 ; perimeter
G1 X110.036 Y146.964 E1.03505 ; perimeter
G1 X110.157 Y147.121 E1.03634 ; perimeter
G1 X110.213 Y147.241 E1.03720 ; perimeter
G1 X110.259 Y147.505 E1.03896 ; perimeter
G1 X110.259 Y148.495 E1.04542 ; perimeter
G1 X110.213 Y148.759 E1.04717 ; perimeter
G1 X110.121 Y148.935 E1.04846 ; perimeter
G1 X109.987 Y149.081 E1.04976 ; perimeter
G1 X109.759 Y149.213 E1.05147 ; perimeter
G1 X109.566 Y149.255 E1.05277 ; perimeter
G1 X107.796 Y149.257 E1.06433 ; perimeter
G1 X107.687 Y149.219 F4251.199 E1.06508 ; perimeter
G1 X107.568 Y149.102 F4251.199 E1.06617 ; perimeter
G1 X107.435 Y149.011 F4251.199 E1.06722 ; perimeter
G1 X107.209 Y148.959 F4251.199 E1.06873 ; perimeter
G1 X92.791 Y148.959 F6000.000 E1.16287 ; perimeter
G1 X92.565 Y149.011 F4251.199 E1.16439 ; perimeter
G1 X92.432 Y149.102 F4251.199 E1.16544 ; perimeter
G1 X92.313 Y149.219 F4251.199 E1.16653 ; perimeter
G1 X92.204 Y149.257 F4251.199 E1.16728 ; perimeter
G1 X90.575 Y149.259 F4251.199 E1.17792 ; perimeter
G1 X90.505 Y149.259 F6000.000 E1.17837 ; perimeter
G1 X90.505 Y145.259 F6000.000 ; move to first perimeter point
G1 X90.304 Y145.232 F450.000 E1.17970 ; perimeter
G1 X90.121 Y145.157 F450.000 E1.18099 ; perimeter
G1 X89.964 Y145.036 F450.000 E1.18229 ; perimeter
G1 X89.813 Y144.820 F560.067 E1.18400 ; perimeter
G1 X89.745 Y144.566 F662.289 E1.18572 ; perimeter
G1 X89.741 Y143.505 F666.963 E1.19265 ; perimeter
G1 X89.787 Y143.241 F735.901 E1.19440 ; perimeter
G1 X89.879 Y143.065 F873.004 E1.19570 ; perimeter
G1 X89.964 Y142.964 F1000.446 E1.19656 ; perimeter
G1 X90.121 Y142.843 F1236.019 E1.19785 ; perimeter
G1 X90.241 Y142.787 F1415.625 E1.19872 ; perimeter
G1 X90.505 Y142.741 F1812.641 E1.20047 ; perimeter
G1 X92.191 Y142.744 F2528.364 E1.21148 ; perimeter
G1 X92.305 Y142.786 F2699.147 E1.21227 ; perimeter
G1 X92.549 Y143.015 F3065.384 E1.21446 ; perimeter
G1 X92.698 Y143.080 F3289.799 E1.21552 ; perimeter
G1 X92.852 Y143.101 F3519.831 E1.21653 ; perimeter
G1 X107.148 Y143.101 F6000.000 E1.30988 ; perimeter
G1 X107.301 Y143.080 E1.31089 ; perimeter
G1 X107.451 Y143.015 E1.31195 ; perimeter
G1 X107.695 Y142.786 E1.31414 ; perimeter
G1 X107.809 Y142.744 E1.31493 ; perimeter
G1 X109.495 Y142.741 E1.32594 ; perimeter
G1 X109.759 Y142.787 E1.32769 ; perimeter
G1 X109.879 Y142.843 E1.32856 ; perimeter
G1 X110.036 Y142.964 E1.32985 ; perimeter
G1 X110.157 Y143.121 E1.33114 ; perimeter
G1 X110.213 Y143.241 E1.33200 ; perimeter
G1 X110.259 Y143.505 E1.33376 ; perimeter
G1 X110.259 Y144.495 E1.34022 ; perimeter
G1 X110.213 Y144.759 E1.34197 ; perimeter
G1 X110.121 Y144.935 E1.34326 ; perimeter
G1 X109.935 Y145.121 E1.34498 ; perimeter
G1 X109.759 Y145.213 E1.34628 ; perimeter
G1 X109.566 Y145.255 E1.34757 ; perimeter
G1 X107.809 Y145.256 E1.35904 ; perimeter
G1 X107.695 Y145.214 F4250.833 E1.35983 ; perimeter
G1 X107.451 Y144.985 F4250.833 E1.36202 ; perimeter
G1 X107.302 Y144.920 F4250.833 E1.36308 ; perimeter
G1 X107.148 Y144.899 F4250.833 E1.36410 ; perimeter
G1 X92.852 Y144.899 F6000.000 E1.45744 ; perimeter
G1 X92.699 Y144.920 F4250.833 E1.45845 ; perimeter
G1 X92.549 Y144.985 F4250.833 E1.45952 ; perimeter
G1 X92.305 Y145.214 F4250.833 E1.46171 ; perimeter
G1 X92.191 Y145.256 F4250.833 E1.46250 ; perimeter
G1 X90.575 Y145.259 F4250.833 E1.47305 ; perimeter
G1 X90.505 Y145.259 F6000.000 E1.47350 ; perimeter
G1 X90.505 Y141.259 F6000.000 ; move to first perimeter point
G1 X90.304 Y141.232 F540.000 E1.47483 ; perimeter
G1 X90.121 Y141.157 F540.000 E1.47612 ; perimeter
G1 X89.964 Y141.036 F540.000 E1.47742 ; perimeter
G1 X89.813 Y140.820 F560.067 E1.47914 ; perimeter
G1 X89.745 Y140.566 F662.289 E1.48086 ; perimeter
G1 X89.741 Y139.505 F666.963 E1.48778 ; perimeter
G1 X89.787 Y139.241 F735.901 E1.48954 ; perimeter
G1 X89.879 Y139.065 F873.004 E1.49083 ; perimeter
G1 X89.964 Y138.964 F1000.446 E1.49169 ; perimeter
G1 X90.121 Y138.843 F1236.019 E1.49298 ; perimeter
G1 X90.241 Y138.787 F1415.625 E1.49385 ; perimeter
G1 X90.505 Y138.741 F1812.641 E1.49560 ; perimeter
G1 X92.189 Y138.744 F2526.161 E1.50660 ; perimeter
G1 X92.304 Y138.787 F2697.834 E1.50739 ; perimeter
G1 X92.422 Y138.916 F2891.723 E1.50854 ; perimeter
G1 X92.551 Y139.021 F3084.854 E1.50962 ; perimeter
G1 X92.703 Y139.087 F3313.317 E1.51071 ; perimeter
G1 X92.859 Y139.109 F3547.813 E1.51174 ; perimeter
G1 X107.141 Y139.109 F6000.000 E1.60499 ; perimeter
G1 X107.297 Y139.087 E1.60602 ; perimeter
G1 X107.449 Y139.021 E1.60710 ; perimeter
G1 X107.578 Y138.916 E1.60819 ; perimeter
G1 X107.696 Y138.787 E1.60933 ; perimeter
G1 X107.811 Y138.744 E1.61013 ; perimeter
G1 X109.495 Y138.741 E1.62112 ; perimeter
G1 X109.759 Y138.787 E1.62288 ; perimeter
G1 X109.879 Y138.843 E1.62374 ; perimeter
G1 X110.036 Y138.964 E1.62503 ; perimeter
G1 X110.157 Y139.121 E1.62633 ; perimeter
G1 X110.213 Y139.241 E1.62719 ; perimeter
G1 X110.259 Y139.505 E1.62894 ; perimeter
G1 X110.259 Y140.495 E1.63540 ; perimeter
G1 X110.213 Y140.759 E1.63716 ; perimeter
G1 X110.121 Y140.935 E1.63845 ; perimeter
G1 X109.935 Y141.121 E1.64017 ; perimeter
G1 X109.759 Y141.213 E1.64146 ; perimeter
G1 X109.566 Y141.255 E1.64275 ; perimeter
G1 X107.811 Y141.256 E1.65422 ; perimeter
G1 X107.696 Y141.213 F4250.781 E1.65501 ; perimeter
G1 X107.578 Y141.084 F4250.781 E1.65616 ; perimeter
G1 X107.449 Y140.979 F4250.781 E1.65724 ; perimeter
G1 X107.297 Y140.913 F4250.781 E1.65832 ; perimeter
G1 X107.141 Y140.891 F4250.781 E1.65936 ; perimeter
G1 X92.859 Y140.891 F6000.000 E1.75261 ; perimeter
G1 X92.703 Y140.913 F4250.781 E1.75364 ; perimeter
G1 X92.551 Y140.979 F4250.781 E1.75472 ; perimeter
G1 X92.422 Y141.084 F4250.781 E1.75580 ; perimeter
G1 X92.304 Y141.213 F4250.781 E1.75695 ; perimeter
G1 X92.189 Y141.256 F4250.781 E1.75775 ; perimeter
G1 X90.575 Y141.259 F4250.781 E1.76829 ; perimeter
G1 X90.505 Y141.259 F6000.000 E1.76874 ; perimeter
G1 X90.505 Y137.259 F6000.000 ; move to first perimeter point
G1 X90.304 Y137.232 F551.256 E1.77007 ; perimeter
G1 X90.121 Y137.157 F551.256 E1.77136 ; perimeter
G1 X89.964 Y137.036 F551.256 E1.77265 ; perimeter
G1 X89.813 Y136.820 F560.067 E1.77437 ; perimeter
G1 X89.745 Y136.566 F662.289 E1.77609 ; perimeter
G1 X89.741 Y135.505 F666.963 E1.78302 ; perimeter
G1 X89.787 Y135.241 F735.901 E1.78477 ; perimeter
G1 X89.879 Y135.065 F873.004 E1.78607 ; perimeter
G1 X89.964 Y134.964 F1000.446 E1.78693 ; perimeter
G1 X90.121 Y134.843 F1236.019 E1.78822 ; perimeter
G1 X90.241 Y134.787 F1415.625 E1.78908 ; perimeter
G1 X90.505 Y134.741 F1812.641 E1.79084 ; perimeter
G1 X92.188 Y134.744 F2523.970 E1.80182 ; perimeter
G1 X92.303 Y134.787 F2696.586 E1.80263 ; perimeter
G1 X92.422 Y134.919 F2893.757 E1.80378 ; perimeter
G1 X92.552 Y135.026 F3089.873 E1.80489 ; perimeter
G1 X92.707 Y135.094 F3322.338 E1.80599 ; perimeter
G1 X92.867 Y135.116 F3561.168 E1.80704 ; perimeter
G1 X107.133 Y135.116 F6000.000 E1.90020 ; perimeter
G1 X107.293 Y135.094 E1.90125 ; perimeter
G1 X107.448 Y135.026 E1.90235 ; perimeter
G1 X107.578 Y134.919 E1.90346 ; perimeter
G1 X107.697 Y134.787 E1.90461 ; perimeter
G1 X107.812 Y134.744 E1.90542 ; perimeter
G1 X109.495 Y134.741 E1.91640 ; perimeter
G1 X109.759 Y134.787 E1.91816 ; perimeter
G1 X109.879 Y134.843 E1.91902 ; perimeter
