; generated by Slic3r 0.9.6-dev on 2012-11-19 at 20:21:04

; This config has a workaround for the extrusion retraction compensation bug for the first layer... be sure to comment out those 3 lines IF the bug has been fixed.

; layer_height = .1
; perimeters = 1
; top_solid_layers = 0
; bottom_solid_layers = 0
; fill_density = 0
; perimeter_speed = 100
; infill_speed = 100
; travel_speed = 100
; scale = 1
; nozzle_diameter = .345
; filament_diameter = 3
; extrusion_multiplier = 1
; perimeters extrusion width = 0.48mm
; infill extrusion width = 0.48mm
; first layer extrusion width = 0.48mm

G92 E0
G1 E100
G1 E0
G90 ; use absolute coordinates
G21 ; set units to millimeters
G92 E0 ; reset extrusion distance
M82 ; use absolute distances for extrusion
G1 Z0.100 F6000.000 ; move to next layer (0)
G1 X120.241 Y114.741 ; move to first perimeter point
G1 X122.784 Y114.741 F6000.000 E0.01660 ; perimeter
G1 X122.921 Y114.977 E0.01838 ; perimeter
G1 X123.088 Y115.138 E0.01989 ; perimeter
G1 X123.296 Y115.242 E0.02141 ; perimeter
G1 X123.539 Y115.281 E0.02302 ; perimeter
G1 X128.507 Y115.280 E0.05546 ; perimeter
G1 X128.734 Y115.232 E0.05697 ; perimeter
G1 X128.937 Y115.119 E0.05849 ; perimeter
G1 X129.089 Y114.964 E0.05990 ; perimeter
G1 X129.216 Y114.741 E0.06158 ; perimeter
G1 X131.759 Y114.741 E0.07818 ; perimeter
G1 X131.759 Y117.259 E0.09461 ; perimeter
G1 X129.216 Y117.259 E0.11121 ; perimeter
G1 X129.079 Y117.023 F3813.213 E0.11299 ; perimeter
G1 X128.912 Y116.862 F3813.213 E0.11451 ; perimeter
G1 X128.705 Y116.758 F3813.213 E0.11602 ; perimeter
G1 X128.461 Y116.719 F3813.213 E0.11763 ; perimeter
G1 X123.493 Y116.720 F3775.501 E0.15007 ; perimeter
G1 X123.266 Y116.768 F3775.501 E0.15159 ; perimeter
G1 X123.063 Y116.881 F3775.501 E0.15310 ; perimeter
G1 X122.911 Y117.036 F3775.501 E0.15452 ; perimeter
G1 X122.784 Y117.259 F3775.501 E0.15620 ; perimeter
G1 X120.241 Y117.259 F6000.000 E0.17279 ; perimeter
G1 X120.241 Y114.811 E0.18878 ; perimeter
G1 X120.241 Y114.741 E0.18923 ; perimeter
G1 X120.241 Y113.259 F6000.000 ; move to first perimeter point
G1 X120.241 Y110.741 F6000.000 E0.20566 ; perimeter
G1 X122.778 Y110.741 F3804.301 E0.22222 ; perimeter
G1 X122.929 Y111.021 F4223.427 E0.22430 ; perimeter
G1 X123.119 Y111.211 F4508.838 E0.22606 ; perimeter
G1 X123.358 Y111.335 F4867.081 E0.22781 ; perimeter
G1 X123.639 Y111.381 F5288.293 E0.22967 ; perimeter
G1 X128.428 Y111.379 F6000.000 E0.26094 ; perimeter
G1 X128.674 Y111.324 E0.26259 ; perimeter
G1 X128.908 Y111.191 E0.26434 ; perimeter
G1 X129.081 Y111.007 E0.26599 ; perimeter
G1 X129.222 Y110.741 E0.26796 ; perimeter
G1 X131.759 Y110.741 E0.28452 ; perimeter
G1 X131.759 Y113.259 E0.30095 ; perimeter
G1 X129.222 Y113.259 E0.31751 ; perimeter
G1 X129.071 Y112.979 F3804.445 E0.31959 ; perimeter
G1 X128.881 Y112.789 F3804.445 E0.32134 ; perimeter
G1 X128.642 Y112.665 F3804.445 E0.32310 ; perimeter
G1 X128.361 Y112.619 F3804.445 E0.32496 ; perimeter
G1 X123.572 Y112.621 F3775.501 E0.35623 ; perimeter
G1 X123.326 Y112.676 F3775.501 E0.35787 ; perimeter
G1 X123.092 Y112.809 F3775.501 E0.35963 ; perimeter
G1 X122.919 Y112.993 F3775.501 E0.36128 ; perimeter
G1 X122.778 Y113.259 F3775.501 E0.36324 ; perimeter
G1 X120.311 Y113.259 F6000.000 E0.37935 ; perimeter
G1 X120.241 Y113.259 E0.37980 ; perimeter
G1 X120.241 Y109.259 F6000.000 ; move to first perimeter point
G1 X120.241 Y106.741 F6000.000 E0.39624 ; perimeter
G1 X122.777 Y106.741 F3803.398 E0.41280 ; perimeter
G1 X122.935 Y107.062 F4284.441 E0.41513 ; perimeter
G1 X123.149 Y107.283 F4616.042 E0.41714 ; perimeter
G1 X123.419 Y107.428 F5022.522 E0.41914 ; perimeter
G1 X123.578 Y107.468 F5259.532 E0.42020 ; perimeter
G1 X123.739 Y107.481 F5501.562 E0.42126 ; perimeter
G1 X128.351 Y107.477 F6000.000 E0.45137 ; perimeter
G1 X128.648 Y107.402 E0.45338 ; perimeter
G1 X128.894 Y107.249 E0.45527 ; perimeter
G1 X129.085 Y107.032 E0.45716 ; perimeter
G1 X129.223 Y106.741 E0.45926 ; perimeter
G1 X131.759 Y106.741 E0.47581 ; perimeter
G1 X131.759 Y109.259 E0.49225 ; perimeter
G1 X129.223 Y109.259 E0.50880 ; perimeter
G1 X129.065 Y108.938 F3803.293 E0.51114 ; perimeter
G1 X128.851 Y108.717 F3803.293 E0.51314 ; perimeter
G1 X128.580 Y108.572 F3803.293 E0.51515 ; perimeter
G1 X128.422 Y108.532 F3803.293 E0.51621 ; perimeter
G1 X128.261 Y108.519 F3803.293 E0.51727 ; perimeter
G1 X123.649 Y108.523 F3775.501 E0.54738 ; perimeter
G1 X123.352 Y108.598 F3775.501 E0.54939 ; perimeter
G1 X123.106 Y108.751 F3775.501 E0.55127 ; perimeter
G1 X122.915 Y108.968 F3775.501 E0.55316 ; perimeter
G1 X122.777 Y109.259 F3775.501 E0.55526 ; perimeter
G1 X120.311 Y109.259 F6000.000 E0.57137 ; perimeter
G1 X120.241 Y109.259 E0.57182 ; perimeter
G1 X120.241 Y105.259 F6000.000 ; move to first perimeter point
G1 X120.241 Y102.741 F6000.000 E0.58825 ; perimeter
G1 X122.774 Y102.741 F3799.413 E0.60479 ; perimeter
G1 X122.856 Y102.949 F4111.141 E0.60625 ; perimeter
G1 X122.941 Y103.101 F4338.481 E0.60738 ; perimeter
G1 X123.048 Y103.237 F4542.565 E0.60852 ; perimeter
G1 X123.177 Y103.354 F4734.724 E0.60965 ; perimeter
G1 X123.322 Y103.449 F4952.421 E0.61078 ; perimeter
G1 X123.480 Y103.520 F5190.240 E0.61192 ; perimeter
G1 X123.648 Y103.564 F5441.880 E0.61305 ; perimeter
G1 X123.839 Y103.581 F5728.245 E0.61430 ; perimeter
G1 X128.276 Y103.575 F6000.000 E0.64327 ; perimeter
G1 X128.592 Y103.492 E0.64540 ; perimeter
G1 X128.868 Y103.317 E0.64754 ; perimeter
G1 X129.080 Y103.068 E0.64967 ; perimeter
G1 X129.226 Y102.741 E0.65201 ; perimeter
G1 X131.759 Y102.741 E0.66855 ; perimeter
G1 X131.759 Y105.259 E0.68498 ; perimeter
G1 X129.226 Y105.259 E0.70152 ; perimeter
G1 X129.144 Y105.051 F3799.388 E0.70298 ; perimeter
G1 X129.059 Y104.899 F3799.388 E0.70411 ; perimeter
G1 X128.952 Y104.763 F3799.388 E0.70525 ; perimeter
G1 X128.823 Y104.646 F3799.388 E0.70638 ; perimeter
G1 X128.678 Y104.551 F3799.388 E0.70751 ; perimeter
G1 X128.520 Y104.480 F3799.388 E0.70865 ; perimeter
G1 X128.352 Y104.436 F3799.388 E0.70978 ; perimeter
G1 X128.161 Y104.418 F3799.388 E0.71103 ; perimeter
G1 X123.724 Y104.425 F3775.501 E0.74000 ; perimeter
G1 X123.408 Y104.508 F3775.501 E0.74214 ; perimeter
G1 X123.132 Y104.683 F3775.501 E0.74427 ; perimeter
G1 X122.920 Y104.932 F3775.501 E0.74640 ; perimeter
G1 X122.774 Y105.259 F3775.501 E0.74874 ; perimeter
G1 X120.311 Y105.259 F6000.000 E0.76483 ; perimeter
G1 X120.241 Y105.259 E0.76528 ; perimeter
G1 X120.241 Y101.259 F6000.000 ; move to first perimeter point
G1 X120.241 Y98.741 F6000.000 E0.78171 ; perimeter
G1 X122.772 Y98.741 F3795.792 E0.79824 ; perimeter
G1 X122.852 Y98.962 F4126.116 E0.79977 ; perimeter
G1 X122.938 Y99.126 F4372.696 E0.80098 ; perimeter
G1 X123.062 Y99.291 F4619.403 E0.80232 ; perimeter
G1 X123.196 Y99.418 F4821.171 E0.80353 ; perimeter
G1 X123.349 Y99.523 F5050.346 E0.80474 ; perimeter
G1 X123.536 Y99.610 F5330.324 E0.80609 ; perimeter
G1 X123.735 Y99.664 F5628.660 E0.80743 ; perimeter
G1 X123.939 Y99.681 F5934.830 E0.80877 ; perimeter
G1 X128.204 Y99.673 F6000.000 E0.83662 ; perimeter
G1 X128.378 Y99.638 E0.83778 ; perimeter
G1 X128.541 Y99.579 E0.83891 ; perimeter
G1 X128.703 Y99.491 E0.84012 ; perimeter
G1 X128.851 Y99.378 E0.84133 ; perimeter
G1 X128.965 Y99.259 E0.84240 ; perimeter
G1 X129.073 Y99.109 E0.84361 ; perimeter
G1 X129.228 Y98.741 E0.84622 ; perimeter
G1 X131.759 Y98.741 E0.86274 ; perimeter
G1 X131.759 Y101.259 E0.87917 ; perimeter
G1 X129.228 Y101.259 E0.89570 ; perimeter
G1 X129.148 Y101.038 F3795.960 E0.89723 ; perimeter
G1 X129.062 Y100.874 F3795.960 E0.89844 ; perimeter
G1 X128.952 Y100.725 F3795.960 E0.89965 ; perimeter
G1 X128.804 Y100.582 F3795.960 E0.90099 ; perimeter
G1 X128.651 Y100.477 F3795.960 E0.90220 ; perimeter
G1 X128.464 Y100.390 F3795.960 E0.90355 ; perimeter
G1 X128.265 Y100.336 F3795.960 E0.90489 ; perimeter
G1 X128.061 Y100.319 F3795.960 E0.90623 ; perimeter
G1 X123.796 Y100.327 F3775.501 E0.93408 ; perimeter
G1 X123.622 Y100.362 F3775.501 E0.93524 ; perimeter
G1 X123.459 Y100.421 F3775.501 E0.93637 ; perimeter
G1 X123.297 Y100.509 F3775.501 E0.93758 ; perimeter
G1 X123.149 Y100.622 F3775.501 E0.93879 ; perimeter
G1 X123.035 Y100.741 F3775.501 E0.93986 ; perimeter
G1 X122.927 Y100.891 F3775.501 E0.94107 ; perimeter
G1 X122.772 Y101.259 F3775.501 E0.94368 ; perimeter
G1 X120.311 Y101.259 F6000.000 E0.95975 ; perimeter
G1 X120.241 Y101.259 E0.96020 ; perimeter
G1 X120.241 Y97.258 F6000.000 ; move to first perimeter point
G1 X120.241 Y94.741 F6000.000 E0.97663 ; perimeter
G1 X122.768 Y94.741 F3790.171 E0.99313 ; perimeter
G1 X122.862 Y95.005 F4185.952 E0.99496 ; perimeter
G1 X122.964 Y95.196 F4472.145 E0.99637 ; perimeter
G1 X123.106 Y95.377 F4743.679 E0.99788 ; perimeter
G1 X123.273 Y95.526 F4994.186 E0.99934 ; perimeter
G1 X123.456 Y95.641 F5269.402 E1.00075 ; perimeter
G1 X123.636 Y95.716 F5538.646 E1.00202 ; perimeter
G1 X124.217 Y95.834 F6000.000 E1.00589 ; perimeter
G1 X124.217 Y96.166 E1.00806 ; perimeter
G1 X123.636 Y96.284 E1.01194 ; perimeter
G1 X123.456 Y96.359 E1.01321 ; perimeter
G1 X123.273 Y96.474 E1.01462 ; perimeter
G1 X123.096 Y96.633 E1.01617 ; perimeter
G1 X122.964 Y96.804 E1.01758 ; perimeter
G1 X122.862 Y96.995 E1.01899 ; perimeter
G1 X122.768 Y97.258 E1.02082 ; perimeter
G1 X120.311 Y97.258 E1.03687 ; perimeter
G1 X120.241 Y97.258 E1.03732 ; perimeter
G1 X120.241 Y93.258 F6000.000 ; move to first perimeter point
G1 X120.241 Y90.741 F6000.000 E1.05376 ; perimeter
G1 X122.768 Y90.741 E1.07025 ; perimeter
G1 X122.925 Y91.157 E1.07315 ; perimeter
G1 X123.031 Y91.324 E1.07444 ; perimeter
G1 X123.155 Y91.469 E1.07569 ; perimeter
G1 X123.291 Y91.590 E1.07688 ; perimeter
G1 X123.462 Y91.704 E1.07822 ; perimeter
G1 X123.912 Y91.899 E1.08142 ; perimeter
G1 X123.912 Y92.101 E1.08273 ; perimeter
G1 X123.423 Y92.319 E1.08623 ; perimeter
G1 X123.238 Y92.453 E1.08772 ; perimeter
G1 X123.078 Y92.616 E1.08921 ; perimeter
G1 X122.894 Y92.904 E1.09144 ; perimeter
G1 X122.768 Y93.258 E1.09390 ; perimeter
G1 X120.311 Y93.258 E1.10994 ; perimeter
G1 X120.241 Y93.258 E1.11040 ; perimeter
G1 X120.241 Y89.258 F6000.000 ; move to first perimeter point
G1 X120.241 Y86.741 F6000.000 E1.12683 ; perimeter
G1 X122.767 Y86.741 E1.14332 ; perimeter
G1 X122.898 Y87.127 E1.14598 ; perimeter
G1 X123.103 Y87.450 E1.14848 ; perimeter
G1 X123.365 Y87.696 E1.15082 ; perimeter
G1 X123.757 Y87.928 E1.15380 ; perimeter
G1 X123.757 Y88.073 F5832.914 E1.15475 ; perimeter
G1 X123.327 Y88.333 F5832.914 E1.15803 ; perimeter
G1 X123.167 Y88.478 F5832.914 E1.15944 ; perimeter
G1 X123.044 Y88.625 F5832.914 E1.16069 ; perimeter
G1 X122.878 Y88.916 F5832.914 E1.16288 ; perimeter
G1 X122.767 Y89.258 F5832.914 E1.16523 ; perimeter
G1 X120.311 Y89.258 F6000.000 E1.18127 ; perimeter
G1 X120.241 Y89.258 E1.18172 ; perimeter
G1 X120.241 Y85.258 F6000.000 ; move to first perimeter point
G1 X120.241 Y82.741 F6000.000 E1.19816 ; perimeter
G1 X122.767 Y82.741 F5832.914 E1.21465 ; perimeter
G1 X122.891 Y83.134 F5832.914 E1.21734 ; perimeter
G1 X123.081 Y83.458 F5832.914 E1.21979 ; perimeter
G1 X123.323 Y83.712 F5832.914 E1.22208 ; perimeter
G1 X123.725 Y84.000 F5846.204 E1.22531 ; perimeter
G1 X123.323 Y84.289 F5846.204 E1.22853 ; perimeter
G1 X123.082 Y84.542 F5846.204 E1.23082 ; perimeter
G1 X122.891 Y84.866 F5846.204 E1.23327 ; perimeter
G1 X122.767 Y85.258 F5846.204 E1.23596 ; perimeter
G1 X120.311 Y85.258 F6000.000 E1.25200 ; perimeter
G1 X120.241 Y85.258 E1.25246 ; perimeter
G1 X118.759 Y85.258 F6000.000 ; move to first perimeter point
G1 X116.233 Y85.258 F6000.000 E1.26894 ; perimeter
G1 X116.107 Y84.864 F5846.204 E1.27165 ; perimeter
G1 X115.914 Y84.540 F5846.204 E1.27411 ; perimeter
G1 X115.669 Y84.287 F5846.204 E1.27641 ; perimeter
G1 X115.259 Y84.000 F5846.204 E1.27968 ; perimeter
G1 X115.669 Y83.713 F5846.204 E1.28295 ; perimeter
G1 X115.914 Y83.460 F5846.204 E1.28525 ; perimeter
G1 X116.107 Y83.136 F5846.204 E1.28771 ; perimeter
G1 X116.233 Y82.741 F5846.204 E1.29042 ; perimeter
G1 X118.759 Y82.741 F5846.204 E1.30690 ; perimeter
G1 X118.759 Y85.189 F3787.642 E1.32289 ; perimeter
G1 X118.759 Y85.258 F3787.642 E1.32334 ; perimeter
G1 X118.759 Y86.741 F3671.655 ; move to first perimeter point
G1 X118.759 Y89.258 F3775.501 E1.33977 ; perimeter
G1 X116.232 Y89.258 F6000.000 E1.35627 ; perimeter
G1 X116.103 Y88.877 F3775.501 E1.35890 ; perimeter
G1 X115.899 Y88.556 F3775.501 E1.36138 ; perimeter
G1 X115.639 Y88.312 F3775.501 E1.36371 ; perimeter
G1 X115.232 Y88.072 F3775.501 E1.36679 ; perimeter
G1 X115.232 Y87.928 F3775.501 E1.36774 ; perimeter
G1 X115.658 Y87.673 F3775.501 E1.37097 ; perimeter
G1 X115.802 Y87.549 F3775.501 E1.37222 ; perimeter
G1 X115.943 Y87.388 F3775.501 E1.37362 ; perimeter
G1 X116.113 Y87.101 F3775.501 E1.37579 ; perimeter
G1 X116.232 Y86.741 F3775.501 E1.37827 ; perimeter
G1 X118.689 Y86.741 F5185.602 E1.39431 ; perimeter
G1 X118.759 Y86.741 F3685.538 E1.39476 ; perimeter
G1 X118.759 Y90.741 F6000.000 ; move to first perimeter point
G1 X118.759 Y93.258 F6000.000 E1.41120 ; perimeter
G1 X116.232 Y93.258 F6000.000 E1.42769 ; perimeter
G1 X116.076 Y92.847 E1.43057 ; perimeter
G1 X115.966 Y92.676 E1.43190 ; perimeter
G1 X115.832 Y92.522 E1.43323 ; perimeter
G1 X115.676 Y92.390 E1.43456 ; perimeter
G1 X115.523 Y92.294 E1.43574 ; perimeter
G1 X115.068 Y92.105 E1.43896 ; perimeter
G1 X115.068 Y91.895 E1.44033 ; perimeter
G1 X115.562 Y91.684 F3775.501 E1.44384 ; perimeter
G1 X115.748 Y91.554 F3775.501 E1.44532 ; perimeter
G1 X115.909 Y91.395 F3775.501 E1.44680 ; perimeter
G1 X116.097 Y91.113 F3775.501 E1.44901 ; perimeter
G1 X116.232 Y90.741 F3775.501 E1.45159 ; perimeter
G1 X118.689 Y90.741 F5432.133 E1.46764 ; perimeter
G1 X118.759 Y90.741 F3686.051 E1.46809 ; perimeter
G1 X118.759 Y94.741 F6000.000 ; move to first perimeter point
G1 X118.759 Y97.258 F6000.000 E1.48452 ; perimeter
G1 X116.232 Y97.258 F6000.000 E1.50102 ; perimeter
G1 X116.136 Y96.993 E1.50286 ; perimeter
G1 X116.033 Y96.803 E1.50428 ; perimeter
G1 X115.884 Y96.616 E1.50583 ; perimeter
G1 X115.703 Y96.461 E1.50739 ; perimeter
G1 X115.516 Y96.352 E1.50881 ; perimeter
G1 X115.313 Y96.276 E1.51022 ; perimeter
G1 X114.715 Y96.185 E1.51417 ; perimeter
G1 X114.716 Y95.815 F3775.501 E1.51659 ; perimeter
G1 X115.313 Y95.724 F3775.501 E1.52053 ; perimeter
G1 X115.516 Y95.648 F3775.501 E1.52195 ; perimeter
G1 X115.703 Y95.539 F3775.501 E1.52337 ; perimeter
G1 X115.884 Y95.384 F3775.501 E1.52492 ; perimeter
G1 X116.033 Y95.197 F3775.501 E1.52648 ; perimeter
G1 X116.136 Y95.007 F3775.501 E1.52789 ; perimeter
G1 X116.232 Y94.741 F3775.501 E1.52974 ; perimeter
G1 X118.689 Y94.741 F5960.666 E1.54578 ; perimeter
G1 X118.759 Y94.741 F3686.187 E1.54623 ; perimeter
G1 X111.285 Y95.815 F3686.187 ; move to first perimeter point
G1 X111.284 Y96.185 F3686.187 E1.54865 ; perimeter
G1 X110.687 Y96.276 F3686.187 E1.55260 ; perimeter
G1 X110.484 Y96.352 F3686.187 E1.55401 ; perimeter
G1 X110.297 Y96.461 F3686.187 E1.55543 ; perimeter
G1 X110.116 Y96.616 F3686.187 E1.55699 ; perimeter
G1 X109.967 Y96.803 F3686.187 E1.55854 ; perimeter
G1 X109.864 Y96.993 F3686.187 E1.55996 ; perimeter
G1 X109.768 Y97.258 F3775.501 E1.56180 ; perimeter
G1 X107.241 Y97.258 F6000.000 E1.57830 ; perimeter
G1 X107.241 Y94.741 E1.59473 ; perimeter
G1 X109.768 Y94.741 F3789.991 E1.61123 ; perimeter
G1 X109.864 Y95.007 F4187.587 E1.61307 ; perimeter
G1 X109.967 Y95.197 F4473.729 E1.61449 ; perimeter
G1 X110.101 Y95.368 F4729.539 E1.61590 ; perimeter
G1 X110.279 Y95.526 F4997.094 E1.61746 ; perimeter
G1 X110.464 Y95.639 F5275.005 E1.61887 ; perimeter
G1 X110.666 Y95.718 F5577.582 E1.62029 ; perimeter
G1 X111.216 Y95.806 F6000.000 E1.62393 ; perimeter
G1 X111.285 Y95.815 E1.62438 ; perimeter
