; generated by Slic3r 0.9.6-dev on 2012-11-20 at 15:05:24

; This config has a workaround for the extrusion retraction compensation bug for the first layer... be sure to comment out those 3 lines IF the bug has been fixed.

; layer_height = .1
; perimeters = 1
; top_solid_layers = 0
; bottom_solid_layers = 0
; fill_density = 0
; perimeter_speed = 100
; infill_speed = 100
; travel_speed = 100
; scale = 1
; nozzle_diameter = .345
; filament_diameter = 3
; extrusion_multiplier = 1
; perimeters extrusion width = 0.48mm
; infill extrusion width = 0.48mm
; first layer extrusion width = 0.48mm

G92 E0
G1 E100
G1 E0
G90 ; use absolute coordinates
G21 ; set units to millimeters
G92 E0 ; reset extrusion distance
M82 ; use absolute distances for extrusion
G1 Z0.100 F6000.000 ; move to next layer (0)
G1 X114.741 Y114.741 ; move to first perimeter point
G1 X116.290 Y114.741 F6000.000 E0.01011 ; perimeter
G1 X116.412 Y114.982 E0.01187 ; perimeter
G1 X116.593 Y115.163 E0.01354 ; perimeter
G1 X116.822 Y115.279 E0.01522 ; perimeter
G1 X117.056 Y115.316 E0.01677 ; perimeter
G1 X121.944 Y115.316 E0.04868 ; perimeter
G1 X122.178 Y115.279 E0.05023 ; perimeter
G1 X122.407 Y115.163 E0.05190 ; perimeter
G1 X122.588 Y114.982 E0.05358 ; perimeter
G1 X122.710 Y114.741 E0.05534 ; perimeter
G1 X124.259 Y114.741 E0.06545 ; perimeter
G1 X124.259 Y117.259 F3775.501 E0.08188 ; perimeter
G1 X122.710 Y117.259 F6000.000 E0.09199 ; perimeter
G1 X122.588 Y117.018 F3775.501 E0.09375 ; perimeter
G1 X122.407 Y116.837 F3775.501 E0.09542 ; perimeter
G1 X122.178 Y116.721 F3775.501 E0.09710 ; perimeter
G1 X121.944 Y116.684 F3775.501 E0.09865 ; perimeter
G1 X117.056 Y116.684 F6000.000 E0.13056 ; perimeter
G1 X116.822 Y116.721 F3775.501 E0.13211 ; perimeter
G1 X116.593 Y116.837 F3775.501 E0.13379 ; perimeter
G1 X116.412 Y117.018 F3775.501 E0.13546 ; perimeter
G1 X116.290 Y117.259 F3775.501 E0.13722 ; perimeter
G1 X114.741 Y117.259 F6000.000 E0.14733 ; perimeter
G1 X114.741 Y114.811 E0.16331 ; perimeter
G1 X114.741 Y114.741 E0.16376 ; perimeter
G1 X114.741 Y113.259 F6000.000 ; move to first perimeter point
G1 X114.741 Y110.741 F6000.000 E0.18020 ; perimeter
G1 X116.279 Y110.741 F2305.904 E0.19023 ; perimeter
G1 X116.431 Y111.040 F2754.367 E0.19243 ; perimeter
G1 X116.635 Y111.244 F3059.511 E0.19430 ; perimeter
G1 X116.891 Y111.375 F3443.992 E0.19618 ; perimeter
G1 X117.156 Y111.416 F3841.709 E0.19794 ; perimeter
G1 X121.844 Y111.416 F6000.000 E0.22855 ; perimeter
G1 X122.109 Y111.375 E0.23030 ; perimeter
G1 X122.365 Y111.244 E0.23218 ; perimeter
G1 X122.569 Y111.040 E0.23406 ; perimeter
G1 X122.721 Y110.741 E0.23625 ; perimeter
G1 X124.259 Y110.741 E0.24628 ; perimeter
G1 X124.259 Y113.259 F3775.501 E0.26272 ; perimeter
G1 X122.721 Y113.259 F6000.000 E0.27276 ; perimeter
G1 X122.569 Y112.960 F3775.501 E0.27495 ; perimeter
G1 X122.365 Y112.756 F3775.501 E0.27683 ; perimeter
G1 X122.109 Y112.625 F3775.501 E0.27870 ; perimeter
G1 X121.844 Y112.584 F3775.501 E0.28046 ; perimeter
G1 X117.156 Y112.584 F6000.000 E0.31107 ; perimeter
G1 X116.891 Y112.625 F3775.501 E0.31282 ; perimeter
G1 X116.635 Y112.756 F3775.501 E0.31470 ; perimeter
G1 X116.431 Y112.960 F3775.501 E0.31658 ; perimeter
G1 X116.279 Y113.259 F3775.501 E0.31877 ; perimeter
G1 X114.811 Y113.259 F6000.000 E0.32835 ; perimeter
G1 X114.741 Y113.259 E0.32880 ; perimeter
G1 X114.741 Y109.259 F6000.000 ; move to first perimeter point
G1 X114.741 Y106.741 F6000.000 E0.34524 ; perimeter
G1 X116.268 Y106.741 F2289.618 E0.35521 ; perimeter
G1 X116.450 Y107.099 F2826.252 E0.35783 ; perimeter
G1 X116.676 Y107.325 F3164.588 E0.35991 ; perimeter
G1 X116.960 Y107.470 F3590.889 E0.36199 ; perimeter
G1 X117.256 Y107.516 F4034.946 E0.36395 ; perimeter
G1 X121.744 Y107.516 F6000.000 E0.39325 ; perimeter
G1 X122.040 Y107.470 E0.39521 ; perimeter
G1 X122.324 Y107.325 E0.39729 ; perimeter
G1 X122.550 Y107.099 E0.39938 ; perimeter
G1 X122.732 Y106.741 E0.40200 ; perimeter
G1 X124.259 Y106.741 E0.41197 ; perimeter
G1 X124.259 Y109.259 F3775.501 E0.42840 ; perimeter
G1 X122.732 Y109.259 F6000.000 E0.43837 ; perimeter
G1 X122.550 Y108.901 F3775.501 E0.44099 ; perimeter
G1 X122.324 Y108.675 F3775.501 E0.44307 ; perimeter
G1 X122.040 Y108.530 F3775.501 E0.44515 ; perimeter
G1 X121.744 Y108.483 F3775.501 E0.44711 ; perimeter
G1 X117.256 Y108.483 F6000.000 E0.47642 ; perimeter
G1 X116.960 Y108.530 F3775.501 E0.47837 ; perimeter
G1 X116.676 Y108.675 F3775.501 E0.48045 ; perimeter
G1 X116.450 Y108.901 F3775.501 E0.48254 ; perimeter
G1 X116.268 Y109.259 F3775.501 E0.48516 ; perimeter
G1 X114.811 Y109.259 F6000.000 E0.49467 ; perimeter
G1 X114.741 Y109.259 E0.49513 ; perimeter
G1 X114.741 Y105.259 F6000.000 ; move to first perimeter point
G1 X114.741 Y102.741 F6000.000 E0.51156 ; perimeter
G1 X116.275 Y102.741 F2299.693 E0.52157 ; perimeter
G1 X116.406 Y103.059 F2776.380 E0.52382 ; perimeter
G1 X116.584 Y103.291 F3123.882 E0.52572 ; perimeter
G1 X116.816 Y103.469 F3471.385 E0.52763 ; perimeter
G1 X117.085 Y103.580 F3876.045 E0.52954 ; perimeter
G1 X117.359 Y103.616 F4286.586 E0.53134 ; perimeter
G1 X121.641 Y103.616 F6000.000 E0.55930 ; perimeter
G1 X121.915 Y103.580 E0.56110 ; perimeter
G1 X122.184 Y103.469 E0.56301 ; perimeter
G1 X122.416 Y103.291 E0.56491 ; perimeter
G1 X122.594 Y103.059 E0.56682 ; perimeter
G1 X122.725 Y102.741 E0.56906 ; perimeter
G1 X124.259 Y102.741 E0.57908 ; perimeter
G1 X124.259 Y105.259 F3775.501 E0.59551 ; perimeter
G1 X122.725 Y105.259 F6000.000 E0.60552 ; perimeter
G1 X122.594 Y104.941 F3775.501 E0.60777 ; perimeter
G1 X122.416 Y104.709 F3775.501 E0.60967 ; perimeter
G1 X122.184 Y104.531 F3775.501 E0.61158 ; perimeter
G1 X121.915 Y104.420 F3775.501 E0.61349 ; perimeter
G1 X121.641 Y104.384 F3775.501 E0.61529 ; perimeter
G1 X117.359 Y104.384 F6000.000 E0.64325 ; perimeter
G1 X117.085 Y104.420 F3775.501 E0.64505 ; perimeter
G1 X116.816 Y104.531 F3775.501 E0.64695 ; perimeter
G1 X116.584 Y104.709 F3775.501 E0.64886 ; perimeter
G1 X116.406 Y104.941 F3775.501 E0.65077 ; perimeter
G1 X116.275 Y105.259 F3775.501 E0.65301 ; perimeter
G1 X114.811 Y105.259 F6000.000 E0.66257 ; perimeter
G1 X114.741 Y105.259 E0.66302 ; perimeter
G1 X114.741 Y101.259 F6000.000 ; move to first perimeter point
G1 X114.741 Y98.741 F6000.000 E0.67946 ; perimeter
G1 X116.267 Y98.741 F2288.746 E0.68942 ; perimeter
G1 X116.420 Y99.109 F2840.438 E0.69202 ; perimeter
G1 X116.613 Y99.362 F3218.998 E0.69410 ; perimeter
G1 X116.866 Y99.555 F3597.570 E0.69618 ; perimeter
G1 X117.160 Y99.677 F4038.415 E0.69825 ; perimeter
G1 X117.459 Y99.716 F4487.767 E0.70023 ; perimeter
G1 X121.541 Y99.716 F6000.000 E0.72688 ; perimeter
G1 X121.840 Y99.677 E0.72885 ; perimeter
G1 X122.134 Y99.555 E0.73093 ; perimeter
G1 X122.387 Y99.362 E0.73300 ; perimeter
G1 X122.580 Y99.109 E0.73508 ; perimeter
G1 X122.733 Y98.741 E0.73768 ; perimeter
G1 X124.259 Y98.741 E0.74764 ; perimeter
G1 X124.259 Y101.259 F3775.501 E0.76408 ; perimeter
G1 X122.733 Y101.259 F6000.000 E0.77404 ; perimeter
G1 X122.580 Y100.891 F3775.501 E0.77664 ; perimeter
G1 X122.387 Y100.638 F3775.501 E0.77872 ; perimeter
G1 X122.134 Y100.445 F3775.501 E0.78079 ; perimeter
G1 X121.840 Y100.323 F3775.501 E0.78287 ; perimeter
G1 X121.541 Y100.284 F3775.501 E0.78484 ; perimeter
G1 X117.459 Y100.284 F6000.000 E0.81150 ; perimeter
G1 X117.160 Y100.323 F3775.501 E0.81347 ; perimeter
G1 X116.866 Y100.445 F3775.501 E0.81555 ; perimeter
G1 X116.613 Y100.638 F3775.501 E0.81762 ; perimeter
G1 X116.420 Y100.891 F3775.501 E0.81970 ; perimeter
G1 X116.267 Y101.259 F3775.501 E0.82230 ; perimeter
G1 X114.811 Y101.259 F6000.000 E0.83181 ; perimeter
G1 X114.741 Y101.259 E0.83226 ; perimeter
G1 X114.741 Y97.258 F6000.000 ; move to first perimeter point
G1 X114.741 Y94.741 F6000.000 E0.84870 ; perimeter
G1 X116.260 Y94.741 F2277.789 E0.85861 ; perimeter
G1 X116.433 Y95.159 F2904.477 E0.86156 ; perimeter
G1 X116.643 Y95.432 F3314.107 E0.86381 ; perimeter
G1 X116.916 Y95.642 F3723.739 E0.86606 ; perimeter
G1 X117.780 Y96.000 F5020.443 E0.87217 ; perimeter
G1 X116.916 Y96.358 F5020.443 E0.87828 ; perimeter
G1 X116.643 Y96.568 F5020.443 E0.88053 ; perimeter
G1 X116.433 Y96.841 F5020.443 E0.88277 ; perimeter
G1 X116.260 Y97.258 F5020.443 E0.88573 ; perimeter
G1 X114.811 Y97.258 F6000.000 E0.89519 ; perimeter
G1 X114.741 Y97.258 E0.89564 ; perimeter
G1 X114.741 Y93.258 F6000.000 ; move to first perimeter point
G1 X114.741 Y90.741 F6000.000 E0.91208 ; perimeter
G1 X116.267 Y90.741 F5020.443 E0.92203 ; perimeter
G1 X116.397 Y91.115 F5020.443 E0.92462 ; perimeter
G1 X116.566 Y91.384 F5020.443 E0.92669 ; perimeter
G1 X116.791 Y91.609 F5020.443 E0.92877 ; perimeter
G1 X117.060 Y91.778 F5020.443 E0.93084 ; perimeter
G1 X117.695 Y92.000 F5020.443 E0.93524 ; perimeter
G1 X117.060 Y92.222 F4945.075 E0.93963 ; perimeter
G1 X116.791 Y92.391 F4945.075 E0.94171 ; perimeter
G1 X116.566 Y92.616 F4945.075 E0.94378 ; perimeter
G1 X116.397 Y92.885 F4945.075 E0.94585 ; perimeter
G1 X116.267 Y93.258 F4945.075 E0.94844 ; perimeter
G1 X114.811 Y93.258 F6000.000 E0.95794 ; perimeter
G1 X114.741 Y93.258 E0.95840 ; perimeter
G1 X114.741 Y89.258 F6000.000 ; move to first perimeter point
G1 X114.741 Y86.741 F6000.000 E0.97483 ; perimeter
G1 X116.261 Y86.741 F4945.075 E0.98476 ; perimeter
G1 X116.407 Y87.159 F4945.075 E0.98764 ; perimeter
G1 X116.588 Y87.446 F4945.075 E0.98986 ; perimeter
G1 X116.829 Y87.687 F4945.075 E0.99208 ; perimeter
G1 X117.327 Y88.000 F4945.075 E0.99592 ; perimeter
G1 X116.829 Y88.313 F4445.327 E0.99977 ; perimeter
G1 X116.588 Y88.554 F4445.327 E1.00199 ; perimeter
G1 X116.407 Y88.841 F4445.327 E1.00421 ; perimeter
G1 X116.261 Y89.258 F4445.327 E1.00709 ; perimeter
G1 X114.811 Y89.258 F6000.000 E1.01656 ; perimeter
G1 X114.741 Y89.258 E1.01701 ; perimeter
G1 X114.741 Y85.258 F6000.000 ; move to first perimeter point
G1 X114.741 Y82.741 F6000.000 E1.03345 ; perimeter
G1 X116.256 Y82.741 F4445.327 E1.04334 ; perimeter
G1 X116.417 Y83.202 F4445.327 E1.04652 ; perimeter
G1 X116.610 Y83.509 F4445.327 E1.04889 ; perimeter
G1 X116.866 Y83.765 F4445.327 E1.05126 ; perimeter
G1 X117.240 Y84.000 F4445.327 E1.05414 ; perimeter
G1 X116.866 Y84.235 F4368.078 E1.05702 ; perimeter
G1 X116.610 Y84.491 F4368.078 E1.05939 ; perimeter
G1 X116.417 Y84.798 F4368.078 E1.06176 ; perimeter
G1 X116.256 Y85.258 F4368.078 E1.06494 ; perimeter
G1 X114.811 Y85.258 F6000.000 E1.07438 ; perimeter
G1 X114.741 Y85.258 E1.07483 ; perimeter
G1 X111.259 Y85.258 F6000.000 ; move to first perimeter point
G1 X109.743 Y85.258 F6000.000 E1.08473 ; perimeter
G1 X109.585 Y84.809 F4368.078 E1.08784 ; perimeter
G1 X109.395 Y84.507 F4368.078 E1.09017 ; perimeter
G1 X109.143 Y84.255 F4368.078 E1.09250 ; perimeter
G1 X108.738 Y84.000 F4368.078 E1.09562 ; perimeter
G1 X109.143 Y83.745 F4368.078 E1.09874 ; perimeter
G1 X109.395 Y83.493 F4368.078 E1.10107 ; perimeter
G1 X109.585 Y83.191 F4368.078 E1.10340 ; perimeter
G1 X109.743 Y82.741 F4368.078 E1.10651 ; perimeter
G1 X111.259 Y82.741 F4368.078 E1.11641 ; perimeter
G1 X111.259 Y85.189 F3671.655 E1.13239 ; perimeter
G1 X111.259 Y85.258 F3775.501 E1.13285 ; perimeter
G1 X111.259 Y86.741 F3671.655 ; move to first perimeter point
G1 X111.259 Y89.258 F3775.501 E1.14928 ; perimeter
G1 X109.737 Y89.258 F6000.000 E1.15921 ; perimeter
G1 X109.595 Y88.852 F3775.501 E1.16202 ; perimeter
G1 X109.417 Y88.569 F3775.501 E1.16421 ; perimeter
G1 X109.181 Y88.333 F3775.501 E1.16639 ; perimeter
G1 X108.651 Y88.000 F3775.501 E1.17047 ; perimeter
G1 X109.181 Y87.667 F3775.501 E1.17456 ; perimeter
G1 X109.417 Y87.431 F3775.501 E1.17674 ; perimeter
G1 X109.595 Y87.148 F3775.501 E1.17892 ; perimeter
G1 X109.737 Y86.741 F3775.501 E1.18173 ; perimeter
G1 X111.189 Y86.741 F3806.829 E1.19121 ; perimeter
G1 X111.259 Y86.741 F2962.675 E1.19167 ; perimeter
G1 X111.259 Y90.741 F6000.000 ; move to first perimeter point
G1 X111.259 Y93.258 F6000.000 E1.20810 ; perimeter
G1 X109.745 Y93.258 F6000.000 E1.21798 ; perimeter
G1 X109.557 Y92.803 E1.22120 ; perimeter
G1 X109.335 Y92.515 E1.22357 ; perimeter
G1 X109.047 Y92.293 E1.22595 ; perimeter
G1 X108.339 Y92.000 E1.23095 ; perimeter
G1 X109.047 Y91.707 F3775.501 E1.23595 ; perimeter
G1 X109.335 Y91.485 F3775.501 E1.23833 ; perimeter
G1 X109.557 Y91.197 F3775.501 E1.24070 ; perimeter
G1 X109.745 Y90.741 F3775.501 E1.24392 ; perimeter
G1 X111.189 Y90.741 F4275.257 E1.25335 ; perimeter
G1 X111.259 Y90.741 F3496.491 E1.25380 ; perimeter
G1 X111.259 Y94.741 F6000.000 ; move to first perimeter point
G1 X111.259 Y97.258 F6000.000 E1.27023 ; perimeter
G1 X109.738 Y97.258 F6000.000 E1.28016 ; perimeter
G1 X109.570 Y96.853 E1.28302 ; perimeter
G1 X109.365 Y96.585 E1.28523 ; perimeter
G1 X109.097 Y96.380 E1.28743 ; perimeter
G1 X108.785 Y96.250 E1.28964 ; perimeter
G1 X106.882 Y96.000 E1.30217 ; perimeter
G1 X108.785 Y95.750 F3775.501 E1.31470 ; perimeter
G1 X109.097 Y95.620 F3775.501 E1.31690 ; perimeter
G1 X109.365 Y95.415 F3775.501 E1.31911 ; perimeter
G1 X109.570 Y95.147 F4032.071 E1.32131 ; perimeter
G1 X109.738 Y94.741 F4283.874 E1.32418 ; perimeter
G1 X111.189 Y94.741 F6000.000 E1.33365 ; perimeter
G1 X111.259 Y94.741 F5721.983 E1.33411 ; perimeter
G1 X106.118 Y96.000 F2176.686 ; move to first perimeter point
G1 X104.215 Y96.250 F2263.493 E1.34664 ; perimeter
G1 X103.903 Y96.380 F2457.327 E1.34884 ; perimeter
G1 X103.635 Y96.585 F2765.700 E1.35105 ; perimeter
G1 X103.430 Y96.853 F3167.562 E1.35325 ; perimeter
G1 X103.262 Y97.258 F3775.501 E1.35612 ; perimeter
G1 X101.741 Y97.258 F6000.000 E1.36604 ; perimeter
G1 X101.741 Y94.741 E1.38248 ; perimeter
G1 X103.262 Y94.741 F3775.501 E1.39240 ; perimeter
G1 X103.430 Y95.147 F3775.501 E1.39527 ; perimeter
G1 X103.635 Y95.415 F3775.501 E1.39747 ; perimeter
G1 X103.903 Y95.620 F3775.501 E1.39968 ; perimeter
G1 X104.215 Y95.750 F4160.169 E1.40188 ; perimeter
G1 X106.049 Y95.991 F6000.000 E1.41396 ; perimeter
G1 X106.118 Y96.000 E1.41441 ; perimeter
G1 X103.269 Y98.741 F6000.000 ; move to first perimeter point
G1 X103.416 Y99.097 F6000.000 E1.41692 ; perimeter
G1 X103.606 Y99.344 E1.41896 ; perimeter
G1 X103.853 Y99.534 E1.42099 ; perimeter
G1 X104.141 Y99.653 E1.42303 ; perimeter
G1 X104.434 Y99.691 E1.42496 ; perimeter
G1 X108.566 Y99.691 E1.45194 ; perimeter
G1 X108.859 Y99.653 E1.45387 ; perimeter
G1 X109.147 Y99.534 E1.45590 ; perimeter
G1 X109.394 Y99.344 E1.45793 ; perimeter
G1 X109.584 Y99.097 E1.45997 ; perimeter
G1 X109.731 Y98.741 E1.46248 ; perimeter
G1 X111.259 Y98.741 E1.47245 ; perimeter
G1 X111.259 Y101.259 F3775.501 E1.48889 ; perimeter
G1 X109.731 Y101.259 F6000.000 E1.49886 ; perimeter
G1 X109.584 Y100.903 F3775.501 E1.50138 ; perimeter
G1 X109.394 Y100.656 F3775.501 E1.50341 ; perimeter
G1 X109.147 Y100.466 F3775.501 E1.50544 ; perimeter
G1 X108.859 Y100.347 F3775.501 E1.50748 ; perimeter
G1 X108.566 Y100.309 F3775.501 E1.50941 ; perimeter
G1 X104.434 Y100.309 F6000.000 E1.53639 ; perimeter
G1 X104.141 Y100.347 F3775.501 E1.53832 ; perimeter
G1 X103.853 Y100.466 F3775.501 E1.54035 ; perimeter
G1 X103.606 Y100.656 F3775.501 E1.54239 ; perimeter
G1 X103.416 Y100.903 F3775.501 E1.54442 ; perimeter
G1 X103.269 Y101.259 F3775.501 E1.54693 ; perimeter
G1 X101.741 Y101.259 F6000.000 E1.55691 ; perimeter
G1 X101.741 Y98.741 E1.57334 ; perimeter
G1 X103.200 Y98.741 F2187.639 E1.58286 ; perimeter
G1 X103.269 Y98.741 F2187.639 E1.58332 ; perimeter
G1 X103.276 Y102.741 F6000.000 ; move to first perimeter point
G1 X103.403 Y103.047 F6000.000 E1.58547 ; perimeter
G1 X103.577 Y103.273 F6000.000 E1.58734 ; perimeter
G1 X103.803 Y103.447 E1.58920 ; perimeter
G1 X104.067 Y103.556 E1.59107 ; perimeter
G1 X104.334 Y103.591 E1.59282 ; perimeter
G1 X108.666 Y103.591 E1.62111 ; perimeter
G1 X108.933 Y103.556 E1.62287 ; perimeter
