; generated by Slic3r 0.9.6-dev on 2012-11-19 at 16:50:37

; This config has a workaround for the extrusion retraction compensation bug for the first layer... be sure to comment out those 3 lines IF the bug has been fixed.

; layer_height = .1
; perimeters = 1
; top_solid_layers = 0
; bottom_solid_layers = 0
; fill_density = 0
; perimeter_speed = 100
; infill_speed = 100
; travel_speed = 100
; scale = 1
; nozzle_diameter = .345
; filament_diameter = 3
; extrusion_multiplier = 1
; perimeters extrusion width = 0.48mm
; infill extrusion width = 0.48mm
; first layer extrusion width = 0.48mm

G92 E0
G1 E100
G1 E0
G90 ; use absolute coordinates
G21 ; set units to millimeters
G92 E0 ; reset extrusion distance
M82 ; use absolute distances for extrusion
G1 Z0.100 F6000.000 ; move to next layer (0)
G1 X120.241 Y116.741 ; move to first perimeter point
G1 X122.791 Y116.741 F6000.000 E0.01664 ; perimeter
G1 X122.957 Y116.991 E0.01860 ; perimeter
G1 X123.182 Y117.141 E0.02037 ; perimeter
G1 X123.424 Y117.189 E0.02198 ; perimeter
G1 X128.576 Y117.189 E0.05562 ; perimeter
G1 X128.818 Y117.141 E0.05723 ; perimeter
G1 X129.043 Y116.991 E0.05900 ; perimeter
G1 X129.209 Y116.741 E0.06095 ; perimeter
G1 X131.759 Y116.741 E0.07760 ; perimeter
G1 X131.759 Y119.259 F3823.573 E0.09403 ; perimeter
G1 X129.209 Y119.259 F6000.000 E0.11067 ; perimeter
G1 X129.043 Y119.009 F3823.573 E0.11263 ; perimeter
G1 X128.818 Y118.859 F3823.573 E0.11440 ; perimeter
G1 X128.576 Y118.811 F3823.573 E0.11601 ; perimeter
G1 X123.424 Y118.811 F6000.000 E0.14965 ; perimeter
G1 X123.182 Y118.859 F3775.501 E0.15126 ; perimeter
G1 X122.957 Y119.009 F3775.501 E0.15303 ; perimeter
G1 X122.791 Y119.259 F3775.501 E0.15498 ; perimeter
G1 X120.241 Y119.259 F6000.000 E0.17163 ; perimeter
G1 X120.241 Y116.811 E0.18761 ; perimeter
G1 X120.241 Y116.741 E0.18806 ; perimeter
G1 X120.241 Y115.259 F6000.000 ; move to first perimeter point
G1 X120.241 Y112.741 F6000.000 E0.20450 ; perimeter
G1 X122.793 Y112.741 F3826.659 E0.22115 ; perimeter
G1 X122.907 Y112.966 F4162.704 E0.22279 ; perimeter
G1 X123.082 Y113.141 F4425.543 E0.22441 ; perimeter
G1 X123.303 Y113.253 F4756.715 E0.22603 ; perimeter
G1 X123.528 Y113.289 F5095.243 E0.22752 ; perimeter
G1 X128.472 Y113.289 F6000.000 E0.25980 ; perimeter
G1 X128.697 Y113.253 E0.26129 ; perimeter
G1 X128.918 Y113.141 E0.26291 ; perimeter
G1 X129.093 Y112.966 E0.26453 ; perimeter
G1 X129.207 Y112.741 E0.26617 ; perimeter
G1 X131.759 Y112.741 E0.28282 ; perimeter
G1 X131.759 Y115.259 F3826.662 E0.29926 ; perimeter
G1 X129.207 Y115.259 F6000.000 E0.31592 ; perimeter
G1 X129.093 Y115.034 F3826.662 E0.31756 ; perimeter
G1 X128.918 Y114.859 F3826.662 E0.31918 ; perimeter
G1 X128.697 Y114.747 F3826.662 E0.32079 ; perimeter
G1 X128.471 Y114.711 F3826.662 E0.32229 ; perimeter
G1 X123.528 Y114.711 F6000.000 E0.35456 ; perimeter
G1 X123.303 Y114.747 F3775.501 E0.35605 ; perimeter
G1 X123.082 Y114.859 F3775.501 E0.35767 ; perimeter
G1 X122.907 Y115.034 F3775.501 E0.35929 ; perimeter
G1 X122.793 Y115.259 F3775.501 E0.36093 ; perimeter
G1 X120.311 Y115.259 F6000.000 E0.37714 ; perimeter
G1 X120.241 Y115.259 E0.37759 ; perimeter
G1 X120.241 Y111.259 F6000.000 ; move to first perimeter point
G1 X120.241 Y108.741 F6000.000 E0.39402 ; perimeter
G1 X122.782 Y108.741 F3810.369 E0.41061 ; perimeter
G1 X122.926 Y109.024 F4234.582 E0.41268 ; perimeter
G1 X123.123 Y109.222 F4530.605 E0.41451 ; perimeter
G1 X123.372 Y109.348 F4903.585 E0.41633 ; perimeter
G1 X123.628 Y109.389 F5288.460 E0.41802 ; perimeter
G1 X128.372 Y109.389 F6000.000 E0.44899 ; perimeter
G1 X128.628 Y109.348 E0.45069 ; perimeter
G1 X128.877 Y109.222 E0.45251 ; perimeter
G1 X129.074 Y109.024 E0.45433 ; perimeter
G1 X129.218 Y108.741 E0.45641 ; perimeter
G1 X131.759 Y108.741 E0.47299 ; perimeter
G1 X131.759 Y111.259 F3810.373 E0.48943 ; perimeter
G1 X129.218 Y111.259 F6000.000 E0.50601 ; perimeter
G1 X129.074 Y110.976 F3810.373 E0.50809 ; perimeter
G1 X128.877 Y110.778 F3810.373 E0.50991 ; perimeter
G1 X128.628 Y110.652 F3810.373 E0.51173 ; perimeter
G1 X128.371 Y110.611 F3810.373 E0.51343 ; perimeter
G1 X123.628 Y110.611 F6000.000 E0.54440 ; perimeter
G1 X123.372 Y110.652 F3775.501 E0.54609 ; perimeter
G1 X123.123 Y110.778 F3775.501 E0.54792 ; perimeter
G1 X122.926 Y110.976 F3775.501 E0.54974 ; perimeter
G1 X122.782 Y111.259 F3775.501 E0.55181 ; perimeter
G1 X120.311 Y111.259 F6000.000 E0.56795 ; perimeter
G1 X120.241 Y111.259 E0.56840 ; perimeter
G1 X120.241 Y107.259 F6000.000 ; move to first perimeter point
G1 X120.241 Y104.741 F6000.000 E0.58483 ; perimeter
G1 X122.771 Y104.741 F3794.113 E0.60135 ; perimeter
G1 X122.945 Y105.083 F4306.491 E0.60385 ; perimeter
G1 X123.164 Y105.303 F4635.695 E0.60588 ; perimeter
G1 X123.441 Y105.443 F5050.507 E0.60790 ; perimeter
G1 X123.728 Y105.489 F5481.741 E0.60980 ; perimeter
G1 X128.272 Y105.489 F6000.000 E0.63947 ; perimeter
G1 X128.559 Y105.443 E0.64137 ; perimeter
G1 X128.836 Y105.303 E0.64340 ; perimeter
G1 X129.055 Y105.083 E0.64542 ; perimeter
G1 X129.229 Y104.741 E0.64793 ; perimeter
G1 X131.759 Y104.741 E0.66444 ; perimeter
G1 X131.759 Y107.259 F3794.115 E0.68088 ; perimeter
G1 X129.229 Y107.259 F6000.000 E0.69739 ; perimeter
G1 X129.055 Y106.917 F3794.115 E0.69989 ; perimeter
G1 X128.836 Y106.697 F3794.115 E0.70192 ; perimeter
G1 X128.559 Y106.557 F3794.115 E0.70395 ; perimeter
G1 X128.272 Y106.511 F3794.115 E0.70585 ; perimeter
G1 X123.728 Y106.511 F6000.000 E0.73551 ; perimeter
G1 X123.441 Y106.557 F3775.501 E0.73741 ; perimeter
G1 X123.164 Y106.697 F3775.501 E0.73944 ; perimeter
G1 X122.945 Y106.917 F3775.501 E0.74147 ; perimeter
G1 X122.771 Y107.259 F3775.501 E0.74397 ; perimeter
G1 X120.311 Y107.259 F6000.000 E0.76003 ; perimeter
G1 X120.241 Y107.259 E0.76048 ; perimeter
G1 X120.241 Y103.259 F6000.000 ; move to first perimeter point
G1 X120.241 Y100.741 F6000.000 E0.77692 ; perimeter
G1 X122.777 Y100.741 F3802.740 E0.79347 ; perimeter
G1 X122.903 Y101.046 F4258.809 E0.79562 ; perimeter
G1 X123.076 Y101.272 F4597.749 E0.79748 ; perimeter
G1 X123.302 Y101.445 F4936.701 E0.79934 ; perimeter
G1 X123.565 Y101.554 F5331.412 E0.80120 ; perimeter
G1 X123.832 Y101.589 F5731.230 E0.80296 ; perimeter
G1 X128.168 Y101.589 F6000.000 E0.83127 ; perimeter
G1 X128.435 Y101.554 E0.83303 ; perimeter
G1 X128.698 Y101.445 E0.83489 ; perimeter
G1 X128.924 Y101.272 E0.83675 ; perimeter
G1 X129.097 Y101.046 E0.83861 ; perimeter
G1 X129.223 Y100.741 E0.84076 ; perimeter
G1 X131.759 Y100.741 E0.85731 ; perimeter
G1 X131.759 Y103.259 F3802.738 E0.87374 ; perimeter
G1 X129.223 Y103.259 F6000.000 E0.89030 ; perimeter
G1 X129.097 Y102.954 F3802.738 E0.89245 ; perimeter
G1 X128.924 Y102.728 F3802.738 E0.89431 ; perimeter
G1 X128.698 Y102.555 F3802.738 E0.89617 ; perimeter
G1 X128.435 Y102.446 F3802.738 E0.89802 ; perimeter
G1 X128.168 Y102.411 F3802.738 E0.89978 ; perimeter
G1 X123.832 Y102.411 F6000.000 E0.92810 ; perimeter
G1 X123.565 Y102.446 F3775.501 E0.92985 ; perimeter
G1 X123.302 Y102.555 F3775.501 E0.93171 ; perimeter
G1 X123.076 Y102.728 F3775.501 E0.93357 ; perimeter
G1 X122.903 Y102.954 F3775.501 E0.93543 ; perimeter
G1 X122.777 Y103.259 F3775.501 E0.93758 ; perimeter
G1 X120.311 Y103.259 F6000.000 E0.95368 ; perimeter
G1 X120.241 Y103.259 E0.95413 ; perimeter
G1 X120.241 Y99.258 F6000.000 ; move to first perimeter point
G1 X120.241 Y96.741 F6000.000 E0.97057 ; perimeter
G1 X122.769 Y96.741 F3791.771 E0.98707 ; perimeter
G1 X122.916 Y97.096 F4322.838 E0.98958 ; perimeter
G1 X123.105 Y97.342 F4692.850 E0.99161 ; perimeter
G1 X123.352 Y97.532 F5062.860 E0.99364 ; perimeter
G1 X123.639 Y97.650 F5493.760 E0.99567 ; perimeter
G1 X123.932 Y97.689 F5932.398 E0.99759 ; perimeter
G1 X128.068 Y97.689 F6000.000 E1.02460 ; perimeter
G1 X128.361 Y97.650 E1.02653 ; perimeter
G1 X128.648 Y97.532 E1.02856 ; perimeter
G1 X128.895 Y97.342 E1.03059 ; perimeter
G1 X129.084 Y97.096 E1.03262 ; perimeter
G1 X129.231 Y96.741 E1.03512 ; perimeter
G1 X131.759 Y96.741 E1.05163 ; perimeter
G1 X131.759 Y99.258 F3791.781 E1.06806 ; perimeter
G1 X129.231 Y99.258 F6000.000 E1.08457 ; perimeter
G1 X129.084 Y98.904 F3791.781 E1.08707 ; perimeter
G1 X128.895 Y98.658 F3791.781 E1.08910 ; perimeter
G1 X128.648 Y98.468 F3791.781 E1.09113 ; perimeter
G1 X128.361 Y98.350 F3791.781 E1.09316 ; perimeter
G1 X128.068 Y98.311 F3791.781 E1.09509 ; perimeter
G1 X123.932 Y98.311 F6000.000 E1.12210 ; perimeter
G1 X123.639 Y98.350 F3775.501 E1.12402 ; perimeter
G1 X123.352 Y98.468 F3775.501 E1.12605 ; perimeter
G1 X123.105 Y98.658 F3775.501 E1.12808 ; perimeter
G1 X122.916 Y98.904 F3775.501 E1.13011 ; perimeter
G1 X122.769 Y99.258 F3775.501 E1.13261 ; perimeter
G1 X120.311 Y99.258 F6000.000 E1.14867 ; perimeter
G1 X120.241 Y99.258 E1.14912 ; perimeter
G1 X120.241 Y95.258 F6000.000 ; move to first perimeter point
G1 X120.241 Y92.741 F6000.000 E1.16555 ; perimeter
G1 X122.762 Y92.741 F3780.782 E1.18201 ; perimeter
G1 X122.929 Y93.145 F4386.749 E1.18487 ; perimeter
G1 X123.134 Y93.413 F4787.819 E1.18707 ; perimeter
G1 X123.402 Y93.618 F5189.050 E1.18927 ; perimeter
G1 X123.713 Y93.747 F5655.865 E1.19147 ; perimeter
G1 X124.236 Y93.816 F6000.000 E1.19491 ; perimeter
G1 X124.236 Y94.184 E1.19731 ; perimeter
G1 X123.713 Y94.253 E1.20076 ; perimeter
G1 X123.402 Y94.382 E1.20295 ; perimeter
G1 X123.134 Y94.587 E1.20516 ; perimeter
G1 X122.929 Y94.854 E1.20736 ; perimeter
G1 X122.762 Y95.258 E1.21021 ; perimeter
G1 X120.311 Y95.258 E1.22622 ; perimeter
G1 X120.241 Y95.258 E1.22667 ; perimeter
G1 X120.241 Y91.258 F6000.000 ; move to first perimeter point
G1 X120.241 Y88.741 F6000.000 E1.24310 ; perimeter
G1 X122.755 Y88.741 E1.25951 ; perimeter
G1 X122.943 Y89.196 E1.26272 ; perimeter
G1 X123.164 Y89.484 E1.26509 ; perimeter
G1 X123.452 Y89.705 E1.26747 ; perimeter
G1 X123.924 Y89.900 E1.27080 ; perimeter
G1 X123.924 Y90.100 E1.27210 ; perimeter
G1 X123.452 Y90.295 E1.27544 ; perimeter
G1 X123.164 Y90.516 E1.27781 ; perimeter
G1 X122.943 Y90.804 E1.28019 ; perimeter
G1 X122.755 Y91.258 E1.28339 ; perimeter
G1 X120.311 Y91.258 E1.29935 ; perimeter
G1 X120.241 Y91.258 E1.29980 ; perimeter
G1 X118.759 Y91.258 F6000.000 ; move to first perimeter point
G1 X116.244 Y91.258 F6000.000 E1.31622 ; perimeter
G1 X116.060 Y90.814 E1.31936 ; perimeter
G1 X115.842 Y90.531 E1.32170 ; perimeter
G1 X115.558 Y90.313 E1.32404 ; perimeter
G1 X115.044 Y90.100 E1.32767 ; perimeter
G1 X115.044 Y89.900 E1.32897 ; perimeter
G1 X115.558 Y89.687 E1.33261 ; perimeter
G1 X115.842 Y89.469 E1.33494 ; perimeter
G1 X116.060 Y89.186 E1.33728 ; perimeter
G1 X116.244 Y88.741 E1.34042 ; perimeter
G1 X118.759 Y88.741 E1.35684 ; perimeter
G1 X118.759 Y91.189 F3772.020 E1.37282 ; perimeter
G1 X118.759 Y91.258 F3775.501 E1.37327 ; perimeter
G1 X118.759 Y92.741 F3671.655 ; move to first perimeter point
G1 X118.759 Y95.258 F3775.501 E1.38971 ; perimeter
G1 X116.237 Y95.258 F6000.000 E1.40617 ; perimeter
G1 X116.073 Y94.864 F3775.501 E1.40896 ; perimeter
G1 X115.871 Y94.601 F3775.501 E1.41113 ; perimeter
G1 X115.608 Y94.399 F3775.501 E1.41329 ; perimeter
G1 X115.301 Y94.272 F3775.501 E1.41546 ; perimeter
G1 X114.632 Y94.184 F3775.501 E1.41986 ; perimeter
G1 X114.632 Y93.816 F3775.501 E1.42227 ; perimeter
G1 X115.302 Y93.728 F3775.501 E1.42668 ; perimeter
G1 X115.608 Y93.601 F3775.501 E1.42884 ; perimeter
G1 X115.871 Y93.399 F3775.501 E1.43101 ; perimeter
G1 X116.073 Y93.135 F3775.501 E1.43318 ; perimeter
G1 X116.237 Y92.741 F3775.501 E1.43596 ; perimeter
G1 X118.689 Y92.741 F6000.000 E1.45198 ; perimeter
G1 X118.759 Y92.741 F3679.142 E1.45243 ; perimeter
G1 X118.759 Y87.258 F6000.000 ; move to first perimeter point
G1 X116.236 Y87.258 F6000.000 E1.46890 ; perimeter
G1 X116.097 Y86.862 F3679.142 E1.47164 ; perimeter
G1 X115.922 Y86.583 F3679.142 E1.47379 ; perimeter
G1 X115.689 Y86.350 F3679.142 E1.47594 ; perimeter
G1 X115.132 Y86.000 F3679.142 E1.48024 ; perimeter
G1 X115.689 Y85.650 F3679.142 E1.48454 ; perimeter
G1 X115.922 Y85.417 F3679.142 E1.48669 ; perimeter
G1 X116.097 Y85.138 F3679.142 E1.48884 ; perimeter
G1 X116.236 Y84.741 F3679.142 E1.49158 ; perimeter
G1 X118.759 Y84.741 F3783.534 E1.50805 ; perimeter
G1 X118.759 Y87.189 F3783.534 E1.52403 ; perimeter
G1 X118.759 Y87.258 F3783.534 E1.52449 ; perimeter
G1 X118.759 Y83.258 F6000.000 ; move to first perimeter point
G1 X116.241 Y83.258 F6000.000 E1.54092 ; perimeter
G1 X116.088 Y82.819 F3671.655 E1.54396 ; perimeter
G1 X115.900 Y82.521 F3671.655 E1.54626 ; perimeter
G1 X115.652 Y82.272 F3671.655 E1.54856 ; perimeter
G1 X115.219 Y82.000 F3671.655 E1.55190 ; perimeter
G1 X115.652 Y81.728 F1292.770 E1.55524 ; perimeter
G1 X115.900 Y81.479 F1292.770 E1.55753 ; perimeter
G1 X116.087 Y81.181 F1303.268 E1.55983 ; perimeter
G1 X116.241 Y80.741 F1534.178 E1.56287 ; perimeter
G1 X118.759 Y80.741 F3775.593 E1.57931 ; perimeter
G1 X118.759 Y83.189 F3775.593 E1.59529 ; perimeter
G1 X118.759 Y83.258 F3775.593 E1.59574 ; perimeter
G1 X120.241 Y83.258 F3775.593 ; move to first perimeter point
G1 X120.241 Y80.741 F6000.000 E1.61218 ; perimeter
G1 X122.758 Y80.741 F3775.501 E1.62860 ; perimeter
G1 X122.914 Y81.190 F4446.944 E1.63171 ; perimeter
G1 X123.104 Y81.492 F4899.249 E1.63403 ; perimeter
G1 X123.356 Y81.744 F5277.078 E1.63636 ; perimeter
G1 X123.764 Y82.000 F5889.288 E1.63951 ; perimeter
G1 X123.356 Y82.256 F6000.000 E1.64265 ; perimeter
G1 X123.104 Y82.508 E1.64498 ; perimeter
G1 X122.914 Y82.810 E1.64730 ; perimeter
G1 X122.758 Y83.258 E1.65041 ; perimeter
G1 X120.311 Y83.258 E1.66638 ; perimeter
G1 X120.241 Y83.258 E1.66684 ; perimeter
G1 X120.241 Y84.741 F6000.000 ; move to first perimeter point
G1 X122.763 Y84.741 F3781.935 E1.68330 ; perimeter
G1 X122.905 Y85.147 F4389.773 E1.68610 ; perimeter
G1 X123.082 Y85.429 F4813.654 E1.68828 ; perimeter
G1 X123.318 Y85.665 F5167.700 E1.69046 ; perimeter
G1 X123.851 Y86.000 F5966.573 E1.69457 ; perimeter
G1 X123.318 Y86.335 F5966.573 E1.69867 ; perimeter
G1 X123.082 Y86.571 F5966.573 E1.70085 ; perimeter
G1 X122.905 Y86.853 F5966.573 E1.70303 ; perimeter
G1 X122.763 Y87.258 F5966.573 E1.70584 ; perimeter
G1 X120.241 Y87.258 F6000.000 E1.72230 ; perimeter
G1 X120.241 Y84.811 E1.73828 ; perimeter
G1 X120.241 Y84.741 E1.73873 ; perimeter
G1 X128.149 Y86.000 F6000.000 ; move to first perimeter point
G1 X128.682 Y85.665 F6000.000 E1.74284 ; perimeter
G1 X128.918 Y85.429 E1.74502 ; perimeter
G1 X129.095 Y85.147 E1.74720 ; perimeter
G1 X129.237 Y84.741 E1.75000 ; perimeter
G1 X131.759 Y84.741 E1.76647 ; perimeter
G1 X131.759 Y87.258 F3781.938 E1.78290 ; perimeter
G1 X129.237 Y87.258 F6000.000 E1.79936 ; perimeter
G1 X129.095 Y86.853 F3781.938 E1.80217 ; perimeter
G1 X128.918 Y86.571 F3781.938 E1.80435 ; perimeter
G1 X128.682 Y86.335 F3781.938 E1.80652 ; perimeter
G1 X128.208 Y86.037 F3781.938 E1.81018 ; perimeter
G1 X128.149 Y86.000 F3781.938 E1.81063 ; perimeter
G1 X129.242 Y83.258 F3775.501 ; move to first perimeter point
G1 X129.086 Y82.810 F1639.884 E1.81374 ; perimeter
G1 X128.896 Y82.508 F1639.884 E1.81606 ; perimeter
G1 X128.644 Y82.256 F1639.884 E1.81839 ; perimeter
G1 X128.236 Y82.000 F1639.884 E1.82153 ; perimeter
G1 X128.644 Y81.744 F1639.884 E1.82468 ; perimeter
G1 X128.896 Y81.492 F1639.884 E1.82701 ; perimeter
G1 X129.086 Y81.190 F1639.884 E1.82933 ; perimeter
G1 X129.242 Y80.741 F1639.884 E1.83244 ; perimeter
G1 X131.759 Y80.741 F5283.730 E1.84886 ; perimeter
G1 X131.759 Y83.258 F5283.730 E1.86530 ; perimeter
G1 X129.312 Y83.258 F6000.000 E1.88127 ; perimeter
G1 X129.242 Y83.258 E1.88173 ; perimeter
G1 X129.245 Y88.741 F6000.000 ; move to first perimeter point
G1 X131.759 Y88.741 F6000.000 E1.89814 ; perimeter
G1 X131.759 Y91.258 E1.91457 ; perimeter
G1 X129.245 Y91.258 E1.93098 ; perimeter
