; generated by Slic3r 0.9.8-dev on 2012-11-23 at 14:18:57

; This config has a workaround for the extrusion retraction compensation bug for the first layer... be sure to comment out those 3 lines IF the bug has been fixed.

; layer_height = .1
; perimeters = 1
; top_solid_layers = 0
; bottom_solid_layers = 0
; fill_density = 0
; perimeter_speed = 100
; infill_speed = 100
; travel_speed = 100
; scale = 1
; nozzle_diameter = .345
; filament_diameter = 3
; extrusion_multiplier = 1
; perimeters extrusion width = 0.48mm
; infill extrusion width = 0.48mm
; first layer extrusion width = 0.48mm

G92 E0
G1 E100
G1 E0
G90 ; use absolute coordinates
G21 ; set units to millimeters
G92 E0 ; reset extrusion distance
M82 ; use absolute distances for extrusion
G1 Z0.100 F6000.000 ; move to next layer (0)
G1 X94.241 Y96.174 ; move to first perimeter point
G1 X105.239 Y103.759 F6000.000 E0.08723 ; perimeter
G1 X94.241 Y103.759 E0.15904 ; perimeter
G1 X94.241 Y96.243 E0.20812 ; perimeter
G1 X94.241 Y96.174 E0.20857 ; perimeter
G1 Z0.200 F6000.000 ; move to next layer (1)
G1 X94.241 Y96.153 ; move to first perimeter point
G1 X105.269 Y103.759 F6000.000 E0.29604 ; perimeter
G1 X94.241 Y103.759 E0.36804 ; perimeter
G1 X94.241 Y96.222 E0.41725 ; perimeter
G1 X94.241 Y96.153 E0.41770 ; perimeter
G1 Z0.300 F6000.000 ; move to next layer (2)
G1 X94.241 Y96.132 ; move to first perimeter point
G1 X105.299 Y103.759 F6000.000 E0.50541 ; perimeter
G1 X94.241 Y103.759 E0.57761 ; perimeter
G1 X94.241 Y96.202 E0.62696 ; perimeter
G1 X94.241 Y96.132 E0.62741 ; perimeter
G1 Z0.400 F6000.000 ; move to next layer (3)
G1 X94.241 Y96.112 ; move to first perimeter point
G1 X105.329 Y103.759 F6000.000 E0.71535 ; perimeter
G1 X94.241 Y103.759 E0.78775 ; perimeter
G1 X94.241 Y96.181 E0.83723 ; perimeter
G1 X94.241 Y96.112 E0.83768 ; perimeter
G1 Z0.500 F6000.000 ; move to next layer (4)
G1 X94.241 Y96.091 ; move to first perimeter point
G1 X105.359 Y103.759 F6000.000 E0.92587 ; perimeter
G1 X94.241 Y103.759 E0.99846 ; perimeter
G1 X94.241 Y96.160 E1.04807 ; perimeter
G1 X94.241 Y96.091 E1.04853 ; perimeter
G1 Z0.600 F6000.000 ; move to next layer (5)
G1 X94.241 Y96.070 ; move to first perimeter point
G1 X105.389 Y103.759 F6000.000 E1.13695 ; perimeter
G1 X94.241 Y103.759 E1.20974 ; perimeter
G1 X94.241 Y96.139 E1.25949 ; perimeter
G1 X94.241 Y96.070 E1.25994 ; perimeter
G1 Z0.700 F6000.000 ; move to next layer (6)
G1 X94.241 Y96.050 ; move to first perimeter point
G1 X105.419 Y103.759 F6000.000 E1.34860 ; perimeter
G1 X94.241 Y103.759 E1.42158 ; perimeter
G1 X94.241 Y96.119 E1.47147 ; perimeter
G1 X94.241 Y96.050 E1.47192 ; perimeter
G1 Z0.800 F6000.000 ; move to next layer (7)
G1 X94.241 Y96.029 ; move to first perimeter point
G1 X105.449 Y103.759 F6000.000 E1.56082 ; perimeter
G1 X94.241 Y103.759 E1.63400 ; perimeter
G1 X94.241 Y96.098 E1.68402 ; perimeter
G1 X94.241 Y96.029 E1.68447 ; perimeter
G1 Z0.900 F6000.000 ; move to next layer (8)
G1 X94.241 Y96.241 ; move to first perimeter point
G1 X94.580 Y96.241 F6000.000 E1.68668 ; perimeter
G1 X105.479 Y103.759 E1.77313 ; perimeter
G1 X94.241 Y103.759 E1.84651 ; perimeter
G1 X94.241 Y96.311 E1.89514 ; perimeter
G1 X94.241 Y96.241 E1.89559 ; perimeter
G1 Z1.000 F6000.000 ; move to next layer (9)
G1 X94.241 Y96.241 ; move to first perimeter point
G1 X94.610 Y96.241 F6000.000 E1.89799 ; perimeter
G1 X105.509 Y103.759 E1.98445 ; perimeter
G1 X94.241 Y103.759 E2.05802 ; perimeter
G1 X94.241 Y96.311 E2.10665 ; perimeter
G1 X94.241 Y96.241 E2.10710 ; perimeter
G1 Z1.100 F6000.000 ; move to next layer (10)
G1 X94.241 Y96.241 ; move to first perimeter point
G1 X94.640 Y96.241 F6000.000 E2.10970 ; perimeter
G1 X105.539 Y103.759 E2.19615 ; perimeter
G1 X94.241 Y103.759 E2.26992 ; perimeter
G1 X94.241 Y96.311 E2.31855 ; perimeter
G1 X94.241 Y96.241 E2.31901 ; perimeter
G1 Z1.200 F6000.000 ; move to next layer (11)
G1 X94.241 Y96.241 ; move to first perimeter point
G1 X94.670 Y96.241 F6000.000 E2.32180 ; perimeter
G1 X105.569 Y103.759 E2.40825 ; perimeter
G1 X94.241 Y103.759 E2.48222 ; perimeter
G1 X94.241 Y96.311 E2.53085 ; perimeter
G1 X94.241 Y96.241 E2.53130 ; perimeter
G1 Z1.300 F6000.000 ; move to next layer (12)
G1 X94.241 Y96.241 ; move to first perimeter point
G1 X94.700 Y96.241 F6000.000 E2.53429 ; perimeter
G1 X105.599 Y103.759 E2.62075 ; perimeter
G1 X94.241 Y103.759 E2.69491 ; perimeter
G1 X94.241 Y96.311 E2.74354 ; perimeter
G1 X94.241 Y96.241 E2.74399 ; perimeter
G1 Z1.400 F6000.000 ; move to next layer (13)
G1 X94.241 Y96.241 ; move to first perimeter point
G1 X94.730 Y96.241 F6000.000 E2.74718 ; perimeter
G1 X104.945 Y103.286 E2.82820 ; perimeter
G1 X105.417 Y103.759 E2.83256 ; perimeter
G1 X94.241 Y103.759 E2.90553 ; perimeter
G1 X94.241 Y96.311 E2.95416 ; perimeter
G1 X94.241 Y96.241 E2.95461 ; perimeter
G1 Z1.500 F6000.000 ; move to next layer (14)
G1 X94.241 Y96.241 ; move to first perimeter point
G1 X94.760 Y96.241 F6000.000 E2.95800 ; perimeter
G1 X104.878 Y103.220 E3.03825 ; perimeter
G1 X105.417 Y103.759 E3.04323 ; perimeter
G1 X94.241 Y103.759 E3.11620 ; perimeter
G1 X94.241 Y96.311 E3.16483 ; perimeter
G1 X94.241 Y96.241 E3.16528 ; perimeter
G1 Z1.600 F6000.000 ; move to next layer (15)
G1 X94.241 Y96.241 ; move to first perimeter point
G1 X94.790 Y96.241 F6000.000 E3.16886 ; perimeter
G1 X104.811 Y103.153 E3.24835 ; perimeter
G1 X105.417 Y103.759 E3.25394 ; perimeter
G1 X94.241 Y103.759 E3.32691 ; perimeter
G1 X94.241 Y96.311 E3.37554 ; perimeter
G1 X94.241 Y96.241 E3.37599 ; perimeter
G1 Z1.700 F6000.000 ; move to next layer (16)
G1 X94.241 Y96.241 ; move to first perimeter point
G1 X94.820 Y96.241 F6000.000 E3.37977 ; perimeter
G1 X104.745 Y103.086 E3.45849 ; perimeter
G1 X105.417 Y103.759 E3.46469 ; perimeter
G1 X94.241 Y103.759 E3.53766 ; perimeter
G1 X94.241 Y96.311 E3.58629 ; perimeter
G1 X94.241 Y96.241 E3.58675 ; perimeter
G1 Z1.800 F6000.000 ; move to next layer (17)
G1 X94.241 Y96.241 ; move to first perimeter point
G1 X94.850 Y96.241 F6000.000 E3.59072 ; perimeter
G1 X104.678 Y103.020 E3.66867 ; perimeter
G1 X105.417 Y103.759 E3.67550 ; perimeter
G1 X94.241 Y103.759 E3.74847 ; perimeter
G1 X94.241 Y96.311 E3.79710 ; perimeter
G1 X94.241 Y96.241 E3.79755 ; perimeter
G1 Z1.900 F6000.000 ; move to next layer (18)
G1 X94.241 Y96.241 ; move to first perimeter point
G1 X94.880 Y96.241 F6000.000 E3.80172 ; perimeter
G1 X104.611 Y102.953 E3.87890 ; perimeter
G1 X105.417 Y103.759 E3.88634 ; perimeter
G1 X94.241 Y103.759 E3.95931 ; perimeter
G1 X94.241 Y96.311 E4.00794 ; perimeter
G1 X94.241 Y96.241 E4.00839 ; perimeter
G1 Z2.000 F6000.000 ; move to next layer (19)
G1 X94.241 Y96.241 ; move to first perimeter point
G1 X94.910 Y96.241 F6000.000 E4.01276 ; perimeter
G1 X104.545 Y102.886 E4.08918 ; perimeter
G1 X105.417 Y103.759 E4.09723 ; perimeter
G1 X94.241 Y103.759 E4.17020 ; perimeter
G1 X94.241 Y96.311 E4.21883 ; perimeter
G1 X94.241 Y96.241 E4.21928 ; perimeter
G1 Z2.100 F6000.000 ; move to next layer (20)
G1 X94.241 Y96.241 ; move to first perimeter point
G1 X94.940 Y96.241 F6000.000 E4.22384 ; perimeter
G1 X104.478 Y102.820 E4.29950 ; perimeter
G1 X105.417 Y103.759 E4.30817 ; perimeter
G1 X94.241 Y103.759 E4.38114 ; perimeter
G1 X94.241 Y96.311 E4.42977 ; perimeter
G1 X94.241 Y96.241 E4.43022 ; perimeter
G1 Z2.200 F6000.000 ; move to next layer (21)
G1 X94.241 Y96.241 ; move to first perimeter point
G1 X94.970 Y96.241 F6000.000 E4.43497 ; perimeter
G1 X104.411 Y102.753 E4.50986 ; perimeter
G1 X105.417 Y103.759 E4.51915 ; perimeter
G1 X94.241 Y103.759 E4.59212 ; perimeter
G1 X94.241 Y96.311 E4.64075 ; perimeter
G1 X94.241 Y96.241 E4.64120 ; perimeter
G1 Z2.300 F6000.000 ; move to next layer (22)
G1 X94.241 Y96.241 ; move to first perimeter point
G1 X95.000 Y96.241 F6000.000 E4.64615 ; perimeter
G1 X104.345 Y102.686 E4.72027 ; perimeter
G1 X105.417 Y103.759 E4.73017 ; perimeter
G1 X94.241 Y103.759 E4.80314 ; perimeter
G1 X94.241 Y96.311 E4.85177 ; perimeter
G1 X94.241 Y96.241 E4.85222 ; perimeter
G1 Z2.400 F6000.000 ; move to next layer (23)
G1 X94.241 Y96.241 ; move to first perimeter point
G1 X95.030 Y96.241 F6000.000 E4.85737 ; perimeter
G1 X104.278 Y102.620 E4.93073 ; perimeter
G1 X105.417 Y103.759 E4.94124 ; perimeter
G1 X94.241 Y103.759 E5.01421 ; perimeter
G1 X94.241 Y96.311 E5.06284 ; perimeter
G1 X94.241 Y96.241 E5.06329 ; perimeter
G1 Z2.500 F6000.000 ; move to next layer (24)
G1 X94.241 Y96.241 ; move to first perimeter point
G1 X95.060 Y96.241 F6000.000 E5.06864 ; perimeter
G1 X104.211 Y102.553 E5.14122 ; perimeter
G1 X105.417 Y103.759 E5.15236 ; perimeter
G1 X94.241 Y103.759 E5.22533 ; perimeter
G1 X94.241 Y96.311 E5.27396 ; perimeter
G1 X94.241 Y96.241 E5.27441 ; perimeter
G1 Z2.600 F6000.000 ; move to next layer (25)
G1 X94.241 Y96.241 ; move to first perimeter point
G1 X95.090 Y96.241 F6000.000 E5.27995 ; perimeter
G1 X104.145 Y102.486 E5.35177 ; perimeter
G1 X105.417 Y103.759 E5.36352 ; perimeter
G1 X94.241 Y103.759 E5.43648 ; perimeter
G1 X94.241 Y96.311 E5.48511 ; perimeter
G1 X94.241 Y96.241 E5.48557 ; perimeter
G1 Z2.700 F6000.000 ; move to next layer (26)
G1 X94.241 Y96.241 ; move to first perimeter point
G1 X95.120 Y96.241 F6000.000 E5.49130 ; perimeter
G1 X104.078 Y102.420 E5.56236 ; perimeter
G1 X105.417 Y103.759 E5.57472 ; perimeter
G1 X94.241 Y103.759 E5.64769 ; perimeter
G1 X94.241 Y96.311 E5.69632 ; perimeter
G1 X94.241 Y96.241 E5.69677 ; perimeter
G1 Z2.800 F6000.000 ; move to next layer (27)
G1 X94.241 Y96.241 ; move to first perimeter point
G1 X95.150 Y96.241 F6000.000 E5.70270 ; perimeter
G1 X104.011 Y102.353 E5.77299 ; perimeter
G1 X105.417 Y103.759 E5.78597 ; perimeter
G1 X94.241 Y103.759 E5.85894 ; perimeter
G1 X94.241 Y96.311 E5.90757 ; perimeter
G1 X94.241 Y96.241 E5.90802 ; perimeter
G1 Z2.900 F6000.000 ; move to next layer (28)
G1 X94.241 Y96.241 ; move to first perimeter point
G1 X95.180 Y96.241 F6000.000 E5.91415 ; perimeter
G1 X103.945 Y102.286 E5.98367 ; perimeter
G1 X105.417 Y103.759 E5.99726 ; perimeter
G1 X94.241 Y103.759 E6.07023 ; perimeter
G1 X94.241 Y96.311 E6.11886 ; perimeter
G1 X94.241 Y96.241 E6.11931 ; perimeter
G1 Z3.000 F6000.000 ; move to next layer (29)
G1 X94.241 Y96.241 ; move to first perimeter point
G1 X95.210 Y96.241 F6000.000 E6.12564 ; perimeter
G1 X103.878 Y102.220 E6.19439 ; perimeter
G1 X105.417 Y103.759 E6.20860 ; perimeter
G1 X94.241 Y103.759 E6.28157 ; perimeter
G1 X94.241 Y96.311 E6.33020 ; perimeter
G1 X94.241 Y96.241 E6.33065 ; perimeter
G1 Z3.100 F6000.000 ; move to next layer (30)
G1 X94.241 Y96.241 ; move to first perimeter point
G1 X95.240 Y96.241 F6000.000 E6.33717 ; perimeter
G1 X103.811 Y102.153 E6.40516 ; perimeter
G1 X105.417 Y103.759 E6.41998 ; perimeter
G1 X94.241 Y103.759 E6.49295 ; perimeter
G1 X94.241 Y96.311 E6.54158 ; perimeter
G1 X94.241 Y96.241 E6.54203 ; perimeter
G1 Z3.200 F6000.000 ; move to next layer (31)
G1 X94.241 Y96.241 ; move to first perimeter point
G1 X95.270 Y96.241 F6000.000 E6.54875 ; perimeter
G1 X103.745 Y102.086 E6.61597 ; perimeter
G1 X105.417 Y103.759 E6.63141 ; perimeter
G1 X94.241 Y103.759 E6.70438 ; perimeter
G1 X94.241 Y96.311 E6.75301 ; perimeter
G1 X94.241 Y96.241 E6.75346 ; perimeter
G1 Z3.300 F6000.000 ; move to next layer (32)
G1 X94.241 Y96.241 ; move to first perimeter point
G1 X95.300 Y96.241 F6000.000 E6.76037 ; perimeter
G1 X103.678 Y102.020 E6.82683 ; perimeter
G1 X105.417 Y103.759 E6.84288 ; perimeter
G1 X94.241 Y103.759 E6.91585 ; perimeter
G1 X94.241 Y96.311 E6.96448 ; perimeter
G1 X94.241 Y96.241 E6.96493 ; perimeter
G1 Z3.400 F6000.000 ; move to next layer (33)
G1 X94.241 Y96.241 ; move to first perimeter point
G1 X95.330 Y96.241 F6000.000 E6.97204 ; perimeter
G1 X103.611 Y101.953 E7.03773 ; perimeter
G1 X105.417 Y103.759 E7.05440 ; perimeter
G1 X94.241 Y103.759 E7.12737 ; perimeter
G1 X94.241 Y96.311 E7.17600 ; perimeter
G1 X94.241 Y96.241 E7.17645 ; perimeter
G1 Z3.500 F6000.000 ; move to next layer (34)
G1 X94.241 Y96.241 ; move to first perimeter point
G1 X95.360 Y96.241 F6000.000 E7.18375 ; perimeter
G1 X103.545 Y101.886 E7.24867 ; perimeter
G1 X105.417 Y103.759 E7.26596 ; perimeter
G1 X94.241 Y103.759 E7.33893 ; perimeter
G1 X94.241 Y96.311 E7.38756 ; perimeter
G1 X94.241 Y96.241 E7.38801 ; perimeter
G1 Z3.600 F6000.000 ; move to next layer (35)
G1 X94.241 Y96.241 ; move to first perimeter point
G1 X95.390 Y96.241 F6000.000 E7.39551 ; perimeter
G1 X103.478 Y101.820 E7.45966 ; perimeter
G1 X105.417 Y103.759 E7.47757 ; perimeter
G1 X94.241 Y103.759 E7.55054 ; perimeter
G1 X94.241 Y96.311 E7.59917 ; perimeter
G1 X94.241 Y96.241 E7.59962 ; perimeter
G1 Z3.700 F6000.000 ; move to next layer (36)
G1 X94.241 Y96.241 ; move to first perimeter point
G1 X95.420 Y96.241 F6000.000 E7.60731 ; perimeter
G1 X103.411 Y101.753 E7.67070 ; perimeter
G1 X105.417 Y103.759 E7.68922 ; perimeter
G1 X94.241 Y103.759 E7.76219 ; perimeter
G1 X94.241 Y96.311 E7.81082 ; perimeter
G1 X94.241 Y96.241 E7.81127 ; perimeter
G1 Z3.800 F6000.000 ; move to next layer (37)
G1 X94.241 Y96.241 ; move to first perimeter point
G1 X95.450 Y96.241 F6000.000 E7.81916 ; perimeter
G1 X103.345 Y101.686 E7.88178 ; perimeter
G1 X105.417 Y103.759 E7.90092 ; perimeter
G1 X94.241 Y103.759 E7.97388 ; perimeter
G1 X94.241 Y96.311 E8.02251 ; perimeter
G1 X94.241 Y96.241 E8.02297 ; perimeter
G1 Z3.900 F6000.000 ; move to next layer (38)
G1 X94.241 Y96.241 ; move to first perimeter point
G1 X95.480 Y96.241 F6000.000 E8.03105 ; perimeter
G1 X103.278 Y101.620 E8.09291 ; perimeter
G1 X105.417 Y103.759 E8.11266 ; perimeter
G1 X94.241 Y103.759 E8.18563 ; perimeter
G1 X94.241 Y96.311 E8.23426 ; perimeter
G1 X94.241 Y96.241 E8.23471 ; perimeter
G1 Z4.000 F6000.000 ; move to next layer (39)
G1 X94.241 Y96.241 ; move to first perimeter point
G1 X95.510 Y96.241 F6000.000 E8.24299 ; perimeter
G1 X103.211 Y101.553 E8.30408 ; perimeter
G1 X105.417 Y103.759 E8.32444 ; perimeter
G1 X94.241 Y103.759 E8.39741 ; perimeter
G1 X94.241 Y96.311 E8.44604 ; perimeter
G1 X94.241 Y96.241 E8.44649 ; perimeter
G1 Z4.100 F6000.000 ; move to next layer (40)
G1 X94.241 Y96.241 ; move to first perimeter point
G1 X95.540 Y96.241 F6000.000 E8.45497 ; perimeter
G1 X103.145 Y101.486 E8.51529 ; perimeter
G1 X105.417 Y103.759 E8.53627 ; perimeter
G1 X94.241 Y103.759 E8.60924 ; perimeter
G1 X94.241 Y96.311 E8.65787 ; perimeter
G1 X94.241 Y96.241 E8.65832 ; perimeter
G1 Z4.200 F6000.000 ; move to next layer (41)
G1 X94.241 Y96.241 ; move to first perimeter point
G1 X95.570 Y96.241 F6000.000 E8.66700 ; perimeter
G1 X103.078 Y101.420 E8.72655 ; perimeter
G1 X105.417 Y103.759 E8.74815 ; perimeter
G1 X94.241 Y103.759 E8.82112 ; perimeter
G1 X94.241 Y96.311 E8.86975 ; perimeter
G1 X94.241 Y96.241 E8.87020 ; perimeter
G1 Z4.300 F6000.000 ; move to next layer (42)
G1 X94.241 Y96.241 ; move to first perimeter point
G1 X95.600 Y96.241 F6000.000 E8.87907 ; perimeter
G1 X103.011 Y101.353 E8.93785 ; perimeter
G1 X105.417 Y103.759 E8.96007 ; perimeter
G1 X94.241 Y103.759 E9.03304 ; perimeter
G1 X94.241 Y96.311 E9.08167 ; perimeter
G1 X94.241 Y96.241 E9.08212 ; perimeter
G1 Z4.400 F6000.000 ; move to next layer (43)
G1 X94.241 Y96.241 ; move to first perimeter point
G1 X95.630 Y96.241 F6000.000 E9.09118 ; perimeter
G1 X102.945 Y101.286 E9.14920 ; perimeter
G1 X105.417 Y103.759 E9.17203 ; perimeter
G1 X94.241 Y103.759 E9.24500 ; perimeter
G1 X94.241 Y96.311 E9.29363 ; perimeter
G1 X94.241 Y96.241 E9.29408 ; perimeter
G1 Z4.500 F6000.000 ; move to next layer (44)
G1 X94.241 Y96.241 ; move to first perimeter point
G1 X95.660 Y96.241 F6000.000 E9.30334 ; perimeter
G1 X102.878 Y101.220 E9.36060 ; perimeter
G1 X105.417 Y103.759 E9.38404 ; perimeter
