; generated by Slic3r 0.9.6-dev on 2012-11-20 at 10:05:05

; This config has a workaround for the extrusion retraction compensation bug for the first layer... be sure to comment out those 3 lines IF the bug has been fixed.

; layer_height = .1
; perimeters = 1
; top_solid_layers = 0
; bottom_solid_layers = 0
; fill_density = 0
; perimeter_speed = 100
; infill_speed = 100
; travel_speed = 100
; scale = 1
; nozzle_diameter = .345
; filament_diameter = 3
; extrusion_multiplier = 1
; perimeters extrusion width = 0.48mm
; infill extrusion width = 0.48mm
; first layer extrusion width = 0.48mm

G92 E0
G1 E100
G1 E0
G90 ; use absolute coordinates
G21 ; set units to millimeters
G92 E0 ; reset extrusion distance
M82 ; use absolute distances for extrusion
G1 Z0.100 F6000.000 ; move to next layer (0)
G1 X95.040 Y96.491 ; move to first perimeter point
G1 X104.965 Y96.491 F6000.000 E0.06480 ; perimeter
G1 X100.042 Y103.415 E0.12027 ; perimeter
G1 X95.081 Y96.548 E0.17559 ; perimeter
G1 X95.040 Y96.491 E0.17604 ; perimeter
G1 Z0.200 F6000.000 ; move to next layer (1)
G1 X95.040 Y96.491 ; move to first perimeter point
G1 X104.965 Y96.491 F6000.000 E0.24084 ; perimeter
G1 X100.029 Y103.433 E0.29646 ; perimeter
G1 X98.972 Y101.975 E0.30822 ; perimeter
G1 X98.846 Y101.745 E0.30993 ; perimeter
G1 X95.081 Y96.548 E0.35183 ; perimeter
G1 X95.040 Y96.491 E0.35229 ; perimeter
G1 Z0.300 F6000.000 ; move to next layer (2)
G1 X95.040 Y96.491 ; move to first perimeter point
G1 X104.965 Y96.491 F6000.000 E0.41709 ; perimeter
G1 X100.016 Y103.452 E0.47285 ; perimeter
G1 X99.056 Y102.127 E0.48353 ; perimeter
G1 X98.846 Y101.745 E0.48638 ; perimeter
G1 X95.081 Y96.548 E0.52829 ; perimeter
G1 X95.040 Y96.491 E0.52874 ; perimeter
G1 Z0.400 F6000.000 ; move to next layer (3)
G1 X95.040 Y96.491 ; move to first perimeter point
G1 X104.965 Y96.491 F6000.000 E0.59354 ; perimeter
G1 X100.274 Y103.088 E0.64639 ; perimeter
G1 X100.041 Y103.523 E0.64962 ; perimeter
G1 X99.140 Y102.280 E0.65964 ; perimeter
G1 X98.846 Y101.745 E0.66362 ; perimeter
G1 X95.081 Y96.548 E0.70553 ; perimeter
G1 X95.040 Y96.491 E0.70598 ; perimeter
G1 Z0.500 F6000.000 ; move to next layer (4)
G1 X95.040 Y96.491 ; move to first perimeter point
G1 X104.965 Y96.491 F6000.000 E0.77079 ; perimeter
G1 X100.383 Y102.935 E0.82241 ; perimeter
G1 X100.045 Y103.566 E0.82708 ; perimeter
G1 X99.224 Y102.433 E0.83622 ; perimeter
G1 X98.846 Y101.745 E0.84134 ; perimeter
G1 X95.081 Y96.548 E0.88325 ; perimeter
G1 X95.040 Y96.491 E0.88370 ; perimeter
G1 Z0.600 F6000.000 ; move to next layer (5)
G1 X95.040 Y96.491 ; move to first perimeter point
G1 X104.965 Y96.491 F6000.000 E0.94850 ; perimeter
G1 X100.492 Y102.783 E0.99890 ; perimeter
G1 X100.049 Y103.608 E1.00502 ; perimeter
G1 X99.308 Y102.585 E1.01326 ; perimeter
G1 X98.846 Y101.745 E1.01952 ; perimeter
G1 X95.081 Y96.548 E1.06143 ; perimeter
G1 X95.040 Y96.491 E1.06188 ; perimeter
G1 Z0.700 F6000.000 ; move to next layer (6)
G1 X95.040 Y96.491 ; move to first perimeter point
G1 X104.965 Y96.491 F6000.000 E1.12669 ; perimeter
G1 X100.600 Y102.630 E1.17586 ; perimeter
G1 X100.053 Y103.650 E1.18343 ; perimeter
G1 X99.392 Y102.738 E1.19078 ; perimeter
G1 X98.846 Y101.745 E1.19818 ; perimeter
G1 X95.081 Y96.548 E1.24008 ; perimeter
G1 X95.040 Y96.491 E1.24054 ; perimeter
G1 Z0.800 F6000.000 ; move to next layer (7)
G1 X95.040 Y96.491 ; move to first perimeter point
G1 X104.965 Y96.491 F6000.000 E1.30534 ; perimeter
G1 X100.709 Y102.477 E1.35329 ; perimeter
G1 X100.057 Y103.692 E1.36230 ; perimeter
G1 X99.476 Y102.891 E1.36876 ; perimeter
G1 X98.846 Y101.745 E1.37730 ; perimeter
G1 X95.081 Y96.548 E1.41920 ; perimeter
G1 X95.040 Y96.491 E1.41966 ; perimeter
G1 Z0.900 F6000.000 ; move to next layer (8)
G1 X95.040 Y96.491 ; move to first perimeter point
G1 X104.965 Y96.491 F6000.000 E1.48446 ; perimeter
G1 X100.817 Y102.324 E1.53119 ; perimeter
G1 X100.182 Y103.509 E1.53997 ; perimeter
G1 X99.897 Y103.509 E1.54183 ; perimeter
G1 X99.560 Y103.044 E1.54558 ; perimeter
G1 X98.846 Y101.745 E1.55525 ; perimeter
G1 X95.081 Y96.548 E1.59716 ; perimeter
G1 X95.040 Y96.491 E1.59761 ; perimeter
G1 Z1.000 F6000.000 ; move to next layer (9)
G1 X95.040 Y96.491 ; move to first perimeter point
G1 X104.965 Y96.491 F6000.000 E1.66241 ; perimeter
G1 X100.926 Y102.172 E1.70792 ; perimeter
G1 X100.209 Y103.509 E1.71783 ; perimeter
G1 X99.870 Y103.509 E1.72004 ; perimeter
G1 X99.644 Y103.196 E1.72255 ; perimeter
G1 X98.846 Y101.745 E1.73336 ; perimeter
G1 X95.081 Y96.548 E1.77527 ; perimeter
G1 X95.040 Y96.491 E1.77572 ; perimeter
G1 Z1.100 F6000.000 ; move to next layer (10)
G1 X95.040 Y96.491 ; move to first perimeter point
G1 X104.965 Y96.491 F6000.000 E1.84053 ; perimeter
G1 X101.035 Y102.019 E1.88481 ; perimeter
G1 X100.235 Y103.509 E1.89585 ; perimeter
G1 X99.844 Y103.509 E1.89841 ; perimeter
G1 X99.728 Y103.349 E1.89969 ; perimeter
G1 X98.846 Y101.745 E1.91164 ; perimeter
G1 X95.081 Y96.548 E1.95355 ; perimeter
G1 X95.040 Y96.491 E1.95400 ; perimeter
G1 Z1.200 F6000.000 ; move to next layer (11)
G1 X95.040 Y96.491 ; move to first perimeter point
G1 X104.965 Y96.491 F6000.000 E2.01880 ; perimeter
G1 X101.143 Y101.866 E2.06187 ; perimeter
G1 X100.262 Y103.509 E2.07403 ; perimeter
G1 X99.816 Y103.509 E2.07695 ; perimeter
G1 X98.846 Y101.745 E2.09009 ; perimeter
G1 X95.081 Y96.548 E2.13199 ; perimeter
G1 X95.040 Y96.491 E2.13245 ; perimeter

; filament used = 2.1mm (0.0cm3)

; acceleration = 0
; bed_size = 200,200
; bed_temperature = 0
; bottom_solid_layers = 0
; bridge_fan_speed = 100
; bridge_flow_ratio = 1.16
; bridge_speed = 100
; brim_width = 0
; complete_objects = 
; cooling = 
; disable_fan_first_layers = 0
; duplicate = 1
; duplicate_distance = 6
; duplicate_grid = 1,1
; end_gcode = 
; external_perimeter_speed = 100
; extra_perimeters = 
; extruder_clearance_height = 20
; extruder_clearance_radius = 20
; extruder_offset = 0x0
; extrusion_axis = E
; extrusion_multiplier = 1
; extrusion_width = 0
; fan_always_on = 
; fan_below_layer_time = 0
; filament_diameter = 3
; fill_angle = 45
; fill_density = 0
; fill_pattern = rectilinear
; first_layer_bed_temperature = 0
; first_layer_extrusion_width = 0
; first_layer_height = 100%
; first_layer_speed = 100
; first_layer_temperature = 0
; g0 = 0
; gcode_arcs = 0
; gcode_comments = 1
; gcode_flavor = reprap
; infill_acceleration = 50
; infill_every_layers = 1
; infill_extruder = 1
; infill_extrusion_width = 0
; infill_speed = 100
; layer_gcode = 
; layer_height = .1
; max_fan_speed = 100
; min_fan_speed = 100
; min_print_speed = 1
; min_skirt_length = 0
; notes = This config has a workaround for the extrusion retraction compensation bug for the first layer... be sure to comment out those 3 lines IF the bug has been fixed.
; nozzle_diameter = .345
; only_retract_when_crossing_perimeters = 1
; output_filename_format = [input_filename_base]_[timestamp].gcode
; perimeter_acceleration = 25
; perimeter_extruder = 1
; perimeter_extrusion_width = 0
; perimeter_speed = 100
; perimeters = 1
; post_process = 
; print_center = 100,100
; randomize_start = 
; retract_before_travel = 0
; retract_length = 0
; retract_length_toolchange = 0
; retract_lift = 0
; retract_restart_extra = 0
; retract_restart_extra_toolchange = 0
; retract_speed = 26
; rotate = 0
; scale = 1
; skirt_distance = 0
; skirt_height = 0
; skirts = 0
; slowdown_below_layer_time = 0
; small_perimeter_speed = 100
; solid_fill_pattern = rectilinear
; solid_infill_below_area = 0
; solid_infill_every_layers = 0
; solid_infill_speed = 100
; start_gcode = G92 E0\nG1 E100\nG1 E0
; support_material = 
; support_material_angle = 45
; support_material_extruder = 1
; support_material_extrusion_width = 0
; support_material_pattern = honeycomb
; support_material_spacing = 0
; support_material_threshold = 0
; temperature = 0,0,0
; threads = 4
; top_solid_infill_speed = 100
; top_solid_layers = 0
; travel_speed = 100
; use_relative_e_distances = 0
; vibration_limit = 25
; z_offset = 0
