; generated by Slic3r 0.9.6-dev on 2012-11-16 at 13:18:22

; This config has a workaround for the extrusion retraction compensation bug for the first layer... be sure to comment out those 3 lines IF the bug has been fixed.

; layer_height = .175
; perimeters = 1
; top_solid_layers = 5
; bottom_solid_layers = 5
; fill_density = 1
; perimeter_speed = 130
; infill_speed = 130
; travel_speed = 300
; scale = 1
; nozzle_diameter = .345
; filament_diameter = 2.9
; extrusion_multiplier = 1
; perimeters extrusion width = 0.48mm
; infill extrusion width = 0.48mm
; first layer extrusion width = 0.48mm

G90 ; use absolute coordinates
G21 ; set units to millimeters
M82 ; use absolute distances for extrusion
G28 ; go home and zero the axes
G92 X0 Y0 Z0 E0.0
G1 Z1.0 F240 ; Head on up to a location I can be seen.
G1 E5 ; let's spew a little.
G92 E2.0
G1 E0.0 ; retract a little so I stop drooling.
G1 X0 Y0 Z0 F3000
G1 Y30
G1 X30 
G1 Y0 
G1 X100 Y0 Z1.0
G1 X100 Y30 Z0 E3
G92 E0
M106
G90 ; use absolute coordinates
G21 ; set units to millimeters
G92 E0 ; reset extrusion distance
M82 ; use absolute distances for extrusion
M106 S255 ; enable fan
G1 F1560.000 E-1.00000 ; retract
G92 E0 ; reset extrusion distance
G1 Z0.480 F18000.000 ; move to next layer (0)
G1 X88.357 Y92.750 ; move to first skirt point
G1 F1560.000 E1.00000 ; compensate retraction
G1 X88.437 Y92.610 F3900.000 E1.00221 ; skirt
G1 X88.587 Y92.360 E1.00622 ; skirt
G1 X88.907 Y91.880 E1.01414 ; skirt
G1 X89.087 Y91.640 E1.01825 ; skirt
G1 X89.467 Y91.200 E1.02624 ; skirt
G1 X89.677 Y90.980 E1.03041 ; skirt
G1 X89.887 Y90.780 E1.03439 ; skirt
G1 X90.107 Y90.580 E1.03847 ; skirt
G1 X90.327 Y90.400 E1.04238 ; skirt
G1 X90.557 Y90.220 E1.04639 ; skirt
G1 X90.797 Y90.050 E1.05042 ; skirt
G1 X91.047 Y89.880 E1.05457 ; skirt
G1 X91.297 Y89.730 E1.05858 ; skirt
G1 X91.547 Y89.590 E1.06251 ; skirt
G1 X91.817 Y89.460 E1.06662 ; skirt
G1 X92.077 Y89.330 E1.07061 ; skirt
G1 X92.347 Y89.220 E1.07462 ; skirt
G1 X92.627 Y89.120 E1.07870 ; skirt
G1 X93.187 Y88.940 E1.08677 ; skirt
G1 X93.467 Y88.870 E1.09073 ; skirt
G1 X93.757 Y88.810 E1.09480 ; skirt
G1 X94.047 Y88.760 E1.09884 ; skirt
G1 X94.627 Y88.700 E1.10684 ; skirt
G1 X94.927 Y88.680 E1.11097 ; skirt
G1 X105.087 Y88.680 E1.25045 ; skirt
G1 X105.387 Y88.700 E1.25458 ; skirt
G1 X105.677 Y88.730 E1.25858 ; skirt
G1 X105.977 Y88.770 E1.26274 ; skirt
G1 X106.267 Y88.820 E1.26677 ; skirt
G1 X106.557 Y88.880 E1.27084 ; skirt
G1 X106.847 Y88.950 E1.27494 ; skirt
G1 X107.137 Y89.040 E1.27910 ; skirt
G1 X107.417 Y89.130 E1.28314 ; skirt
G1 X107.697 Y89.240 E1.28727 ; skirt
G1 X107.977 Y89.360 E1.29145 ; skirt
G1 X108.247 Y89.480 E1.29551 ; skirt
G1 X108.507 Y89.620 E1.29956 ; skirt
G1 X108.767 Y89.770 E1.30368 ; skirt
G1 X109.017 Y89.920 E1.30769 ; skirt
G1 X109.267 Y90.090 E1.31184 ; skirt
G1 X109.747 Y90.450 E1.32007 ; skirt
G1 X109.967 Y90.640 E1.32406 ; skirt
G1 X110.187 Y90.850 E1.32824 ; skirt
G1 X110.607 Y91.270 E1.33639 ; skirt
G1 X110.987 Y91.730 E1.34459 ; skirt
G1 X111.167 Y91.970 E1.34870 ; skirt
G1 X111.487 Y92.470 E1.35685 ; skirt
G1 X111.637 Y92.730 E1.36097 ; skirt
G1 X111.777 Y93.000 E1.36515 ; skirt
G1 X111.847 Y93.140 E1.36730 ; skirt
G1 X111.967 Y93.400 E1.37123 ; skirt
G1 X112.087 Y93.670 E1.37529 ; skirt
G1 X112.197 Y93.940 E1.37929 ; skirt
G1 X112.287 Y94.210 E1.38319 ; skirt
G1 X112.377 Y94.490 E1.38723 ; skirt
G1 X112.447 Y94.770 E1.39119 ; skirt
G1 X112.567 Y95.350 E1.39933 ; skirt
G1 X112.607 Y95.630 E1.40321 ; skirt
G1 X112.637 Y95.920 E1.40721 ; skirt
G1 X112.657 Y96.210 E1.41120 ; skirt
G1 X112.667 Y96.510 E1.41532 ; skirt
G1 X112.667 Y96.800 E1.41930 ; skirt
G1 X112.657 Y97.090 E1.42329 ; skirt
G1 X112.637 Y97.380 E1.42728 ; skirt
G1 X112.557 Y97.960 E1.43531 ; skirt
G1 X112.507 Y98.240 E1.43922 ; skirt
G1 X112.437 Y98.530 E1.44332 ; skirt
G1 X112.277 Y99.090 E1.45131 ; skirt
G1 X112.177 Y99.360 E1.45526 ; skirt
G1 X111.957 Y99.900 E1.46327 ; skirt
G1 X111.827 Y100.160 E1.46726 ; skirt
G1 X111.687 Y100.420 E1.47131 ; skirt
G1 X111.547 Y100.670 E1.47525 ; skirt
G1 X111.387 Y100.920 E1.47932 ; skirt
G1 X111.227 Y101.160 E1.48328 ; skirt
G1 X106.397 Y107.950 E1.59767 ; skirt
G1 X106.227 Y108.180 E1.60160 ; skirt
G1 X106.047 Y108.400 E1.60550 ; skirt
G1 X105.857 Y108.620 E1.60949 ; skirt
G1 X105.667 Y108.830 E1.61338 ; skirt
G1 X105.467 Y109.030 E1.61726 ; skirt
G1 X105.257 Y109.230 E1.62124 ; skirt
G1 X104.817 Y109.590 E1.62905 ; skirt
G1 X104.357 Y109.930 E1.63690 ; skirt
G1 X104.117 Y110.080 E1.64079 ; skirt
G1 X103.617 Y110.360 E1.64865 ; skirt
G1 X103.357 Y110.490 E1.65264 ; skirt
G1 X102.837 Y110.710 E1.66039 ; skirt
G1 X102.567 Y110.810 E1.66435 ; skirt
G1 X102.297 Y110.900 E1.66825 ; skirt
G1 X102.027 Y110.970 E1.67208 ; skirt
G1 X101.747 Y111.040 E1.67605 ; skirt
G1 X101.467 Y111.100 E1.67998 ; skirt
G1 X101.187 Y111.150 E1.68388 ; skirt
G1 X100.897 Y111.180 E1.68788 ; skirt
G1 X100.617 Y111.210 E1.69175 ; skirt
G1 X100.337 Y111.230 E1.69560 ; skirt
G1 X99.757 Y111.230 E1.70357 ; skirt
G1 X99.477 Y111.210 E1.70742 ; skirt
G1 X99.187 Y111.190 E1.71141 ; skirt
G1 X98.627 Y111.110 E1.71918 ; skirt
G1 X98.347 Y111.050 E1.72311 ; skirt
G1 X98.067 Y110.980 E1.72707 ; skirt
G1 X97.797 Y110.910 E1.73090 ; skirt
G1 X97.527 Y110.820 E1.73481 ; skirt
G1 X96.987 Y110.620 E1.74271 ; skirt
G1 X96.467 Y110.380 E1.75057 ; skirt
G1 X96.217 Y110.240 E1.75451 ; skirt
G1 X95.977 Y110.100 E1.75832 ; skirt
G1 X95.727 Y109.950 E1.76232 ; skirt
G1 X95.497 Y109.790 E1.76617 ; skirt
G1 X95.267 Y109.620 E1.77010 ; skirt
G1 X95.047 Y109.440 E1.77400 ; skirt
G1 X94.827 Y109.250 E1.77799 ; skirt
G1 X94.617 Y109.060 E1.78188 ; skirt
G1 X94.417 Y108.860 E1.78576 ; skirt
G1 X94.217 Y108.650 E1.78974 ; skirt
G1 X93.857 Y108.210 E1.79755 ; skirt
G1 X93.687 Y107.980 E1.80147 ; skirt
G1 X92.587 Y106.460 E1.82723 ; skirt
G1 X88.797 Y101.200 E1.91623 ; skirt
G1 X88.627 Y100.950 E1.92038 ; skirt
G1 X88.467 Y100.700 E1.92446 ; skirt
G1 X88.317 Y100.440 E1.92858 ; skirt
G1 X88.177 Y100.180 E1.93263 ; skirt
G1 X88.047 Y99.910 E1.93674 ; skirt
G1 X87.927 Y99.640 E1.94080 ; skirt
G1 X87.817 Y99.360 E1.94493 ; skirt
G1 X87.717 Y99.080 E1.94901 ; skirt
G1 X87.627 Y98.800 E1.95305 ; skirt
G1 X87.487 Y98.220 E1.96124 ; skirt
G1 X87.437 Y97.930 E1.96528 ; skirt
G1 X87.387 Y97.630 E1.96946 ; skirt
G1 X87.357 Y97.340 E1.97346 ; skirt
G1 X87.337 Y97.040 E1.97759 ; skirt
G1 X87.327 Y96.740 E1.98171 ; skirt
G1 X87.327 Y96.450 E1.98569 ; skirt
G1 X87.337 Y96.150 E1.98981 ; skirt
G1 X87.367 Y95.850 E1.99395 ; skirt
G1 X87.397 Y95.560 E1.99795 ; skirt
G1 X87.447 Y95.260 E2.00213 ; skirt
G1 X87.567 Y94.680 E2.01026 ; skirt
G1 X87.647 Y94.390 E2.01439 ; skirt
G1 X87.737 Y94.110 E2.01842 ; skirt
G1 X87.957 Y93.550 E2.02668 ; skirt
G1 X88.077 Y93.280 E2.03074 ; skirt
G1 X88.207 Y93.010 E2.03485 ; skirt
G1 X88.323 Y92.809 E2.03804 ; skirt
G1 X88.357 Y92.750 E2.03897 ; skirt
G1 X88.747 Y92.980 F18000.000 ; move to first skirt point
G1 X88.827 Y92.840 F3900.000 E2.04119 ; skirt
G1 X88.977 Y92.590 E2.04519 ; skirt
G1 X89.127 Y92.350 E2.04908 ; skirt
G1 X89.467 Y91.890 E2.05693 ; skirt
G1 X89.657 Y91.670 E2.06092 ; skirt
G1 X89.847 Y91.460 E2.06481 ; skirt
G1 X90.047 Y91.250 E2.06879 ; skirt
G1 X90.467 Y90.870 E2.07656 ; skirt
G1 X90.687 Y90.690 E2.08047 ; skirt
G1 X90.917 Y90.510 E2.08447 ; skirt
G1 X91.157 Y90.350 E2.08843 ; skirt
G1 X91.397 Y90.200 E2.09232 ; skirt
G1 X91.647 Y90.050 E2.09632 ; skirt
G1 X91.897 Y89.920 E2.10019 ; skirt
G1 X92.157 Y89.800 E2.10412 ; skirt
G1 X92.427 Y89.680 E2.10818 ; skirt
G1 X92.687 Y89.580 E2.11200 ; skirt
G1 X92.957 Y89.480 E2.11595 ; skirt
G1 X93.237 Y89.400 E2.11995 ; skirt
G1 X93.517 Y89.330 E2.12391 ; skirt
G1 X93.797 Y89.270 E2.12785 ; skirt
G1 X94.077 Y89.220 E2.13175 ; skirt
G1 X94.357 Y89.180 E2.13563 ; skirt
G1 X94.647 Y89.150 E2.13964 ; skirt
G1 X94.927 Y89.140 E2.14348 ; skirt
G1 X95.217 Y89.130 E2.14747 ; skirt
G1 X104.787 Y89.130 E2.27884 ; skirt
G1 X105.347 Y89.150 E2.28654 ; skirt
G1 X105.627 Y89.180 E2.29040 ; skirt
G1 X106.187 Y89.260 E2.29817 ; skirt
G1 X106.457 Y89.320 E2.30197 ; skirt
G1 X106.727 Y89.390 E2.30579 ; skirt
G1 X106.997 Y89.470 E2.30966 ; skirt
G1 X107.267 Y89.560 E2.31357 ; skirt
G1 X107.527 Y89.660 E2.31739 ; skirt
G1 X107.787 Y89.770 E2.32127 ; skirt
G1 X108.047 Y89.890 E2.32520 ; skirt
G1 X108.287 Y90.020 E2.32895 ; skirt
G1 X108.537 Y90.160 E2.33288 ; skirt
G1 X108.777 Y90.300 E2.33669 ; skirt
G1 X109.007 Y90.460 E2.34054 ; skirt
G1 X109.237 Y90.630 E2.34447 ; skirt
G1 X109.457 Y90.800 E2.34828 ; skirt
G1 X109.667 Y90.980 E2.35208 ; skirt
G1 X109.877 Y91.170 E2.35597 ; skirt
G1 X110.077 Y91.370 E2.35985 ; skirt
G1 X110.267 Y91.580 E2.36374 ; skirt
G1 X110.447 Y91.790 E2.36754 ; skirt
G1 X110.627 Y92.010 E2.37144 ; skirt
G1 X110.797 Y92.240 E2.37536 ; skirt
G1 X110.947 Y92.470 E2.37913 ; skirt
G1 X111.097 Y92.710 E2.38302 ; skirt
G1 X111.237 Y92.950 E2.38683 ; skirt
G1 X111.367 Y93.200 E2.39070 ; skirt
G1 X111.567 Y93.600 E2.39684 ; skirt
G1 X111.677 Y93.860 E2.40072 ; skirt
G1 X111.777 Y94.120 E2.40454 ; skirt
G1 X111.867 Y94.390 E2.40845 ; skirt
G1 X111.947 Y94.660 E2.41231 ; skirt
G1 X112.017 Y94.940 E2.41628 ; skirt
G1 X112.077 Y95.220 E2.42021 ; skirt
G1 X112.127 Y95.500 E2.42411 ; skirt
G1 X112.167 Y95.780 E2.42799 ; skirt
G1 X112.197 Y96.060 E2.43186 ; skirt
G1 X112.207 Y96.350 E2.43584 ; skirt
G1 X112.217 Y96.630 E2.43969 ; skirt
G1 X112.207 Y96.910 E2.44354 ; skirt
G1 X112.197 Y97.200 E2.44752 ; skirt
G1 X112.167 Y97.480 E2.45139 ; skirt
G1 X112.127 Y97.760 E2.45527 ; skirt
G1 X112.077 Y98.040 E2.45917 ; skirt
G1 X112.017 Y98.320 E2.46310 ; skirt
G1 X111.947 Y98.600 E2.46707 ; skirt
G1 X111.867 Y98.870 E2.47093 ; skirt
G1 X111.777 Y99.140 E2.47484 ; skirt
G1 X111.677 Y99.400 E2.47866 ; skirt
G1 X111.567 Y99.670 E2.48267 ; skirt
G1 X111.307 Y100.170 E2.49040 ; skirt
G1 X111.167 Y100.420 E2.49434 ; skirt
G1 X111.017 Y100.660 E2.49822 ; skirt
G1 X110.857 Y100.900 E2.50218 ; skirt
G1 X106.027 Y107.690 E2.61657 ; skirt
G1 X105.687 Y108.130 E2.62421 ; skirt
G1 X105.307 Y108.550 E2.63198 ; skirt
G1 X104.907 Y108.930 E2.63956 ; skirt
G1 X104.697 Y109.110 E2.64335 ; skirt
G1 X104.477 Y109.290 E2.64726 ; skirt
G1 X104.017 Y109.610 E2.65495 ; skirt
G1 X103.537 Y109.890 E2.66258 ; skirt
G1 X103.287 Y110.020 E2.66645 ; skirt
G1 X103.027 Y110.140 E2.67038 ; skirt
G1 X102.777 Y110.250 E2.67413 ; skirt
G1 X102.517 Y110.350 E2.67795 ; skirt
G1 X102.247 Y110.440 E2.68186 ; skirt
G1 X101.977 Y110.520 E2.68572 ; skirt
G1 X101.707 Y110.590 E2.68955 ; skirt
G1 X101.437 Y110.640 E2.69332 ; skirt
G1 X101.157 Y110.690 E2.69723 ; skirt
G1 X100.887 Y110.730 E2.70097 ; skirt
G1 X100.607 Y110.760 E2.70484 ; skirt
G1 X100.047 Y110.780 E2.71253 ; skirt
G1 X99.767 Y110.780 E2.71638 ; skirt
G1 X99.487 Y110.760 E2.72023 ; skirt
G1 X98.927 Y110.700 E2.72796 ; skirt
G1 X98.657 Y110.650 E2.73173 ; skirt
G1 X98.377 Y110.590 E2.73566 ; skirt
G1 X98.107 Y110.530 E2.73946 ; skirt
G1 X97.837 Y110.450 E2.74333 ; skirt
G1 X97.577 Y110.360 E2.74710 ; skirt
G1 X97.317 Y110.260 E2.75093 ; skirt
G1 X97.057 Y110.150 E2.75480 ; skirt
G1 X96.807 Y110.040 E2.75855 ; skirt
G1 X96.557 Y109.910 E2.76242 ; skirt
G1 X96.307 Y109.770 E2.76635 ; skirt
G1 X96.067 Y109.630 E2.77017 ; skirt
G1 X95.607 Y109.310 E2.77786 ; skirt
G1 X95.387 Y109.140 E2.78168 ; skirt
G1 X95.177 Y108.960 E2.78547 ; skirt
G1 X94.967 Y108.770 E2.78936 ; skirt
G1 X94.767 Y108.570 E2.79325 ; skirt
G1 X94.577 Y108.370 E2.79703 ; skirt
G1 X94.397 Y108.160 E2.80083 ; skirt
G1 X94.217 Y107.940 E2.80473 ; skirt
G1 X94.047 Y107.720 E2.80855 ; skirt
G1 X92.947 Y106.190 E2.83442 ; skirt
G1 X92.957 Y106.190 E2.83455 ; skirt
G1 X89.167 Y100.930 E2.92356 ; skirt
G1 X89.007 Y100.700 E2.92740 ; skirt
G1 X88.857 Y100.470 E2.93117 ; skirt
G1 X88.717 Y100.220 E2.93511 ; skirt
G1 X88.577 Y99.980 E2.93892 ; skirt
G1 X88.457 Y99.720 E2.94285 ; skirt
G1 X88.347 Y99.470 E2.94660 ; skirt
G1 X88.247 Y99.210 E2.95043 ; skirt
G1 X88.147 Y98.940 E2.95438 ; skirt
G1 X88.067 Y98.670 E2.95824 ; skirt
G1 X87.927 Y98.130 E2.96590 ; skirt
G1 X87.877 Y97.850 E2.96981 ; skirt
G1 X87.837 Y97.580 E2.97355 ; skirt
G1 X87.807 Y97.300 E2.97742 ; skirt
G1 X87.787 Y97.020 E2.98127 ; skirt
G1 X87.777 Y96.740 E2.98512 ; skirt
G1 X87.777 Y96.460 E2.98896 ; skirt
G1 X87.787 Y96.180 E2.99281 ; skirt
G1 X87.847 Y95.620 E3.00054 ; skirt
G1 X87.887 Y95.340 E3.00442 ; skirt
G1 X87.947 Y95.070 E3.00822 ; skirt
G1 X88.007 Y94.790 E3.01215 ; skirt
G1 X88.087 Y94.520 E3.01602 ; skirt
G1 X88.167 Y94.260 E3.01975 ; skirt
G1 X88.267 Y93.990 E3.02371 ; skirt
G1 X88.367 Y93.730 E3.02753 ; skirt
G1 X88.487 Y93.480 E3.03134 ; skirt
G1 X88.617 Y93.220 E3.03533 ; skirt
G1 X88.715 Y93.040 E3.03814 ; skirt
G1 X88.747 Y92.980 E3.03907 ; skirt
G1 X89.137 Y93.200 F18000.000 ; move to first skirt point
G1 X89.217 Y93.060 F3900.000 E3.04129 ; skirt
G1 X89.367 Y92.820 E3.04517 ; skirt
G1 X89.517 Y92.590 E3.04894 ; skirt
G1 X89.677 Y92.360 E3.05279 ; skirt
G1 X89.847 Y92.140 E3.05661 ; skirt
G1 X90.027 Y91.930 E3.06040 ; skirt
G1 X90.217 Y91.720 E3.06429 ; skirt
G1 X90.417 Y91.520 E3.06817 ; skirt
G1 X90.617 Y91.330 E3.07196 ; skirt
G1 X90.837 Y91.150 E3.07586 ; skirt
G1 X91.057 Y90.980 E3.07968 ; skirt
G1 X91.277 Y90.820 E3.08341 ; skirt
G1 X91.507 Y90.660 E3.08726 ; skirt
G1 X91.747 Y90.520 E3.09108 ; skirt
G1 X91.997 Y90.380 E3.09501 ; skirt
G1 X92.497 Y90.140 E3.10262 ; skirt
G1 X93.017 Y89.940 E3.11027 ; skirt
G1 X93.287 Y89.860 E3.11414 ; skirt
G1 X93.827 Y89.720 E3.12179 ; skirt
G1 X94.107 Y89.670 E3.12570 ; skirt
G1 X94.377 Y89.630 E3.12945 ; skirt
G1 X94.937 Y89.590 E3.13715 ; skirt
G1 X95.217 Y89.580 E3.14100 ; skirt
G1 X104.787 Y89.580 E3.27238 ; skirt
G1 X105.057 Y89.590 E3.27609 ; skirt
G1 X105.337 Y89.600 E3.27993 ; skirt
G1 X105.607 Y89.630 E3.28366 ; skirt
G1 X105.877 Y89.670 E3.28741 ; skirt
G1 X106.147 Y89.720 E3.29118 ; skirt
G1 X106.407 Y89.780 E3.29484 ; skirt
G1 X106.677 Y89.850 E3.29867 ; skirt
G1 X106.937 Y89.930 E3.30241 ; skirt
G1 X107.197 Y90.020 E3.30618 ; skirt
G1 X107.447 Y90.120 E3.30988 ; skirt
G1 X107.697 Y90.230 E3.31363 ; skirt
G1 X107.947 Y90.350 E3.31744 ; skirt
G1 X108.187 Y90.480 E3.32118 ; skirt
G1 X108.417 Y90.610 E3.32481 ; skirt
G1 X108.647 Y90.760 E3.32858 ; skirt
G1 X108.867 Y90.920 E3.33231 ; skirt
G1 X109.087 Y91.090 E3.33613 ; skirt
G1 X109.297 Y91.260 E3.33984 ; skirt
G1 X109.497 Y91.440 E3.34353 ; skirt
G1 X109.697 Y91.630 E3.34732 ; skirt
G1 X109.887 Y91.830 E3.35111 ; skirt
G1 X110.067 Y92.040 E3.35491 ; skirt
G1 X110.237 Y92.250 E3.35861 ; skirt
G1 X110.557 Y92.690 E3.36608 ; skirt
G1 X110.697 Y92.920 E3.36978 ; skirt
G1 X110.837 Y93.160 E3.37359 ; skirt
G1 X110.967 Y93.400 E3.37734 ; skirt
G1 X111.037 Y93.540 E3.37949 ; skirt
G1 X111.157 Y93.790 E3.38330 ; skirt
G1 X111.267 Y94.050 E3.38717 ; skirt
G1 X111.357 Y94.300 E3.39082 ; skirt
G1 X111.447 Y94.570 E3.39473 ; skirt
G1 X111.527 Y94.830 E3.39846 ; skirt
G1 X111.597 Y95.100 E3.40229 ; skirt
G1 X111.647 Y95.370 E3.40606 ; skirt
G1 X111.697 Y95.650 E3.40997 ; skirt
G1 X111.727 Y95.920 E3.41370 ; skirt
G1 X111.747 Y96.200 E3.41755 ; skirt
G1 X111.757 Y96.470 E3.42126 ; skirt
G1 X111.767 Y96.750 E3.42510 ; skirt
G1 X111.757 Y97.030 E3.42895 ; skirt
G1 X111.727 Y97.300 E3.43268 ; skirt
G1 X111.697 Y97.580 E3.43655 ; skirt
G1 X111.657 Y97.850 E3.44029 ; skirt
G1 X111.537 Y98.390 E3.44789 ; skirt
G1 X111.457 Y98.660 E3.45175 ; skirt
G1 X111.377 Y98.920 E3.45549 ; skirt
G1 X111.277 Y99.180 E3.45931 ; skirt
G1 X111.167 Y99.430 E3.46306 ; skirt
G1 X110.927 Y99.930 E3.47067 ; skirt
G1 X110.787 Y100.170 E3.47449 ; skirt
G1 X110.487 Y100.630 E3.48203 ; skirt
G1 X105.657 Y107.420 E3.59642 ; skirt
